;FLAVOR:Marlin
;TIME:6388
;Filament used: 3.37282m
;Layer height: 0.2
;MINX:94.534
;MINY:57.984
;MINZ:0.2
;MAXX:138.303
;MAXY:153.579
;MAXZ:26
;TARGET_MACHINE.NAME:Creality Ender-3
;Generated with Cura_SteamEngine 5.9.0
M140 S42
M105
M190 S42
M104 S205
M105
M109 S205
M82 ;absolute extrusion mode
; Ender 3 Custom Start G-code
G92 E0 ; Reset Extruder
G28 ; Home all axes
G1 Z2.0 F3000 ; Move Z Axis up little to prevent scratching of Heat Bed
G1 X0.1 Y20 Z0.3 F5000.0 ; Move to start position
G1 X0.1 Y200.0 Z0.3 F1500.0 E15 ; Draw the first line
G1 X0.4 Y200.0 Z0.3 F5000.0 ; Move to side a little
G1 X0.4 Y20 Z0.3 F1500.0 E30 ; Draw the second line
G92 E0 ; Reset Extruder
G1 Z2.0 F3000 ; Move Z Axis up little to prevent scratching of Heat Bed
G1 X5 Y20 Z0.3 F5000.0 ; Move over to prevent blob squish
G92 E0
G92 E0
G1 F2700 E-5
;LAYER_COUNT:130
;LAYER:0
M107
G0 F6000 X119.63 Y153.578 Z0.2
;TYPE:SKIRT
G1 F2700 E0
G1 F1200 X118.209 Y153.558 E0.04727
G1 X115.53 Y153.558 E0.13637
G1 X113.848 Y153.579 E0.19232
G1 X106.097 Y153.578 E0.45012
G1 X105.364 Y153.567 E0.4745
G1 X104.392 Y153.51 E0.50689
G1 X103.429 Y153.364 E0.53928
G1 X102.483 Y153.135 E0.57165
G1 X101.559 Y152.823 E0.60409
G1 X100.669 Y152.431 E0.63644
G1 X99.846 Y151.98 E0.66765
G1 X99.007 Y151.419 E0.70122
G1 X98.303 Y150.853 E0.73126
G1 X97.55 Y150.128 E0.76603
G1 X96.913 Y149.392 E0.7984
G1 X96.383 Y148.661 E0.82844
G1 X95.847 Y147.764 E0.86319
G1 X95.425 Y146.886 E0.89559
G1 X95.083 Y145.974 E0.92799
G1 X94.823 Y145.036 E0.96036
G1 X94.645 Y144.069 E0.99306
G1 X94.548 Y142.935 E1.03092
G1 X94.534 Y142.086 E1.05916
G1 X94.547 Y141.349 E1.08368
G1 X94.632 Y140.172 E1.12293
G1 X94.726 Y139.443 E1.14737
G1 X94.905 Y138.186 E1.1896
G1 X95.185 Y135.729 E1.27185
G1 X95.408 Y133.161 E1.35759
G1 X95.547 Y130.712 E1.43917
G1 X95.622 Y128.119 E1.52545
G1 X95.632 Y126.743 E1.57122
G1 X95.627 Y99.603 E2.4739
G1 X95.589 Y97 E2.56048
G1 X95.45 Y93.724 E2.66954
G1 X95.441 Y93.277 E2.68441
G1 X95.439 Y77.516 E3.20862
G1 X95.452 Y76.626 E3.23823
G1 X95.511 Y75.655 E3.27058
G1 X95.657 Y74.691 E3.30301
G1 X95.888 Y73.745 E3.3354
G1 X96.201 Y72.823 E3.36779
G1 X96.594 Y71.932 E3.40018
G1 X97.065 Y71.079 E3.43258
G1 X97.568 Y70.328 E3.46265
G1 X97.985 Y69.789 E3.48531
G1 X99.25 Y68.288 E3.5506
G1 X100.88 Y66.264 E3.63704
G1 X102.378 Y64.291 E3.71943
G1 X103.393 Y62.907 E3.77651
G1 X104.142 Y61.999 E3.81566
G1 X104.409 Y61.711 E3.82873
G1 X105.101 Y61.027 E3.86109
G1 X105.796 Y60.45 E3.89113
G1 X107.13 Y59.57 E3.94428
G1 X108.141 Y59.056 E3.98201
G1 X109.389 Y58.58 E4.02643
G1 X109.752 Y58.468 E4.03907
G1 X110.696 Y58.224 E4.0715
G1 X111.587 Y58.075 E4.10154
G1 X112.823 Y57.99 E4.14275
G1 X113.612 Y57.984 E4.16899
G1 X115.324 Y58.012 E4.22594
G1 X118.34 Y58.012 E4.32625
G1 X119.99 Y57.985 E4.38114
G1 X120.731 Y57.993 E4.40579
G1 X121.704 Y58.055 E4.43822
G1 X122.665 Y58.203 E4.47056
G1 X123.575 Y58.425 E4.50171
G1 X124.393 Y58.698 E4.53039
G1 X124.793 Y58.848 E4.5446
G1 X125.623 Y59.204 E4.57464
G1 X126.542 Y59.699 E4.60936
G1 X127.323 Y60.214 E4.64047
G1 X128.05 Y60.781 E4.67114
G1 X128.727 Y61.378 E4.70116
G1 X129.443 Y62.133 E4.73577
G1 X129.999 Y62.829 E4.76539
G1 X131.537 Y64.933 E4.85208
G1 X133.074 Y66.917 E4.93555
G1 X134.722 Y68.927 E5.022
G1 X135.412 Y69.746 E5.05762
G1 X136.003 Y70.519 E5.08998
G1 X136.525 Y71.341 E5.12237
G1 X136.972 Y72.208 E5.15481
G1 X137.34 Y73.109 E5.18718
G1 X137.627 Y74.04 E5.21959
G1 X137.831 Y74.991 E5.25194
G1 X137.95 Y75.949 E5.28405
G1 X137.982 Y76.646 E5.30725
G1 X137.995 Y77.599 E5.33895
G1 X137.992 Y87.724 E5.67571
G1 X138.028 Y90.279 E5.7607
G1 X138.177 Y93.766 E5.87678
G1 X138.186 Y94.219 E5.89185
G1 X138.195 Y136.92 E7.31209
G1 X138.234 Y139.582 E7.40064
G1 X138.298 Y141.554 E7.46627
G1 X138.303 Y142.061 E7.48313
G1 X138.291 Y142.77 E7.50671
G1 X138.231 Y143.74 E7.53904
G1 X138.085 Y144.705 E7.5715
G1 X137.853 Y145.65 E7.60386
G1 X137.539 Y146.572 E7.63626
G1 X137.145 Y147.462 E7.66863
G1 X136.674 Y148.315 E7.70104
G1 X136.129 Y149.122 E7.73343
G1 X135.538 Y149.852 E7.76467
G1 X134.836 Y150.577 E7.79823
G1 X134.127 Y151.19 E7.82941
G1 X133.308 Y151.781 E7.863
G1 X132.532 Y152.243 E7.89304
G1 X131.59 Y152.696 E7.9278
G1 X130.678 Y153.036 E7.96017
G1 X129.774 Y153.286 E7.99137
G1 X128.772 Y153.47 E8.02525
G1 X127.623 Y153.565 E8.0636
G1 X126.974 Y153.579 E8.08519
G1 X119.63 Y153.578 E8.32945
G0 F6000 X119.636 Y153.178
G1 F1200 X118.215 Y153.158 E8.37672
G1 X115.525 Y153.158 E8.46619
G1 X113.848 Y153.179 E8.52197
G1 X106.103 Y153.178 E8.77957
G1 X105.387 Y153.168 E8.80339
G1 X104.451 Y153.114 E8.83457
G1 X103.522 Y152.975 E8.86581
G1 X102.61 Y152.756 E8.89701
G1 X101.72 Y152.457 E8.92824
G1 X100.861 Y152.08 E8.95944
G1 X100.038 Y151.629 E8.99065
G1 X99.258 Y151.107 E9.02187
G1 X98.554 Y150.541 E9.05191
G1 X97.852 Y149.866 E9.0843
G1 X97.237 Y149.157 E9.11552
G1 X96.707 Y148.426 E9.14555
G1 X96.207 Y147.59 E9.17795
G1 X95.799 Y146.745 E9.20916
G1 X95.468 Y145.867 E9.24037
G1 X95.216 Y144.963 E9.27158
G1 X95.044 Y144.035 E9.30297
G1 X94.947 Y142.901 E9.34083
G1 X94.934 Y142.093 E9.36771
G1 X94.946 Y141.378 E9.39149
G1 X95.029 Y140.223 E9.43
G1 X95.122 Y139.499 E9.45428
G1 X95.301 Y138.242 E9.49651
G1 X95.584 Y135.763 E9.5795
G1 X95.806 Y133.195 E9.66523
G1 X95.947 Y130.724 E9.74755
G1 X96.022 Y128.131 E9.83383
G1 X96.032 Y126.746 E9.8799
G1 X96.027 Y99.603 E10.78268
G1 X95.989 Y96.994 E10.86946
G1 X95.85 Y93.716 E10.97859
G1 X95.841 Y93.277 E10.99319
G1 X95.839 Y77.522 E11.5172
G1 X95.851 Y76.65 E11.54621
G1 X95.907 Y75.714 E11.5774
G1 X96.046 Y74.785 E11.60864
G1 X96.267 Y73.873 E11.63985
G1 X96.567 Y72.984 E11.67106
G1 X96.944 Y72.125 E11.70226
G1 X97.397 Y71.302 E11.7335
G1 X97.9 Y70.551 E11.76357
G1 X98.293 Y70.045 E11.78488
G1 X98.889 Y69.328 E11.81589
G1 X99.562 Y68.539 E11.85038
G1 X101.192 Y66.515 E11.93681
G1 X102.697 Y64.533 E12.01959
G1 X103.702 Y63.162 E12.07612
G1 X104.451 Y62.254 E12.11527
G1 X104.69 Y61.995 E12.127
G1 X105.357 Y61.335 E12.1582
G1 X106.052 Y60.758 E12.18825
G1 X107.312 Y59.926 E12.23847
G1 X108.284 Y59.43 E12.27476
G1 X109.532 Y58.954 E12.31919
G1 X109.853 Y58.855 E12.33036
G1 X110.762 Y58.619 E12.3616
G1 X111.653 Y58.47 E12.39164
G1 X112.826 Y58.39 E12.43075
G1 X113.605 Y58.384 E12.45666
G1 X115.317 Y58.412 E12.51361
G1 X118.347 Y58.412 E12.61439
G1 X119.986 Y58.385 E12.66891
G1 X120.706 Y58.392 E12.69285
G1 X121.643 Y58.45 E12.72408
G1 X122.57 Y58.592 E12.75527
G1 X123.48 Y58.814 E12.78643
G1 X124.252 Y59.072 E12.8135
G1 X124.635 Y59.216 E12.82711
G1 X125.465 Y59.572 E12.85715
G1 X126.322 Y60.033 E12.88951
G1 X127.077 Y60.53 E12.91958
G1 X127.785 Y61.081 E12.94941
G1 X128.462 Y61.678 E12.97944
G1 X129.131 Y62.383 E13.01176
G1 X129.676 Y63.065 E13.0408
G1 X131.221 Y65.178 E13.12786
G1 X132.765 Y67.171 E13.21171
G1 X134.416 Y69.185 E13.29833
G1 X135.095 Y69.99 E13.33336
G1 X135.666 Y70.734 E13.36455
G1 X136.17 Y71.525 E13.39574
G1 X136.602 Y72.36 E13.42701
G1 X136.958 Y73.228 E13.45822
G1 X137.236 Y74.124 E13.48942
G1 X137.434 Y75.041 E13.52062
G1 X137.55 Y75.968 E13.55169
G1 X137.582 Y76.651 E13.57444
G1 X137.595 Y77.599 E13.60597
G1 X137.592 Y87.724 E13.94273
G1 X137.628 Y90.296 E14.02828
G1 X137.777 Y93.774 E14.14407
G1 X137.786 Y94.219 E14.15887
G1 X137.795 Y136.92 E15.57911
G1 X137.834 Y139.595 E15.66809
G1 X137.898 Y141.558 E15.73342
G1 X137.903 Y142.055 E15.74995
G1 X137.892 Y142.746 E15.77293
G1 X137.835 Y143.681 E15.80409
G1 X137.696 Y144.61 E15.83533
G1 X137.474 Y145.522 E15.86655
G1 X137.173 Y146.411 E15.89777
G1 X136.795 Y147.269 E15.92895
G1 X136.342 Y148.092 E15.9602
G1 X135.818 Y148.87 E15.9914
G1 X135.227 Y149.6 E16.02264
G1 X134.574 Y150.274 E16.05385
G1 X133.865 Y150.887 E16.08502
G1 X133.103 Y151.437 E16.11628
G1 X132.327 Y151.899 E16.14632
G1 X131.45 Y152.321 E16.17869
G1 X130.571 Y152.65 E16.2099
G1 X129.667 Y152.9 E16.2411
G1 X128.739 Y153.071 E16.27248
G1 X127.59 Y153.166 E16.31083
G1 X126.974 Y153.179 E16.33132
G1 X119.636 Y153.178 E16.57539
G0 F6000 X119.642 Y152.778
G1 F1200 X118.221 Y152.758 E16.62265
G1 X115.52 Y152.758 E16.71249
G1 X113.848 Y152.779 E16.7681
G1 X106.108 Y152.778 E17.02554
G1 X105.41 Y152.769 E17.04875
G1 X104.509 Y152.718 E17.07877
G1 X103.615 Y152.586 E17.10883
G1 X102.737 Y152.377 E17.13885
G1 X101.88 Y152.09 E17.16891
G1 X101.053 Y151.729 E17.19892
G1 X100.26 Y151.296 E17.22897
G1 X99.509 Y150.795 E17.259
G1 X98.805 Y150.229 E17.28904
G1 X98.154 Y149.603 E17.31908
G1 X97.561 Y148.922 E17.34911
G1 X97.031 Y148.191 E17.37914
G1 X96.567 Y147.416 E17.40919
G1 X96.173 Y146.603 E17.43924
G1 X95.853 Y145.759 E17.46926
G1 X95.609 Y144.889 E17.49931
G1 X95.443 Y144.001 E17.52936
G1 X95.346 Y142.867 E17.56721
G1 X95.334 Y142.099 E17.59276
G1 X95.345 Y141.407 E17.61578
G1 X95.426 Y140.274 E17.65356
G1 X95.518 Y139.555 E17.67767
G1 X95.697 Y138.298 E17.7199
G1 X95.983 Y135.797 E17.80362
G1 X96.204 Y133.229 E17.88935
G1 X96.347 Y130.736 E17.9724
G1 X96.422 Y128.143 E18.05868
G1 X96.432 Y126.749 E18.10505
G1 X96.427 Y99.603 E19.00793
G1 X96.389 Y96.988 E19.09491
G1 X96.25 Y93.708 E19.2041
G1 X96.241 Y93.277 E19.21844
G1 X96.239 Y77.527 E19.74229
G1 X96.25 Y76.673 E19.7707
G1 X96.303 Y75.772 E19.80071
G1 X96.435 Y74.878 E19.83077
G1 X96.646 Y74 E19.86081
G1 X96.933 Y73.144 E19.89083
G1 X97.295 Y72.317 E19.92086
G1 X97.729 Y71.525 E19.9509
G1 X98.232 Y70.774 E19.98096
G1 X98.601 Y70.301 E20.00091
G1 X99.193 Y69.588 E20.03174
G1 X99.874 Y68.79 E20.06663
G1 X101.504 Y66.766 E20.15306
G1 X103.016 Y64.775 E20.23622
G1 X104.011 Y63.416 E20.29224
G1 X104.745 Y62.525 E20.33063
G1 X104.972 Y62.279 E20.34176
G1 X105.613 Y61.643 E20.3718
G1 X106.308 Y61.066 E20.40184
G1 X107.495 Y60.282 E20.44916
G1 X108.427 Y59.804 E20.48399
G1 X109.675 Y59.328 E20.52842
G1 X109.954 Y59.242 E20.53813
G1 X110.828 Y59.014 E20.56817
G1 X111.719 Y58.865 E20.59822
G1 X112.829 Y58.79 E20.63522
G1 X113.598 Y58.784 E20.6608
G1 X115.31 Y58.812 E20.71775
G1 X118.354 Y58.812 E20.81899
G1 X119.983 Y58.785 E20.87318
G1 X120.682 Y58.791 E20.89643
G1 X121.583 Y58.846 E20.92645
G1 X122.476 Y58.981 E20.95649
G1 X123.354 Y59.194 E20.98654
G1 X124.111 Y59.446 E21.01308
G1 X124.477 Y59.584 E21.02609
G1 X125.307 Y59.94 E21.05612
G1 X126.102 Y60.367 E21.08614
G1 X126.857 Y60.864 E21.1162
G1 X127.52 Y61.381 E21.14417
G1 X128.197 Y61.978 E21.17419
G1 X128.819 Y62.633 E21.20423
G1 X129.353 Y63.301 E21.23268
G1 X130.905 Y65.423 E21.32012
G1 X132.456 Y67.425 E21.40435
G1 X134.11 Y69.443 E21.49113
G1 X134.778 Y70.234 E21.52557
G1 X135.329 Y70.949 E21.55559
G1 X135.815 Y71.71 E21.58562
G1 X136.232 Y72.512 E21.61569
G1 X136.576 Y73.347 E21.64572
G1 X136.845 Y74.209 E21.67576
G1 X137.037 Y75.091 E21.70578
G1 X137.15 Y75.987 E21.73582
G1 X137.182 Y76.657 E21.75813
G1 X137.195 Y77.599 E21.78946
G1 X137.192 Y87.724 E22.12622
G1 X137.228 Y90.313 E22.21234
G1 X137.377 Y93.782 E22.32782
G1 X137.386 Y94.219 E22.34236
G1 X137.395 Y136.92 E23.7626
G1 X137.434 Y139.608 E23.85202
G1 X137.498 Y141.562 E23.91704
G1 X137.503 Y142.049 E23.93324
G1 X137.493 Y142.722 E23.95563
G1 X137.439 Y143.623 E23.98565
G1 X137.307 Y144.516 E24.01567
G1 X137.095 Y145.394 E24.04571
G1 X136.807 Y146.25 E24.07575
G1 X136.444 Y147.077 E24.10579
G1 X136.01 Y147.869 E24.13583
G1 X135.507 Y148.619 E24.16586
G1 X134.939 Y149.322 E24.19592
G1 X134.312 Y149.972 E24.22596
G1 X133.63 Y150.563 E24.25598
G1 X132.898 Y151.093 E24.28604
G1 X132.122 Y151.555 E24.31607
G1 X131.309 Y151.947 E24.34609
G1 X130.464 Y152.265 E24.37612
G1 X129.594 Y152.507 E24.40616
G1 X128.706 Y152.672 E24.4362
G1 X127.581 Y152.766 E24.47375
G1 X126.974 Y152.779 E24.49394
G1 X119.642 Y152.778 E24.7378
G1 F2700 E19.7378
G0 F6000 X122.971 Y142.632
G0 X122.979 Y76.617
G0 X116.729 Y73.199
G1 F2700 E24.7378
G1 F1200 X116.726 Y73.239 E24.73914
G1 X116.649 Y73.24 E24.7417
G1 X116.582 Y72.719 E24.75917
G1 X116.487 Y72.351 E24.77181
G1 X116.574 Y72.355 E24.77471
G1 X116.776 Y72.357 E24.78143
G1 X116.903 Y72.353 E24.78565
G1 X116.81 Y72.702 E24.79766
G1 X116.729 Y73.199 E24.81441
G0 F6000 X117.103 Y73.651
G1 F1200 X116.805 Y73.639 E24.82433
G1 X116.615 Y73.639 E24.83065
G1 X116.265 Y73.655 E24.8423
G1 X116.265 Y73.366 E24.85192
G1 X116.195 Y72.819 E24.87026
G1 X116.073 Y72.347 E24.88647
G1 X115.904 Y71.904 E24.90224
G1 X116.059 Y71.924 E24.90744
G1 X116.238 Y71.94 E24.91342
G1 X116.592 Y71.956 E24.9252
G1 X116.763 Y71.957 E24.93089
G1 X117.1 Y71.946 E24.94211
G1 X117.234 Y71.937 E24.94657
G1 X117.502 Y71.912 E24.95553
G1 X117.459 Y71.997 E24.95869
G1 X117.299 Y72.42 E24.97374
G1 X117.197 Y72.804 E24.98695
G1 X117.128 Y73.225 E25.00114
G1 X117.102 Y73.622 E25.01437
G1 X117.103 Y73.651 E25.01534
G0 F6000 X117.524 Y74.068
G1 F1200 X116.789 Y74.038 E25.0398
G1 X116.634 Y74.039 E25.04496
G1 X115.852 Y74.075 E25.071
G1 X115.866 Y73.958 E25.07492
G1 X115.865 Y73.367 E25.09457
G1 X115.808 Y72.92 E25.10956
G1 X115.686 Y72.448 E25.12578
G1 X115.541 Y72.069 E25.13927
G1 X115.337 Y71.676 E25.154
G1 X115.156 Y71.395 E25.16512
G1 X115.108 Y71.334 E25.1677
G1 X115.242 Y71.373 E25.17234
G1 X115.391 Y71.409 E25.17744
G1 X115.683 Y71.468 E25.18735
G1 X115.811 Y71.49 E25.19167
G1 X116.109 Y71.528 E25.20166
G1 X116.256 Y71.54 E25.20656
G1 X116.61 Y71.556 E25.21835
G1 X116.75 Y71.557 E25.22301
G1 X117.087 Y71.546 E25.23422
G1 X117.197 Y71.539 E25.23789
G1 X117.526 Y71.508 E25.24888
G1 X117.697 Y71.484 E25.25462
G1 X117.983 Y71.429 E25.26431
G1 X118.142 Y71.39 E25.26975
G1 X118.314 Y71.34 E25.27571
G1 X118.149 Y71.568 E25.28507
G1 X117.998 Y71.816 E25.29473
G1 X117.817 Y72.176 E25.30813
G1 X117.685 Y72.523 E25.32048
G1 X117.583 Y72.907 E25.33369
G1 X117.527 Y73.251 E25.34529
G1 X117.501 Y73.648 E25.35852
G1 X117.516 Y74.027 E25.37113
G1 X117.524 Y74.068 E25.37252
G0 F6000 X118.001 Y74.492
G1 F1200 X117.911 Y74.484 E25.37553
G1 X116.772 Y74.438 E25.41344
G1 X116.652 Y74.438 E25.41743
G1 X115.515 Y74.49 E25.45529
G1 X115.386 Y74.502 E25.4596
G1 X115.373 Y74.504 E25.46004
G1 X115.423 Y74.304 E25.46689
G1 X115.466 Y73.959 E25.47846
G1 X115.465 Y73.368 E25.49811
G1 X115.42 Y73.02 E25.50978
G1 X115.298 Y72.548 E25.526
G1 X115.186 Y72.253 E25.53649
G1 X114.982 Y71.86 E25.55122
G1 X114.841 Y71.642 E25.55986
G1 X114.574 Y71.301 E25.57426
G1 X114.419 Y71.133 E25.58186
G1 X114.172 Y70.906 E25.59302
G1 X114.053 Y70.808 E25.59815
G1 X113.791 Y70.616 E25.60895
G1 X113.714 Y70.564 E25.61204
G1 X113.619 Y70.503 E25.6158
G1 X113.586 Y70.38 E25.62003
G1 X113.748 Y70.381 E25.62542
G1 X114.746 Y70.801 E25.66144
G1 X114.896 Y70.855 E25.66674
G1 X115.354 Y70.989 E25.68261
G1 X115.47 Y71.017 E25.68658
G1 X115.762 Y71.076 E25.69649
G1 X115.862 Y71.093 E25.69986
G1 X116.16 Y71.131 E25.70985
G1 X116.274 Y71.141 E25.71366
G1 X116.628 Y71.157 E25.72544
G1 X116.737 Y71.157 E25.72907
G1 X117.074 Y71.146 E25.74028
G1 X117.159 Y71.141 E25.74312
G1 X117.488 Y71.11 E25.75411
G1 X117.621 Y71.091 E25.75858
G1 X117.907 Y71.036 E25.76826
G1 X118.031 Y71.006 E25.77251
G1 X118.36 Y70.911 E25.7839
G1 X118.458 Y70.879 E25.78732
G1 X118.736 Y70.776 E25.79719
G1 X118.801 Y70.75 E25.79951
G1 X119.246 Y70.56 E25.81561
G1 X119.705 Y70.379 E25.83202
G1 X119.844 Y70.38 E25.83664
G1 X119.807 Y70.499 E25.84079
G1 X119.462 Y70.745 E25.85488
G1 X119.357 Y70.828 E25.85933
G1 X119.129 Y71.026 E25.86937
G1 X119.037 Y71.113 E25.87359
G1 X118.842 Y71.316 E25.88295
G1 X118.719 Y71.464 E25.88935
G1 X118.473 Y71.803 E25.90328
G1 X118.355 Y71.996 E25.9108
G1 X118.174 Y72.356 E25.92421
G1 X118.072 Y72.626 E25.9338
G1 X117.97 Y73.01 E25.94702
G1 X117.926 Y73.278 E25.95605
G1 X117.9 Y73.675 E25.96929
G1 X117.941 Y74.114 E25.98395
G1 X117.957 Y74.29 E25.98983
G1 X118.001 Y74.492 E25.9967
G0 F6000 X118.586 Y74.972
G1 F1200 X117.988 Y74.892 E26.01677
G1 X117.895 Y74.884 E26.01988
G1 X116.756 Y74.838 E26.05779
G1 X116.67 Y74.838 E26.06065
G1 X115.533 Y74.89 E26.09851
G1 X115.441 Y74.899 E26.10158
G1 X114.768 Y74.993 E26.12418
G1 X114.872 Y74.775 E26.13222
G1 X114.939 Y74.59 E26.13876
G1 X115.036 Y74.206 E26.15193
G1 X115.066 Y73.959 E26.16021
G1 X115.065 Y73.368 E26.17987
G1 X115.033 Y73.12 E26.18818
G1 X114.911 Y72.648 E26.2044
G1 X114.831 Y72.437 E26.2119
