;FLAVOR:Marlin
;TIME:9690
;Filament used: 3.10945m
;Layer height: 0.2
;MINX:80.3
;MINY:51.825
;MINZ:0.2
;MAXX:154.701
;MAXY:181.86
;MAXZ:55
;TARGET_MACHINE.NAME:Creality Ender-3
;Generated with Cura_SteamEngine 5.9.0
M140 S42
M105
M190 S42
M104 S205
M105
M109 S205
M82 ;absolute extrusion mode
; Ender 3 Custom Start G-code
G92 E0 ; Reset Extruder
G28 ; Home all axes
G1 Z2.0 F3000 ; Move Z Axis up little to prevent scratching of Heat Bed
G1 X0.1 Y20 Z0.3 F5000.0 ; Move to start position
G1 X0.1 Y200.0 Z0.3 F1500.0 E15 ; Draw the first line
G1 X0.4 Y200.0 Z0.3 F5000.0 ; Move to side a little
G1 X0.4 Y20 Z0.3 F1500.0 E30 ; Draw the second line
G92 E0 ; Reset Extruder
G1 Z2.0 F3000 ; Move Z Axis up little to prevent scratching of Heat Bed
G1 X5 Y20 Z0.3 F5000.0 ; Move over to prevent blob squish
G92 E0
G92 E0
G1 F2700 E-5
;LAYER_COUNT:275
;LAYER:0
M107
G0 F6000 X117.323 Y75.888 Z0.2
;TYPE:SKIRT
G1 F2700 E0
G1 F1200 X117.258 Y75.668 E0.00763
G1 X117.278 Y75.596 E0.01012
G1 X117.069 Y75.907 E0.02258
G1 X117.094 Y75.719 E0.02889
G1 X117.076 Y75.896 E0.0348
G1 X117.094 Y75.719 E0.04072
G1 X117.053 Y75.605 E0.04475
G1 X117.258 Y75.668 E0.05188
G1 X117.323 Y75.888 E0.05951
G1 F2700 E-4.94049
G0 F6000 X127.698 Y77.014
G1 F2700 E0.05951
G1 F1200 X128.732 Y80.554 E0.18217
G1 X128.915 Y82.783 E0.25656
G1 X128.147 Y85.507 E0.35069
G1 X129.59 Y85.914 E0.40056
G1 X131.504 Y86.912 E0.47235
G1 X134.216 Y89.758 E0.60311
G1 X134.626 Y90.407 E0.62864
G1 X137.7 Y91.269 E0.73483
G1 X139.623 Y92.271 E0.80695
G1 X141.437 Y94.174 E0.89439
G1 X142.974 Y94.607 E0.9475
G1 X144.921 Y95.604 E1.02025
G1 X146.995 Y97.796 E1.12062
G1 X147.913 Y98.406 E1.15728
G1 X149.492 Y100.157 E1.2357
G1 X150.051 Y101.024 E1.27001
G1 X151.44 Y101.874 E1.32418
G1 X152.304 Y102.568 E1.36103
G1 X153.619 Y104.481 E1.43824
G1 X154.281 Y105.769 E1.48641
G1 X154.701 Y108.132 E1.56624
G1 X154.477 Y110.242 E1.63681
G1 X153.967 Y111.786 E1.69089
G1 X152.014 Y115.053 E1.81749
G1 X150.963 Y116.392 E1.8741
G1 X148.631 Y117.795 E1.96462
G1 X146.159 Y118.406 E2.04931
G1 X143.593 Y118.285 E2.13475
G1 X141.524 Y117.378 E2.20989
G1 X140.727 Y116.924 E2.2404
G1 X139.916 Y116.978 E2.26743
G1 X138.681 Y116.595 E2.31044
G1 X137.407 Y116.684 E2.35292
G1 X133.645 Y115.584 E2.48328
G1 X131.764 Y114.573 E2.55431
G1 X129.869 Y112.678 E2.64344
G1 X128.279 Y112.214 E2.69853
G1 X126.463 Y111.235 E2.76715
G1 X123.756 Y108.528 E2.89448
G1 X123.266 Y107.765 E2.92464
G1 X120.219 Y106.876 E3.03021
G1 X118.338 Y105.865 E3.10123
G1 X117.679 Y105.206 E3.13223
G1 X115.069 Y107.815 E3.25497
G1 X113.318 Y108.954 E3.32445
G1 X109.611 Y109.988 E3.45245
G1 X107.848 Y110.113 E3.51124
G1 X107.734 Y110.291 E3.51827
G1 X105.073 Y112.952 E3.64343
G1 X103.315 Y114.076 E3.71283
G1 X100.511 Y114.857 E3.80964
G1 X100.013 Y115.172 E3.82924
G1 X99.122 Y115.425 E3.86005
G1 X97.929 Y116.188 E3.90715
G1 X95.309 Y116.914 E3.99757
G1 X94.184 Y116.964 E4.03503
G1 X92.615 Y117.859 E4.09511
G1 X90.155 Y118.438 E4.17916
G1 X87.969 Y118.181 E4.25237
G1 X86.71 Y117.875 E4.29546
G1 X84.892 Y116.995 E4.36264
G1 X83.087 Y115.337 E4.44416
G1 X81.015 Y111.696 E4.5835
G1 X80.643 Y110.81 E4.61546
G1 X80.3 Y108.377 E4.69718
G1 X80.587 Y106.381 E4.76425
G1 X81.205 Y104.605 E4.82679
G1 X82.582 Y102.8 E4.9023
G1 X83.51 Y101.837 E4.94678
G1 X85.193 Y100.857 E5.01156
G1 X86.025 Y99.835 E5.05539
G1 X86.312 Y99.279 E5.0762
G1 X88.683 Y96.785 E5.19066
G1 X89.86 Y95.992 E5.23786
G1 X90.002 Y95.914 E5.24325
G1 X91.252 Y94.589 E5.30383
G1 X93.047 Y93.34 E5.37657
G1 X96.88 Y92.271 E5.50892
G1 X98.717 Y92.139 E5.57017
G1 X101.233 Y89.485 E5.69181
G1 X103.023 Y88.224 E5.76463
G1 X106.814 Y87.166 E5.89554
G1 X107.034 Y87.142 E5.9029
G1 X106.919 Y86.934 E5.91081
G1 X105.901 Y83.46 E6.03121
G1 X105.738 Y81.1 E6.10989
G1 X106.837 Y77.355 E6.2397
G1 X107.539 Y76.004 E6.29034
G1 X106.569 Y74.515 E6.34945
G1 X105.519 Y70.953 E6.47296
G1 X105.356 Y68.57 E6.5524
G1 X106.459 Y64.819 E6.68245
G1 X107.322 Y63.159 E6.74467
G1 X107.547 Y62.901 E6.75606
G1 X107.86 Y61.814 E6.79368
G1 X108.273 Y61.036 E6.82298
G1 X108.282 Y58.892 E6.89429
G1 X108.869 Y56.971 E6.9611
G1 X109.448 Y55.645 E7.00922
G1 X110.729 Y54.216 E7.07305
G1 X112.048 Y53.045 E7.13172
G1 X114.033 Y52.166 E7.20392
G1 X115.597 Y51.825 E7.25716
G1 X119.482 Y51.841 E7.38638
G1 X120.353 Y51.954 E7.41559
G1 X122.367 Y52.771 E7.48788
G1 X123.922 Y53.783 E7.54959
G1 X125.464 Y55.552 E7.62764
G1 X126.384 Y57.729 E7.70625
G1 X126.716 Y58.889 E7.74638
G1 X126.724 Y60.793 E7.8097
G1 X126.874 Y61.083 E7.82056
G1 X127.602 Y63.622 E7.90841
G1 X127.737 Y65.543 E7.97246
G1 X127.712 Y65.846 E7.98258
G1 X128.348 Y68.009 E8.05756
G1 X128.531 Y70.258 E8.13261
G1 X127.417 Y74.215 E8.26934
G1 X126.738 Y75.501 E8.31771
G1 X127.698 Y77.014 E8.37731
G0 F6000 X127.33 Y77.181
G1 F1200 X128.336 Y80.625 E8.49664
G1 X128.51 Y82.744 E8.56736
G1 X127.653 Y85.784 E8.67241
G1 X129.441 Y86.288 E8.73419
G1 X131.26 Y87.236 E8.80242
G1 X133.9 Y90.007 E8.92971
G1 X134.37 Y90.75 E8.95895
G1 X137.55 Y91.642 E9.0688
G1 X139.379 Y92.595 E9.1374
G1 X141.222 Y94.529 E9.22625
G1 X142.827 Y94.981 E9.28171
G1 X144.678 Y95.929 E9.35088
G1 X146.738 Y98.105 E9.45054
G1 X147.65 Y98.712 E9.48698
G1 X149.195 Y100.425 E9.56371
G1 X149.765 Y101.318 E9.59894
G1 X151.189 Y102.186 E9.65441
G1 X152.009 Y102.845 E9.6894
G1 X153.263 Y104.664 E9.76288
G1 X153.898 Y105.899 E9.80907
G1 X154.297 Y108.146 E9.88498
G1 X154.084 Y110.157 E9.95224
G1 X153.601 Y111.618 E10.00342
G1 X151.699 Y114.806 E10.12689
G1 X150.693 Y116.087 E10.18106
G1 X148.475 Y117.422 E10.26716
G1 X146.122 Y118.003 E10.34778
G1 X143.686 Y117.888 E10.42889
G1 X141.722 Y117.03 E10.50017
G1 X140.821 Y116.517 E10.53466
G1 X139.963 Y116.574 E10.56326
G1 X138.727 Y116.191 E10.60629
G1 X137.451 Y116.28 E10.64884
G1 X133.795 Y115.211 E10.77553
G1 X132.007 Y114.25 E10.84304
G1 X130.08 Y112.323 E10.93368
G1 X128.432 Y111.842 E10.99078
G1 X126.705 Y110.911 E11.05604
G1 X124.07 Y108.276 E11.17998
G1 X123.522 Y107.423 E11.2137
G1 X120.369 Y106.503 E11.32294
G1 X118.581 Y105.542 E11.39046
G1 X117.602 Y104.563 E11.43651
G1 X117.428 Y104.892 E11.44889
G1 X114.814 Y107.504 E11.57179
G1 X113.151 Y108.586 E11.63778
G1 X109.544 Y109.592 E11.76233
G1 X107.598 Y109.73 E11.82722
G1 X107.451 Y110.008 E11.83768
G1 X104.819 Y112.64 E11.96148
G1 X103.15 Y113.707 E12.02736
G1 X100.346 Y114.488 E12.12417
G1 X99.848 Y114.803 E12.14377
G1 X98.956 Y115.056 E12.17461
G1 X97.762 Y115.82 E12.22176
G1 X95.25 Y116.516 E12.30845
G1 X94.072 Y116.568 E12.34767
G1 X92.468 Y117.483 E12.40909
G1 X90.132 Y118.033 E12.48891
G1 X88.064 Y117.792 E12.55816
G1 X86.843 Y117.495 E12.59995
G1 X85.121 Y116.662 E12.66358
G1 X83.404 Y115.084 E12.74114
G1 X81.363 Y111.498 E12.87838
G1 X81.032 Y110.703 E12.90702
G1 X80.704 Y108.378 E12.98511
G1 X80.977 Y106.478 E13.04896
G1 X81.563 Y104.795 E13.10823
G1 X82.87 Y103.078 E13.18
G1 X83.76 Y102.155 E13.22265
G1 X85.457 Y101.166 E13.28797
G1 X86.362 Y100.055 E13.33563
G1 X86.641 Y99.514 E13.35588
G1 X88.943 Y97.093 E13.46699
G1 X90.084 Y96.324 E13.51276
G1 X90.251 Y96.233 E13.51908
G1 X91.516 Y94.893 E13.58037
G1 X93.221 Y93.706 E13.64947
G1 X96.946 Y92.667 E13.7781
G1 X98.931 Y92.525 E13.84429
G1 X99.007 Y92.414 E13.84876
G1 X101.495 Y89.789 E13.96905
G1 X103.197 Y88.59 E14.0383
G1 X106.921 Y87.551 E14.16689
G1 X107.733 Y87.491 E14.19397
G1 X107.303 Y86.822 E14.22042
G1 X106.297 Y83.389 E14.3394
G1 X106.142 Y81.145 E14.41422
G1 X107.21 Y77.505 E14.54039
G1 X108.002 Y75.982 E14.59748
G1 X106.937 Y74.348 E14.66236
G1 X105.915 Y70.88 E14.78261
G1 X105.76 Y68.615 E14.85812
G1 X106.832 Y64.969 E14.98452
G1 X107.677 Y63.344 E15.04543
G1 X107.904 Y63.105 E15.0564
G1 X108.232 Y61.966 E15.09582
G1 X108.673 Y61.136 E15.12708
G1 X108.682 Y58.953 E15.19969
G1 X109.236 Y57.131 E15.26303
G1 X109.789 Y55.864 E15.30901
G1 X111.027 Y54.483 E15.37069
G1 X112.265 Y53.387 E15.42569
G1 X114.159 Y52.548 E15.49459
G1 X115.64 Y52.225 E15.545
G1 X119.431 Y52.238 E15.67109
G1 X120.251 Y52.344 E15.69859
G1 X122.183 Y53.128 E15.76794
G1 X123.655 Y54.086 E15.82635
G1 X125.122 Y55.769 E15.90061
G1 X125.999 Y57.839 E15.97538
G1 X126.316 Y58.947 E16.01372
G1 X126.324 Y60.899 E16.07864
G1 X126.49 Y61.193 E16.08987
G1 X127.206 Y63.689 E16.17623
G1 X127.338 Y65.571 E16.23898
G1 X127.306 Y65.884 E16.24945
G1 X127.952 Y68.082 E16.32565
G1 X128.126 Y70.22 E16.39699
G1 X127.044 Y74.064 E16.52981
G1 X126.262 Y75.544 E16.58549
G1 X126.372 Y75.671 E16.59107
G1 X127.33 Y77.181 E16.65055
G0 F6000 X126.962 Y77.348
G1 F1200 X127.94 Y80.696 E16.76656
G1 X128.105 Y82.706 E16.83364
G1 X127.16 Y86.061 E16.94957
G1 X129.291 Y86.661 E17.0232
G1 X131.016 Y87.56 E17.0879
G1 X133.584 Y90.256 E17.21174
G1 X134.114 Y91.093 E17.24469
G1 X137.4 Y92.015 E17.3582
G1 X139.135 Y92.919 E17.42327
G1 X141.007 Y94.884 E17.51354
G1 X142.68 Y95.355 E17.57134
G1 X144.435 Y96.254 E17.63693
G1 X146.479 Y98.413 E17.73581
G1 X147.386 Y99.016 E17.77204
G1 X148.898 Y100.693 E17.84714
G1 X149.478 Y101.612 E17.88328
G1 X150.938 Y102.498 E17.94009
G1 X151.713 Y103.121 E17.97316
G1 X152.907 Y104.847 E18.04296
G1 X153.515 Y106.029 E18.08717
G1 X153.893 Y108.16 E18.15916
G1 X153.691 Y110.072 E18.2231
G1 X153.235 Y111.45 E18.27138
G1 X151.384 Y114.559 E18.39173
G1 X150.423 Y115.782 E18.44346
G1 X148.319 Y117.049 E18.52515
G1 X146.085 Y117.6 E18.60168
G1 X143.778 Y117.491 E18.67849
G1 X141.92 Y116.682 E18.74589
G1 X140.915 Y116.11 E18.78436
G1 X140.01 Y116.17 E18.81452
G1 X138.773 Y115.787 E18.85759
G1 X137.495 Y115.876 E18.9002
G1 X133.945 Y114.838 E19.02322
G1 X132.25 Y113.927 E19.08722
G1 X130.291 Y111.968 E19.17937
G1 X128.585 Y111.47 E19.23848
G1 X126.947 Y110.587 E19.30037
G1 X124.384 Y108.024 E19.42092
G1 X123.778 Y107.081 E19.45821
G1 X120.519 Y106.13 E19.57112
G1 X118.824 Y105.219 E19.63512
G1 X117.501 Y103.896 E19.69735
G1 X117.102 Y104.652 E19.72579
G1 X114.559 Y107.193 E19.84535
G1 X112.984 Y108.218 E19.90785
G1 X109.477 Y109.196 E20.02895
G1 X107.497 Y109.336 E20.09497
G1 X107.361 Y109.321 E20.09952
G1 X107.125 Y109.768 E20.11633
G1 X104.567 Y112.326 E20.23665
G1 X102.983 Y113.339 E20.29919
G1 X100.181 Y114.119 E20.39593
G1 X99.683 Y114.434 E20.41553
G1 X98.79 Y114.687 E20.4464
G1 X97.595 Y115.452 E20.49359
G1 X95.191 Y116.118 E20.57656
G1 X93.96 Y116.172 E20.61754
G1 X92.321 Y117.107 E20.6803
G1 X90.108 Y117.628 E20.75592
G1 X88.158 Y117.403 E20.8212
G1 X86.977 Y117.116 E20.86163
G1 X85.348 Y116.328 E20.92181
G1 X83.722 Y114.833 E20.99528
G1 X81.711 Y111.3 E21.13049
G1 X81.421 Y110.596 E21.15582
G1 X81.108 Y108.379 E21.23028
G1 X81.367 Y106.575 E21.2909
G1 X81.92 Y104.987 E21.34683
G1 X83.158 Y103.356 E21.41493
G1 X84.009 Y102.474 E21.4557
G1 X85.72 Y101.476 E21.52158
G1 X86.696 Y100.278 E21.57297
G1 X86.968 Y99.751 E21.5927
G1 X89.203 Y97.401 E21.70056
G1 X90.308 Y96.656 E21.74489
G1 X90.497 Y96.555 E21.75202
G1 X91.78 Y95.197 E21.81415
G1 X93.395 Y94.072 E21.87962
G1 X97.012 Y93.063 E22.00451
G1 X98.929 Y92.922 E22.06844
G1 X99.155 Y92.961 E22.07607
G1 X99.297 Y92.689 E22.08628
G1 X101.757 Y90.093 E22.20523
G1 X103.371 Y88.956 E22.2709
G1 X106.988 Y87.947 E22.39579
G1 X108.433 Y87.841 E22.44398
G1 X107.672 Y86.657 E22.49079
G1 X106.693 Y83.317 E22.60656
G1 X106.546 Y81.19 E22.67747
G1 X107.583 Y77.655 E22.8
G1 X108.362 Y76.158 E22.85613
G1 X108.535 Y75.953 E22.86505
G1 X108.304 Y75.722 E22.87591
G1 X107.305 Y74.18 E22.93702
G1 X106.311 Y70.807 E23.05398
G1 X106.164 Y68.66 E23.12556
G1 X107.205 Y65.119 E23.24831
G1 X108.007 Y63.577 E23.30612
G1 X108.261 Y63.309 E23.3184
G1 X108.604 Y62.118 E23.35963
G1 X109.073 Y61.236 E23.39285
G1 X109.082 Y59.014 E23.46676
G1 X109.603 Y57.291 E23.52663
G1 X110.13 Y56.083 E23.57046
G1 X111.292 Y54.783 E23.62846
G1 X112.484 Y53.728 E23.6814
G1 X114.285 Y52.93 E23.74692
G1 X115.683 Y52.625 E23.79451
G1 X119.379 Y52.635 E23.91744
G1 X120.149 Y52.735 E23.94326
G1 X121.999 Y53.485 E24.00966
G1 X123.39 Y54.391 E24.06487
G1 X124.779 Y55.984 E24.13517
G1 X125.614 Y57.949 E24.20618
G1 X125.916 Y59.005 E24.24271
G1 X125.925 Y61.014 E24.30953
G1 X126.106 Y61.303 E24.32087
G1 X126.81 Y63.756 E24.40575
G1 X126.939 Y65.599 E24.4672
G1 X126.898 Y65.916 E24.47783
G1 X127.556 Y68.155 E24.55545
G1 X127.721 Y70.182 E24.62309
G1 X126.671 Y73.913 E24.75201
G1 X125.774 Y75.612 E24.81591
G1 X126.034 Y75.885 E24.82845
G1 X126.962 Y77.348 E24.88607
G0 F6000 X126.594 Y77.515
G1 F1200 X127.544 Y80.767 E24.99875
G1 X127.7 Y82.668 E25.06219
G1 X126.667 Y86.337 E25.18897
G1 X129.141 Y87.034 E25.27446
G1 X130.772 Y87.884 E25.33563
G1 X133.268 Y90.505 E25.45601
G1 X133.858 Y91.436 E25.49267
G1 X137.25 Y92.388 E25.60985
G1 X138.891 Y93.243 E25.67139
G1 X140.793 Y95.239 E25.76309
G1 X142.535 Y95.73 E25.82329
G1 X144.192 Y96.579 E25.88522
G1 X146.22 Y98.721 E25.98332
G1 X147.122 Y99.32 E26.01934
G1 X148.56 Y100.907 E26.09057
G1 X149.19 Y101.905 E26.12982
G1 X150.687 Y102.81 E26.188
G1 X151.417 Y103.397 E26.21916
G1 X152.551 Y105.03 E26.28528
G1 X153.132 Y106.159 E26.32752
G1 X153.489 Y108.174 E26.39558
G1 X153.297 Y109.988 E26.45625
G1 X152.87 Y111.281 E26.50154
G1 X151.04 Y114.354 E26.6205
G1 X150.154 Y115.477 E26.66807
G1 X148.163 Y116.676 E26.74538
G1 X146.048 Y117.197 E26.81782
G1 X143.869 Y117.094 E26.89038
G1 X142.118 Y116.334 E26.95387
G1 X141.009 Y115.703 E26.9963
G1 X140.057 Y115.766 E27.02804
G1 X138.819 Y115.383 E27.07114
G1 X137.539 Y115.472 E27.11381
G1 X134.095 Y114.465 E27.23316
G1 X132.493 Y113.604 E27.29365
G1 X130.502 Y111.613 E27.3873
G1 X128.738 Y111.098 E27.44842
G1 X127.189 Y110.263 E27.50695
G1 X124.695 Y107.769 E27.62426
G1 X124.033 Y106.739 E27.66498
G1 X120.669 Y105.757 E27.78154
G1 X119.067 Y104.896 E27.84203
G1 X117.4 Y103.229 E27.92044
G1 X116.776 Y104.412 E27.96493
G1 X114.304 Y106.882 E28.08115
G1 X112.817 Y107.85 E28.14017
G1 X109.41 Y108.8 E28.25781
G1 X107.469 Y108.937 E28.32253
G1 X107.159 Y108.847 E28.33326
G1 X106.799 Y109.528 E28.35888
G1 X104.313 Y112.014 E28.47582
G1 X102.818 Y112.97 E28.53484
G1 X100.016 Y113.75 E28.63158
G1 X99.518 Y114.065 E28.65117
G1 X98.612 Y114.322 E28.6825
G1 X98.525 Y114.387 E28.68611
G1 X97.429 Y115.083 E28.72929
G1 X95.131 Y115.72 E28.80861
G1 X93.848 Y115.776 E28.85132
G1 X92.174 Y116.731 E28.91542
G1 X90.084 Y117.223 E28.98683
G1 X88.253 Y117.014 E29.04813
G1 X87.11 Y116.736 E29.08725
G1 X85.575 Y115.994 E29.14396
G1 X84.038 Y114.58 E29.21342
G1 X82.081 Y111.148 E29.34483
G1 X81.81 Y110.49 E29.36849
G1 X81.512 Y108.38 E29.43937
G1 X81.757 Y106.672 E29.49676
G1 X82.278 Y105.177 E29.54942
G1 X83.446 Y103.634 E29.61378
G1 X84.259 Y102.791 E29.65273
G1 X85.985 Y101.785 E29.71918
G1 X86.954 Y100.587 E29.77043
G1 X87.023 Y100.515 E29.77375
G1 X87.295 Y99.988 E29.79347
G1 X89.463 Y97.709 E29.89809
G1 X90.532 Y96.988 E29.94098
G1 X90.743 Y96.877 E29.94891
G1 X92.044 Y95.501 E30.01189
G1 X93.568 Y94.439 E30.07367
G1 X97.08 Y93.459 E30.19494
G1 X98.958 Y93.321 E30.25757
G1 X99.36 Y93.434 E30.27146
G1 X99.627 Y92.922 E30.29067
G1 X102.019 Y90.397 E30.40635
G1 X103.545 Y89.322 E30.46844
G1 X107.055 Y88.343 E30.58963
G1 X108.935 Y88.205 E30.65233
G1 X109.317 Y88.312 E30.66553
G1 X109.021 Y88.016 E30.67945
G1 X108.04 Y86.489 E30.73982
G1 X107.089 Y83.245 E30.85225
G1 X106.95 Y81.235 E30.91926
G1 X107.956 Y77.805 E31.03815
G1 X108.717 Y76.343 E31.09297
G1 X109.093 Y75.945 E31.11118
G1 X108.618 Y75.47 E31.13352
G1 X107.672 Y74.01 E31.19139
G1 X106.707 Y70.734 E31.30498
G1 X106.568 Y68.705 E31.37262
G1 X107.578 Y65.269 E31.49174
G1 X108.336 Y63.812 E31.54636
G1 X108.618 Y63.514 E31.56001
G1 X108.976 Y62.27 E31.60306
G1 X109.473 Y61.336 E31.63825
G1 X109.482 Y59.074 E31.71349
G1 X109.97 Y57.451 E31.76986
G1 X110.472 Y56.299 E31.81165
G1 X111.557 Y55.083 E31.86585
G1 X112.703 Y54.069 E31.91675
G1 X114.411 Y53.312 E31.97889
G1 X115.726 Y53.025 E32.02365
G1 X119.378 Y53.035 E32.14512
G1 X120.044 Y53.124 E32.16747
G1 X121.815 Y53.842 E32.23103
G1 X123.123 Y54.694 E32.28295
G1 X124.436 Y56.2 E32.3494
G1 X125.229 Y58.059 E32.41662
G1 X125.516 Y59.063 E32.45135
G1 X125.525 Y61.131 E32.52014
G1 X125.739 Y61.471 E32.5335
G1 X126.414 Y63.823 E32.61488
G1 X126.54 Y65.627 E32.67503
