;FLAVOR:Marlin
;TIME:3776
;Filament used: 1.45866m
;Layer height: 0.2
;MINX:90.24
;MINY:55.382
;MINZ:0.2
;MAXX:144.787
;MAXY:179.656
;MAXZ:6.8
;TARGET_MACHINE.NAME:Creality Ender-3
;Generated with Cura_SteamEngine 5.9.0
M140 S42
M105
M190 S42
M104 S205
M105
M109 S205
M82 ;absolute extrusion mode
; Ender 3 Custom Start G-code
G92 E0 ; Reset Extruder
G28 ; Home all axes
G1 Z2.0 F3000 ; Move Z Axis up little to prevent scratching of Heat Bed
G1 X0.1 Y20 Z0.3 F5000.0 ; Move to start position
G1 X0.1 Y200.0 Z0.3 F1500.0 E15 ; Draw the first line
G1 X0.4 Y200.0 Z0.3 F5000.0 ; Move to side a little
G1 X0.4 Y20 Z0.3 F1500.0 E30 ; Draw the second line
G92 E0 ; Reset Extruder
G1 Z2.0 F3000 ; Move Z Axis up little to prevent scratching of Heat Bed
G1 X5 Y20 Z0.3 F5000.0 ; Move over to prevent blob squish
G92 E0
G92 E0
G1 F2700 E-5
;LAYER_COUNT:34
;LAYER:0
M107
G0 F6000 X93.8 Y162.694 Z0.2
;TYPE:SKIRT
G1 F2700 E0
G1 F1200 X93.654 Y161.531 E0.03899
G1 X93.547 Y160.018 E0.08943
G1 X93.322 Y157.448 E0.17524
G1 X93.029 Y154.944 E0.25909
G1 X92.67 Y152.465 E0.3424
G1 X92.45 Y151.201 E0.38508
G1 X92.293 Y150.214 E0.41832
G1 X91.892 Y147.438 E0.5116
G1 X91.455 Y144.922 E0.59654
G1 X90.949 Y142.437 E0.68089
G1 X90.614 Y140.915 E0.73272
G1 X90.449 Y139.957 E0.76505
G1 X90.373 Y139.057 E0.79509
G1 X90.364 Y138.452 E0.81522
G1 X90.378 Y137.274 E0.8544
G1 X90.371 Y134.639 E0.94204
G1 X90.293 Y132.087 E1.02696
G1 X90.246 Y131.013 E1.06272
G1 X90.24 Y130.256 E1.0879
G1 X90.322 Y127.23 E1.18858
G1 X90.315 Y124.684 E1.27326
G1 X90.241 Y122.185 E1.35641
G1 X90.244 Y121.449 E1.38089
G1 X90.296 Y120.124 E1.425
G1 X90.365 Y117.492 E1.51257
G1 X90.358 Y114.978 E1.59618
G1 X90.279 Y112.411 E1.6816
G1 X90.247 Y111.67 E1.70627
G1 X90.252 Y110.666 E1.73966
G1 X90.359 Y108.527 E1.8109
G1 X90.425 Y105.947 E1.89674
G1 X90.417 Y103.432 E1.98039
G1 X90.379 Y102.185 E2.02188
G1 X90.367 Y101.434 E2.04686
G1 X90.381 Y99.962 E2.09582
G1 X90.375 Y97.329 E2.1834
G1 X90.297 Y94.792 E2.26782
G1 X90.249 Y93.711 E2.30381
G1 X90.253 Y92.72 E2.33677
G1 X90.341 Y91.75 E2.36916
G1 X90.506 Y90.833 E2.40015
G1 X90.645 Y90.281 E2.41909
G1 X91.724 Y86.42 E2.55242
G1 X92.331 Y83.968 E2.63644
G1 X92.867 Y81.508 E2.72018
G1 X93.331 Y79.045 E2.80354
G1 X93.723 Y76.576 E2.88669
G1 X94.056 Y74.027 E2.97219
G1 X94.214 Y72.554 E3.02146
G1 X94.368 Y71.563 E3.05482
G1 X94.547 Y70.807 E3.08066
G1 X94.843 Y69.744 E3.11736
G1 X95.124 Y68.823 E3.14938
G1 X95.45 Y67.905 E3.18179
G1 X95.856 Y67.019 E3.2142
G1 X96.302 Y66.234 E3.24423
G1 X96.899 Y65.37 E3.27916
G1 X97.58 Y64.561 E3.31433
G1 X98.352 Y63.733 E3.35198
G1 X99.038 Y63.028 E3.3847
G1 X99.749 Y62.364 E3.41706
G1 X100.46 Y61.806 E3.44712
G1 X101.307 Y61.255 E3.48073
G1 X102.295 Y60.738 E3.51781
G1 X103.42 Y60.22 E3.55901
G1 X105.742 Y59.115 E3.64454
G1 X108.015 Y57.953 E3.72944
G1 X109.478 Y57.173 E3.78459
G1 X110.329 Y56.769 E3.81592
G1 X111.499 Y56.347 E3.85729
G1 X112.458 Y56.066 E3.89052
G1 X113.593 Y55.759 E3.92963
G1 X114.544 Y55.547 E3.96204
G1 X115.509 Y55.422 E3.9944
G1 X116.482 Y55.382 E4.02679
G1 X117.384 Y55.422 E4.05682
G1 X118.417 Y55.561 E4.09149
G1 X119.268 Y55.75 E4.12048
G1 X120.434 Y56.061 E4.16062
G1 X121.446 Y56.358 E4.1957
G1 X122.365 Y56.678 E4.22806
G1 X123.225 Y57.064 E4.25942
G1 X124.223 Y57.632 E4.29761
G1 X124.807 Y58.007 E4.32069
G1 X127.023 Y59.385 E4.40749
G1 X129.2 Y60.654 E4.4913
G1 X131.928 Y62.141 E4.59464
G1 X132.76 Y62.647 E4.62702
G1 X133.554 Y63.233 E4.65985
G1 X134.541 Y64.133 E4.70427
G1 X135.416 Y65.042 E4.74624
G1 X135.952 Y65.623 E4.77253
G1 X136.577 Y66.368 E4.80487
G1 X137.135 Y67.166 E4.83726
G1 X137.621 Y68.011 E4.86968
G1 X138.03 Y68.897 E4.90214
G1 X138.372 Y69.854 E4.93594
G1 X139.489 Y73.519 E5.06337
G1 X140.283 Y75.872 E5.14597
G1 X141.586 Y79.338 E5.26913
G1 X141.874 Y80.167 E5.29832
G1 X142.172 Y81.155 E5.33264
G1 X142.417 Y82.031 E5.36289
G1 X142.559 Y82.602 E5.38246
G1 X142.775 Y83.6 E5.41642
G1 X142.966 Y84.541 E5.44836
G1 X143.531 Y86.991 E5.53199
G1 X144.168 Y89.43 E5.61583
G1 X144.403 Y90.291 E5.64551
G1 X144.616 Y91.242 E5.67793
G1 X144.746 Y92.217 E5.71064
G1 X144.785 Y93.468 E5.75227
G1 X144.722 Y95.846 E5.83139
G1 X144.722 Y98.413 E5.91677
G1 X144.785 Y100.793 E5.99596
G1 X144.779 Y101.531 E6.0205
G1 X144.679 Y103.511 E6.08644
G1 X144.609 Y106.053 E6.17102
G1 X144.611 Y108.581 E6.2551
G1 X144.682 Y111.117 E6.33949
G1 X144.685 Y111.55 E6.35389
G1 X144.655 Y113.189 E6.40841
G1 X144.657 Y115.695 E6.49176
G1 X144.736 Y118.406 E6.58197
G1 X144.78 Y119.443 E6.61649
G1 X144.787 Y120.176 E6.64087
G1 X144.723 Y122.648 E6.72312
G1 X144.727 Y125.171 E6.80703
G1 X144.785 Y127.39 E6.88086
G1 X144.78 Y128.112 E6.90487
G1 X144.68 Y130.093 E6.97085
G1 X144.608 Y132.627 E7.05516
G1 X144.608 Y135.139 E7.13871
G1 X144.682 Y137.772 E7.22632
G1 X144.663 Y138.745 E7.25869
G1 X144.565 Y139.673 E7.28973
G1 X144.441 Y140.352 E7.31268
G1 X144.181 Y141.564 E7.35391
G1 X143.663 Y144.143 E7.4414
G1 X143.245 Y146.583 E7.52374
G1 X142.849 Y149.39 E7.61802
G1 X142.727 Y150.353 E7.65031
G1 X142.605 Y151.091 E7.67519
G1 X142.082 Y153.715 E7.76418
G1 X141.659 Y156.206 E7.84822
G1 X141.308 Y158.7 E7.93199
G1 X141.022 Y161.236 E8.01687
G1 X140.916 Y162.321 E8.05313
G1 X140.776 Y163.279 E8.08533
G1 X140.59 Y164.09 E8.113
G1 X140.284 Y165.218 E8.15188
G1 X140.019 Y166.121 E8.18318
G1 X139.699 Y167.041 E8.21557
G1 X139.299 Y167.929 E8.24797
G1 X138.822 Y168.778 E8.28036
G1 X138.273 Y169.58 E8.31268
G1 X137.701 Y170.279 E8.34272
G1 X137.342 Y170.666 E8.36028
G1 X136.552 Y171.473 E8.39784
G1 X135.857 Y172.152 E8.43016
G1 X135.156 Y172.775 E8.46135
G1 X134.344 Y173.376 E8.49495
G1 X133.514 Y173.882 E8.52728
G1 X132.677 Y174.298 E8.55837
G1 X131.954 Y174.589 E8.58429
G1 X130.947 Y174.953 E8.61991
G1 X130.163 Y175.224 E8.6475
G1 X127.809 Y176.113 E8.73119
G1 X125.465 Y177.074 E8.81545
G1 X122.96 Y178.187 E8.90662
G1 X121.62 Y178.681 E8.95412
G1 X120.608 Y178.977 E8.98919
G1 X119.481 Y179.281 E9.02801
G1 X118.529 Y179.493 E9.06045
G1 X117.564 Y179.617 E9.09281
G1 X116.591 Y179.656 E9.1252
G1 X115.689 Y179.615 E9.15523
G1 X114.648 Y179.472 E9.19018
G1 X113.575 Y179.22 E9.22684
G1 X112.373 Y178.871 E9.26847
G1 X111.365 Y178.557 E9.30358
G1 X110.285 Y178.19 E9.34152
G1 X107.043 Y177.162 E9.45464
G1 X105.683 Y176.744 E9.50196
G1 X104.833 Y176.441 E9.53198
G1 X103.883 Y176.003 E9.56677
G1 X103.038 Y175.517 E9.59919
G1 X102.239 Y174.957 E9.63165
G1 X101.478 Y174.315 E9.66476
G1 X101.042 Y173.902 E9.68473
G1 X97.712 Y170.589 E9.84097
G1 X97.215 Y170.08 E9.86463
G1 X96.592 Y169.379 E9.89582
G1 X95.991 Y168.569 E9.92937
G1 X95.484 Y167.738 E9.96175
G1 X95.046 Y166.852 E9.99462
G1 X94.593 Y165.631 E10.03793
G1 X94.22 Y164.396 E10.08084
G1 X94.016 Y163.652 E10.1065
G1 X93.8 Y162.694 E10.13916
G0 F6000 X94.406 Y163.563
G1 F1200 X94.197 Y162.644 E10.17051
G1 X94.053 Y161.503 E10.20876
G1 X93.946 Y159.99 E10.25921
G1 X93.72 Y157.413 E10.34525
G1 X93.425 Y154.887 E10.42984
G1 X93.066 Y152.408 E10.51315
G1 X92.845 Y151.138 E10.55602
G1 X92.689 Y150.157 E10.58906
G1 X92.288 Y147.381 E10.68235
G1 X91.849 Y144.854 E10.76766
G1 X91.341 Y142.357 E10.85241
G1 X91.008 Y140.847 E10.90384
G1 X90.848 Y139.923 E10.93503
G1 X90.772 Y139.023 E10.96507
G1 X90.764 Y138.457 E10.9839
G1 X90.778 Y137.279 E11.02308
G1 X90.771 Y134.638 E11.11092
G1 X90.693 Y132.075 E11.19621
G1 X90.646 Y131.01 E11.23166
G1 X90.64 Y130.267 E11.25638
G1 X90.722 Y127.241 E11.35706
G1 X90.715 Y124.683 E11.44214
G1 X90.641 Y122.187 E11.52519
G1 X90.644 Y121.465 E11.5492
G1 X90.696 Y120.14 E11.59331
G1 X90.765 Y117.502 E11.68108
G1 X90.758 Y114.977 E11.76506
G1 X90.679 Y112.399 E11.85085
G1 X90.647 Y111.672 E11.87505
G1 X90.651 Y110.686 E11.90784
G1 X90.759 Y108.537 E11.97941
G1 X90.825 Y105.957 E12.06525
G1 X90.817 Y103.431 E12.14926
G1 X90.779 Y102.179 E12.19093
G1 X90.767 Y101.438 E12.21557
G1 X90.781 Y99.966 E12.26454
G1 X90.775 Y97.328 E12.35228
G1 X90.697 Y94.78 E12.43706
G1 X90.649 Y93.712 E12.47262
G1 X90.651 Y92.756 E12.50442
G1 X90.735 Y91.821 E12.53564
G1 X90.9 Y90.904 E12.56663
G1 X91.03 Y90.389 E12.5843
G1 X92.109 Y86.528 E12.71763
G1 X92.722 Y84.053 E12.80244
G1 X93.258 Y81.593 E12.88618
G1 X93.724 Y79.119 E12.96991
G1 X94.12 Y76.628 E13.0538
G1 X94.453 Y74.079 E13.1393
G1 X94.612 Y72.597 E13.18888
G1 X94.757 Y71.655 E13.22058
G1 X94.932 Y70.914 E13.2459
G1 X95.226 Y69.86 E13.2823
G1 X95.501 Y68.956 E13.31372
G1 X95.814 Y68.071 E13.34495
G1 X96.204 Y67.217 E13.37617
G1 X96.65 Y66.432 E13.4062
G1 X97.205 Y65.628 E13.43869
G1 X97.886 Y64.819 E13.47387
G1 X98.639 Y64.012 E13.51058
G1 X99.311 Y63.32 E13.54266
G1 X99.996 Y62.679 E13.57386
G1 X100.707 Y62.121 E13.60392
G1 X101.493 Y61.609 E13.63512
G1 X102.462 Y61.101 E13.67151
G1 X103.592 Y60.581 E13.71289
G1 X105.914 Y59.476 E13.79841
G1 X108.197 Y58.309 E13.88369
G1 X109.65 Y57.534 E13.93846
G1 X110.465 Y57.145 E13.9685
G1 X111.611 Y56.731 E14.00903
G1 X112.563 Y56.452 E14.04202
G1 X113.68 Y56.149 E14.08052
G1 X114.596 Y55.944 E14.11174
G1 X115.526 Y55.822 E14.14293
G1 X116.464 Y55.782 E14.17416
G1 X117.366 Y55.822 E14.20419
G1 X118.33 Y55.952 E14.23654
G1 X119.165 Y56.137 E14.26499
G1 X120.322 Y56.445 E14.30481
G1 X121.315 Y56.736 E14.33923
G1 X122.201 Y57.043 E14.37042
G1 X123.061 Y57.429 E14.40177
G1 X124.007 Y57.969 E14.438
G1 X124.596 Y58.347 E14.46127
G1 X126.822 Y59.731 E14.54846
G1 X128.999 Y61 E14.63227
G1 X131.721 Y62.483 E14.73536
G1 X132.523 Y62.969 E14.76655
G1 X133.285 Y63.529 E14.79801
G1 X134.253 Y64.411 E14.84156
G1 X135.122 Y65.313 E14.88322
G1 X135.646 Y65.88 E14.9089
G1 X136.25 Y66.598 E14.94011
G1 X136.789 Y67.366 E14.97131
G1 X137.258 Y68.179 E15.00253
G1 X137.653 Y69.032 E15.0338
G1 X137.989 Y69.971 E15.06697
G1 X139.106 Y73.636 E15.1944
G1 X139.904 Y76 E15.27739
G1 X141.208 Y79.469 E15.40065
G1 X141.491 Y80.283 E15.42931
G1 X141.787 Y81.263 E15.46336
G1 X142.029 Y82.127 E15.4932
G1 X142.168 Y82.687 E15.51239
G1 X142.383 Y83.679 E15.54615
G1 X142.576 Y84.631 E15.57846
G1 X143.144 Y87.092 E15.66247
G1 X143.782 Y89.536 E15.74648
G1 X144.013 Y90.379 E15.77555
G1 X144.22 Y91.295 E15.80679
G1 X144.346 Y92.23 E15.83817
G1 X144.385 Y93.457 E15.879
G1 X144.322 Y95.835 E15.95812
G1 X144.322 Y98.413 E16.04386
G1 X144.385 Y100.79 E16.12295
G1 X144.38 Y101.511 E16.14693
G1 X144.279 Y103.5 E16.21317
G1 X144.209 Y106.042 E16.29775
G1 X144.211 Y108.581 E16.3822
G1 X144.282 Y111.12 E16.46668
G1 X144.285 Y111.543 E16.48075
G1 X144.255 Y113.182 E16.53527
G1 X144.257 Y115.695 E16.61885
G1 X144.336 Y118.423 E16.70962
G1 X144.38 Y119.447 E16.74371
G1 X144.387 Y120.166 E16.76763
G1 X144.323 Y122.638 E16.84987
G1 X144.327 Y125.182 E16.93449
G1 X144.385 Y127.387 E17.00785
G1 X144.38 Y128.095 E17.0314
G1 X144.342 Y128.977 E17.06076
G1 X144.28 Y130.082 E17.09757
G1 X144.208 Y132.616 E17.18189
G1 X144.208 Y135.139 E17.2658
G1 X144.282 Y137.765 E17.35318
G1 X144.265 Y138.703 E17.38438
G1 X144.167 Y139.631 E17.41542
G1 X144.05 Y140.268 E17.43696
G1 X143.79 Y141.48 E17.47819
G1 X143.271 Y144.064 E17.56585
G1 X142.851 Y146.515 E17.64856
G1 X142.453 Y149.334 E17.74325
G1 X142.332 Y150.288 E17.77523
G1 X142.213 Y151.013 E17.79967
G1 X141.69 Y153.637 E17.88866
G1 X141.265 Y156.139 E17.97307
G1 X140.912 Y158.644 E18.05721
G1 X140.625 Y161.191 E18.14246
G1 X140.52 Y162.264 E18.17832
G1 X140.386 Y163.19 E18.20944
G1 X140.204 Y163.985 E18.23656
G1 X139.9 Y165.106 E18.2752
G1 X139.641 Y165.99 E18.30583
G1 X139.334 Y166.877 E18.33705
G1 X138.95 Y167.734 E18.36829
G1 X138.492 Y168.552 E18.39947
G1 X137.963 Y169.327 E18.43068
G1 X137.391 Y170.026 E18.46072
G1 X137.056 Y170.386 E18.47707
G1 X136.272 Y171.187 E18.51435
G1 X135.591 Y171.853 E18.54603
G1 X134.89 Y172.476 E18.57723
G1 X134.135 Y173.035 E18.60847
G1 X133.335 Y173.524 E18.63966
G1 X132.527 Y173.927 E18.66969
G1 X131.818 Y174.213 E18.69512
G1 X130.816 Y174.575 E18.73055
G1 X130.032 Y174.846 E18.75814
G1 X127.657 Y175.743 E18.84258
G1 X125.303 Y176.708 E18.9272
G1 X122.798 Y177.821 E19.01837
G1 X121.508 Y178.297 E19.0641
G1 X120.504 Y178.591 E19.0989
G1 X119.394 Y178.891 E19.13714
G1 X118.477 Y179.096 E19.16839
G1 X117.547 Y179.217 E19.19958
G1 X116.609 Y179.256 E19.23081
G1 X115.707 Y179.215 E19.26084
G1 X114.739 Y179.083 E19.29333
G1 X113.687 Y178.836 E19.32928
G1 X112.492 Y178.489 E19.37066
G1 X111.494 Y178.178 E19.40543
G1 X110.414 Y177.811 E19.44337
G1 X107.164 Y176.781 E19.55676
G1 X105.817 Y176.367 E19.60363
G1 X104.967 Y176.064 E19.63365
G1 X104.082 Y175.656 E19.66606
G1 X103.267 Y175.189 E19.6973
G1 X102.497 Y174.651 E19.72854
G1 X101.753 Y174.024 E19.7609
G1 X101.324 Y173.618 E19.78055
G1 X97.998 Y170.31 E19.93657
G1 X97.514 Y169.814 E19.95962
G1 X96.891 Y169.113 E19.99081
G1 X96.332 Y168.36 E20.02201
G1 X95.842 Y167.56 E20.05321
G1 X95.421 Y166.713 E20.08467
G1 X94.976 Y165.515 E20.12717
G1 X94.606 Y164.29 E20.16974
G1 X94.406 Y163.563 E20.19481
G0 F6000 X94.992 Y164.183
G1 F1200 X94.796 Y163.474 E20.21928
G1 X94.594 Y162.594 E20.24931
G1 X94.452 Y161.475 E20.28683
G1 X94.345 Y159.962 E20.33727
G1 X94.118 Y157.378 E20.42355
G1 X93.821 Y154.83 E20.50887
G1 X93.462 Y152.351 E20.59218
G1 X93.24 Y151.075 E20.63526
G1 X93.085 Y150.1 E20.6681
G1 X92.684 Y147.324 E20.76138
G1 X92.243 Y144.786 E20.84706
G1 X91.733 Y142.277 E20.93222
G1 X91.402 Y140.778 E20.98328
G1 X91.247 Y139.889 E21.01329
G1 X91.171 Y138.989 E21.04333
G1 X91.164 Y138.462 E21.06086
G1 X91.178 Y137.284 E21.10005
G1 X91.171 Y134.637 E21.18809
G1 X91.093 Y132.063 E21.27374
G1 X91.046 Y131.007 E21.30889
G1 X91.04 Y130.278 E21.33314
G1 X91.122 Y127.252 E21.43382
G1 X91.115 Y124.682 E21.5193
G1 X91.041 Y122.189 E21.60226
G1 X91.044 Y121.481 E21.6258
G1 X91.096 Y120.156 E21.66991
G1 X91.165 Y117.512 E21.75788
G1 X91.158 Y114.976 E21.84223
G1 X91.079 Y112.387 E21.92838
G1 X91.047 Y111.673 E21.95215
G1 X91.05 Y110.706 E21.98431
G1 X91.159 Y108.547 E22.05621
G1 X91.225 Y105.967 E22.14205
G1 X91.217 Y103.43 E22.22643
G1 X91.179 Y102.172 E22.26829
G1 X91.167 Y101.442 E22.29258
G1 X91.181 Y99.97 E22.34154
G1 X91.175 Y97.327 E22.42944
G1 X91.097 Y94.768 E22.5146
G1 X91.049 Y93.694 E22.55035
G1 X91.049 Y92.791 E22.58039
G1 X91.129 Y91.891 E22.61044
G1 X91.288 Y91.002 E22.64048
G1 X91.415 Y90.497 E22.6578
G1 X92.494 Y86.636 E22.79113
G1 X93.113 Y84.138 E22.87673
G1 X93.649 Y81.678 E22.96047
G1 X94.117 Y79.193 E23.04457
G1 X94.517 Y76.68 E23.12921
G1 X94.85 Y74.131 E23.21471
G1 X95.01 Y72.64 E23.26458
G1 X95.146 Y71.747 E23.29463
G1 X95.317 Y71.022 E23.3194
G1 X95.609 Y69.976 E23.35552
G1 X95.878 Y69.089 E23.38635
G1 X96.178 Y68.237 E23.4164
G1 X96.552 Y67.415 E23.44643
G1 X96.998 Y66.63 E23.47646
G1 X97.511 Y65.886 E23.50652
G1 X98.179 Y65.092 E23.54103
G1 X98.926 Y64.291 E23.57746
G1 X99.585 Y63.612 E23.60893
G1 X100.243 Y62.994 E23.63895
G1 X100.954 Y62.436 E23.66902
G1 X101.711 Y61.944 E23.69904
G1 X102.629 Y61.464 E23.7335
G1 X103.764 Y60.942 E23.77505
G1 X106.086 Y59.837 E23.86058
G1 X108.379 Y58.665 E23.94623
G1 X109.822 Y57.895 E24.00063
G1 X110.637 Y57.506 E24.03067
G1 X111.724 Y57.115 E24.06909
G1 X112.668 Y56.838 E24.10181
G1 X113.768 Y56.539 E24.13972
G1 X114.649 Y56.341 E24.16976
G1 X115.544 Y56.222 E24.19978
G1 X116.446 Y56.182 E24.22982
G1 X117.348 Y56.222 E24.25985
G1 X118.243 Y56.342 E24.28988
G1 X119.062 Y56.524 E24.31778
G1 X120.21 Y56.829 E24.35729
G1 X121.185 Y57.114 E24.39108
G1 X122.038 Y57.408 E24.42109
G1 X122.863 Y57.777 E24.45114
G1 X123.791 Y58.306 E24.48667
G1 X124.385 Y58.687 E24.51014
G1 X126.621 Y60.077 E24.59771
G1 X128.798 Y61.346 E24.68152
G1 X131.514 Y62.825 E24.78438
G1 X132.287 Y63.292 E24.81442
G1 X133.016 Y63.825 E24.84446
G1 X133.965 Y64.689 E24.88714
G1 X134.828 Y65.584 E24.9285
G1 X135.34 Y66.138 E24.95359
G1 X135.923 Y66.828 E24.98363
G1 X136.443 Y67.566 E25.01366
G1 X136.895 Y68.348 E25.0437
G1 X137.276 Y69.167 E25.07374
G1 X137.606 Y70.088 E25.10628
G1 X138.723 Y73.753 E25.23372
G1 X139.525 Y76.128 E25.31709
G1 X140.83 Y79.6 E25.44046
G1 X141.108 Y80.399 E25.4686
G1 X141.402 Y81.371 E25.50237
G1 X141.641 Y82.223 E25.5318
G1 X141.777 Y82.772 E25.55061
G1 X141.991 Y83.758 E25.58417
G1 X142.186 Y84.721 E25.61685
G1 X142.757 Y87.193 E25.70124
