;FLAVOR:Marlin
;TIME:156
;Filament used: 0.0979108m
;Layer height: 0.2
;MINX:89.021
;MINY:89.021
;MINZ:0.2
;MAXX:145.979
;MAXY:145.979
;MAXZ:1
;TARGET_MACHINE.NAME:Creality Ender-3
;Generated with Cura_SteamEngine 5.9.0
M140 S42
M105
M190 S42
M104 S205
M105
M109 S205
M82 ;absolute extrusion mode
; Ender 3 Custom Start G-code
G92 E0 ; Reset Extruder
G28 ; Home all axes
G1 Z2.0 F3000 ; Move Z Axis up little to prevent scratching of Heat Bed
G1 X0.1 Y20 Z0.3 F5000.0 ; Move to start position
G1 X0.1 Y200.0 Z0.3 F1500.0 E15 ; Draw the first line
G1 X0.4 Y200.0 Z0.3 F5000.0 ; Move to side a little
G1 X0.4 Y20 Z0.3 F1500.0 E30 ; Draw the second line
G92 E0 ; Reset Extruder
G1 Z2.0 F3000 ; Move Z Axis up little to prevent scratching of Heat Bed
G1 X5 Y20 Z0.3 F5000.0 ; Move over to prevent blob squish
G92 E0
G92 E0
G1 F2700 E-5
;LAYER_COUNT:5
;LAYER:0
M107
G0 F6000 X120.836 Y145.786 Z0.2
;TYPE:SKIRT
G1 F2700 E0
G1 F1200 X120.165 Y145.854 E0.02243
G1 X118.928 Y145.941 E0.06368
G1 X118.034 Y145.975 E0.09343
G1 X117.368 Y145.979 E0.11558
G1 X116.147 Y145.943 E0.15621
G1 X115.256 Y145.893 E0.18589
G1 X114.576 Y145.829 E0.20861
G1 X113.038 Y145.628 E0.2602
G1 X112.521 Y145.546 E0.27761
G1 X111.803 Y145.406 E0.30194
G1 X110.572 Y145.121 E0.34397
G1 X109.743 Y144.906 E0.37245
G1 X109.101 Y144.712 E0.39476
G1 X107.938 Y144.323 E0.43555
G1 X107.112 Y144.021 E0.4648
G1 X106.487 Y143.764 E0.48727
G1 X105.374 Y143.266 E0.52783
G1 X104.553 Y142.87 E0.55815
G1 X103.957 Y142.554 E0.58058
G1 X102.901 Y141.95 E0.62105
G1 X102.123 Y141.475 E0.65136
G1 X101.556 Y141.099 E0.67399
G1 X100.576 Y140.402 E0.71399
G1 X99.867 Y139.869 E0.74349
G1 X99.328 Y139.428 E0.76665
G1 X98.116 Y138.363 E0.82032
G1 X97.72 Y137.992 E0.83837
G1 X97.273 Y137.547 E0.85934
G1 X96.456 Y136.686 E0.89882
G1 X95.813 Y135.963 E0.931
G1 X95.411 Y135.474 E0.95206
G1 X94.644 Y134.485 E0.99368
G1 X94.112 Y133.755 E1.02373
G1 X93.743 Y133.207 E1.0457
G1 X93.105 Y132.19 E1.08563
G1 X92.638 Y131.396 E1.11627
G1 X92.324 Y130.814 E1.13827
G1 X91.777 Y129.718 E1.17901
G1 X91.398 Y128.899 E1.20902
G1 X91.14 Y128.282 E1.23126
G1 X90.697 Y127.119 E1.27266
G1 X90.399 Y126.258 E1.30296
G1 X90.209 Y125.642 E1.3244
G1 X89.896 Y124.498 E1.36385
G1 X89.679 Y123.603 E1.39448
G1 X89.545 Y122.937 E1.41708
G1 X89.341 Y121.737 E1.45756
G1 X89.214 Y120.836 E1.48782
G1 X89.146 Y120.165 E1.51026
G1 X89.059 Y118.928 E1.5515
G1 X89.023 Y118.028 E1.58146
G1 X89.021 Y117.369 E1.60338
G1 X89.057 Y116.147 E1.64404
G1 X89.107 Y115.256 E1.67372
G1 X89.171 Y114.576 E1.69644
G1 X89.372 Y113.038 E1.74803
G1 X89.454 Y112.521 E1.76544
G1 X89.594 Y111.803 E1.78977
G1 X89.879 Y110.572 E1.83179
G1 X90.094 Y109.743 E1.86028
G1 X90.288 Y109.099 E1.88265
G1 X90.79 Y107.617 E1.93469
G1 X90.976 Y107.121 E1.95231
G1 X91.235 Y106.488 E1.97506
G1 X91.734 Y105.373 E2.01569
G1 X92.129 Y104.555 E2.0459
G1 X92.445 Y103.959 E2.06834
G1 X93.049 Y102.904 E2.10877
G1 X93.523 Y102.126 E2.13907
G1 X93.901 Y101.556 E2.16182
G1 X94.598 Y100.575 E2.20184
G1 X95.127 Y99.873 E2.23108
G1 X95.568 Y99.33 E2.25435
G1 X96.385 Y98.394 E2.29567
G1 X96.999 Y97.729 E2.32577
G1 X97.458 Y97.268 E2.34741
G1 X98.319 Y96.452 E2.38686
G1 X99.037 Y95.813 E2.41883
G1 X99.526 Y95.411 E2.43989
G1 X100.515 Y94.644 E2.48151
G1 X101.248 Y94.11 E2.51168
G1 X101.79 Y93.745 E2.53341
G1 X102.798 Y93.112 E2.573
G1 X103.6 Y92.64 E2.60395
G1 X104.184 Y92.325 E2.62602
G1 X105.282 Y91.777 E2.66684
G1 X106.101 Y91.398 E2.69685
G1 X106.713 Y91.142 E2.71892
G1 X107.878 Y90.698 E2.76038
G1 X108.713 Y90.407 E2.78979
G1 X109.358 Y90.209 E2.81223
G1 X110.502 Y89.896 E2.85168
G1 X111.397 Y89.679 E2.88231
G1 X112.063 Y89.545 E2.90491
G1 X113.263 Y89.341 E2.94539
G1 X114.164 Y89.214 E2.97566
G1 X114.835 Y89.146 E2.99809
G1 X116.072 Y89.059 E3.03933
G1 X116.973 Y89.023 E3.06932
G1 X117.632 Y89.021 E3.09124
G1 X118.853 Y89.057 E3.13187
G1 X119.744 Y89.107 E3.16155
G1 X120.424 Y89.171 E3.18427
G1 X121.962 Y89.372 E3.23586
G1 X122.479 Y89.454 E3.25327
G1 X123.197 Y89.594 E3.2776
G1 X124.428 Y89.879 E3.31962
G1 X125.257 Y90.094 E3.34811
G1 X125.899 Y90.288 E3.37042
G1 X127.062 Y90.677 E3.4112
G1 X127.888 Y90.979 E3.44046
G1 X128.513 Y91.236 E3.46293
G1 X129.626 Y91.734 E3.50349
G1 X130.445 Y92.129 E3.53373
G1 X131.041 Y92.445 E3.55617
G1 X132.096 Y93.049 E3.5966
G1 X132.874 Y93.523 E3.6269
G1 X133.444 Y93.901 E3.64965
G1 X134.425 Y94.598 E3.68967
G1 X135.127 Y95.127 E3.71891
G1 X135.67 Y95.568 E3.74218
G1 X136.606 Y96.385 E3.7835
G1 X137.28 Y97.008 E3.81403
G1 X137.727 Y97.453 E3.835
G1 X138.544 Y98.314 E3.87448
G1 X139.187 Y99.037 E3.90666
G1 X139.589 Y99.526 E3.92772
G1 X140.356 Y100.515 E3.96934
G1 X140.89 Y101.248 E3.99951
G1 X141.255 Y101.79 E4.02124
G1 X141.888 Y102.798 E4.06083
G1 X142.36 Y103.6 E4.09178
G1 X142.675 Y104.184 E4.11385
G1 X143.223 Y105.282 E4.15467
G1 X143.602 Y106.101 E4.18468
G1 X143.858 Y106.713 E4.20675
G1 X144.302 Y107.878 E4.24821
G1 X144.593 Y108.713 E4.27762
G1 X144.791 Y109.358 E4.30006
G1 X145.104 Y110.502 E4.33951
G1 X145.321 Y111.397 E4.37014
G1 X145.455 Y112.063 E4.39274
G1 X145.659 Y113.263 E4.43322
G1 X145.785 Y114.156 E4.46322
G1 X145.854 Y114.834 E4.48588
G1 X145.941 Y116.073 E4.5272
G1 X145.977 Y116.972 E4.55712
G1 X145.979 Y117.631 E4.57904
G1 X145.943 Y118.853 E4.6197
G1 X145.893 Y119.744 E4.64938
G1 X145.829 Y120.424 E4.6721
G1 X145.628 Y121.962 E4.72369
G1 X145.546 Y122.479 E4.7411
G1 X145.406 Y123.197 E4.76543
G1 X145.121 Y124.428 E4.80745
G1 X144.906 Y125.257 E4.83594
G1 X144.714 Y125.894 E4.85807
G1 X144.33 Y127.044 E4.89839
G1 X144.023 Y127.884 E4.92814
G1 X143.765 Y128.512 E4.95072
G1 X143.266 Y129.627 E4.99135
G1 X142.871 Y130.445 E5.02156
G1 X142.555 Y131.041 E5.044
G1 X141.951 Y132.096 E5.08443
G1 X141.477 Y132.874 E5.11473
G1 X141.099 Y133.444 E5.13748
G1 X140.402 Y134.425 E5.17751
G1 X139.873 Y135.127 E5.20674
G1 X139.432 Y135.67 E5.23001
G1 X138.615 Y136.606 E5.27133
G1 X137.992 Y137.28 E5.30186
G1 X137.547 Y137.727 E5.32284
G1 X136.686 Y138.544 E5.36231
G1 X135.963 Y139.187 E5.3945
G1 X135.474 Y139.589 E5.41555
G1 X134.485 Y140.356 E5.45718
G1 X133.752 Y140.89 E5.48734
G1 X133.21 Y141.255 E5.50907
G1 X132.202 Y141.888 E5.54866
G1 X131.4 Y142.36 E5.57961
G1 X130.816 Y142.675 E5.60168
G1 X129.718 Y143.223 E5.6425
G1 X128.899 Y143.602 E5.67251
G1 X128.287 Y143.858 E5.69458
G1 X127.122 Y144.302 E5.73605
G1 X126.287 Y144.593 E5.76546
G1 X125.642 Y144.791 E5.7879
G1 X124.498 Y145.104 E5.82734
G1 X123.603 Y145.321 E5.85797
G1 X122.937 Y145.455 E5.88057
G1 X121.737 Y145.659 E5.92105
G1 X120.836 Y145.786 E5.95132
G0 F6000 X121.681 Y145.263
G1 F1200 X120.796 Y145.388 E5.98105
G1 X120.137 Y145.455 E6.00308
G1 X118.912 Y145.541 E6.04392
G1 X118.026 Y145.577 E6.07341
G1 X117.38 Y145.579 E6.0949
G1 X116.169 Y145.544 E6.13519
G1 X115.294 Y145.495 E6.16434
G1 X114.628 Y145.432 E6.18659
G1 X113.101 Y145.233 E6.23781
G1 X112.597 Y145.153 E6.25478
G1 X111.893 Y145.016 E6.27864
G1 X110.672 Y144.734 E6.32032
G1 X109.858 Y144.523 E6.34829
G1 X109.228 Y144.333 E6.37017
G1 X108.075 Y143.947 E6.41061
G1 X107.264 Y143.651 E6.43933
G1 X106.65 Y143.399 E6.4614
G1 X105.548 Y142.906 E6.50156
G1 X104.74 Y142.516 E6.5314
G1 X104.156 Y142.207 E6.55337
G1 X103.11 Y141.609 E6.59345
G1 X102.344 Y141.141 E6.6233
G1 X101.788 Y140.773 E6.64548
G1 X100.816 Y140.082 E6.68514
G1 X100.12 Y139.559 E6.7141
G1 X99.592 Y139.128 E6.73677
G1 X98.389 Y138.071 E6.79003
G1 X98.002 Y137.709 E6.80766
G1 X97.563 Y137.272 E6.82826
G1 X96.755 Y136.42 E6.86731
G1 X96.122 Y135.709 E6.89898
G1 X95.727 Y135.229 E6.91965
G1 X94.967 Y134.249 E6.9609
G1 X94.444 Y133.532 E6.99042
G1 X94.082 Y132.994 E7.01199
G1 X93.45 Y131.987 E7.05153
G1 X92.99 Y131.206 E7.08167
G1 X92.682 Y130.635 E7.10325
G1 X92.14 Y129.55 E7.14359
G1 X91.767 Y128.745 E7.1731
G1 X91.514 Y128.14 E7.19491
G1 X91.075 Y126.988 E7.23592
G1 X90.781 Y126.14 E7.26577
G1 X90.595 Y125.536 E7.28679
G1 X90.285 Y124.403 E7.32586
G1 X90.071 Y123.524 E7.35595
G1 X89.939 Y122.87 E7.37814
G1 X89.737 Y121.681 E7.41825
G1 X89.612 Y120.796 E7.44798
G1 X89.545 Y120.137 E7.47001
G1 X89.459 Y118.912 E7.51085
G1 X89.423 Y118.027 E7.54031
G1 X89.421 Y117.381 E7.5618
G1 X89.456 Y116.169 E7.60213
G1 X89.505 Y115.294 E7.63127
G1 X89.568 Y114.628 E7.65352
G1 X89.767 Y113.101 E7.70474
G1 X89.847 Y112.597 E7.72172
G1 X89.984 Y111.893 E7.74557
G1 X90.266 Y110.672 E7.78725
G1 X90.477 Y109.858 E7.81522
G1 X90.667 Y109.227 E7.83714
G1 X91.165 Y107.757 E7.88876
G1 X91.346 Y107.272 E7.90598
G1 X91.6 Y106.651 E7.92829
G1 X92.094 Y105.547 E7.96852
G1 X92.483 Y104.742 E7.99826
G1 X92.792 Y104.158 E8.02023
G1 X93.39 Y103.112 E8.0603
G1 X93.857 Y102.347 E8.09012
G1 X94.227 Y101.788 E8.11241
G1 X94.918 Y100.816 E8.15208
G1 X95.438 Y100.125 E8.18084
G1 X95.87 Y99.593 E8.20363
G1 X96.679 Y98.665 E8.24458
G1 X97.282 Y98.011 E8.27417
G1 X97.733 Y97.558 E8.29543
G1 X98.585 Y96.751 E8.33446
G1 X99.291 Y96.122 E8.36591
G1 X99.771 Y95.727 E8.38659
G1 X100.751 Y94.967 E8.42783
G1 X101.471 Y94.442 E8.45747
G1 X102.003 Y94.084 E8.4788
G1 X103.001 Y93.457 E8.518
G1 X103.79 Y92.992 E8.54846
G1 X104.363 Y92.683 E8.57011
G1 X105.45 Y92.14 E8.61053
G1 X106.255 Y91.767 E8.64004
G1 X106.856 Y91.516 E8.6617
G1 X108.01 Y91.076 E8.70278
G1 X108.845 Y90.785 E8.73219
G1 X109.464 Y90.595 E8.75372
G1 X110.597 Y90.285 E8.79279
G1 X111.476 Y90.071 E8.82288
G1 X112.13 Y89.939 E8.84507
G1 X113.319 Y89.737 E8.88518
G1 X114.204 Y89.612 E8.91491
G1 X114.863 Y89.545 E8.93694
G1 X116.088 Y89.459 E8.97779
G1 X116.974 Y89.423 E9.00728
G1 X117.62 Y89.421 E9.02877
G1 X118.831 Y89.456 E9.06906
G1 X119.706 Y89.505 E9.09821
G1 X120.372 Y89.568 E9.12046
G1 X121.899 Y89.767 E9.17168
G1 X122.403 Y89.847 E9.18865
G1 X123.107 Y89.984 E9.2125
G1 X124.328 Y90.266 E9.25418
G1 X125.142 Y90.477 E9.28215
G1 X125.772 Y90.667 E9.30404
G1 X126.925 Y91.053 E9.34448
G1 X127.736 Y91.349 E9.37319
G1 X128.35 Y91.601 E9.39527
G1 X129.452 Y92.094 E9.43542
G1 X130.258 Y92.483 E9.46519
G1 X130.842 Y92.792 E9.48716
G1 X131.888 Y93.39 E9.52724
G1 X132.653 Y93.857 E9.55705
G1 X133.212 Y94.227 E9.57934
G1 X134.184 Y94.918 E9.61901
G1 X134.875 Y95.438 E9.64777
G1 X135.407 Y95.87 E9.67057
G1 X136.335 Y96.679 E9.71151
G1 X136.998 Y97.291 E9.74152
G1 X137.437 Y97.728 E9.76213
G1 X138.245 Y98.58 E9.80118
G1 X138.878 Y99.291 E9.83284
G1 X139.273 Y99.771 E9.85352
G1 X140.033 Y100.751 E9.89477
G1 X140.558 Y101.471 E9.9244
G1 X140.916 Y102.003 E9.94573
G1 X141.543 Y103.001 E9.98493
G1 X142.008 Y103.79 E10.01539
G1 X142.317 Y104.363 E10.03705
G1 X142.86 Y105.45 E10.07746
G1 X143.233 Y106.255 E10.10697
G1 X143.484 Y106.856 E10.12863
G1 X143.924 Y108.01 E10.16971
G1 X144.215 Y108.845 E10.19912
G1 X144.405 Y109.464 E10.22065
G1 X144.715 Y110.597 E10.25972
G1 X144.929 Y111.476 E10.28981
G1 X145.061 Y112.13 E10.312
G1 X145.263 Y113.319 E10.35212
G1 X145.387 Y114.197 E10.38161
G1 X145.455 Y114.862 E10.40384
G1 X145.541 Y116.089 E10.44475
G1 X145.577 Y116.973 E10.47418
G1 X145.579 Y117.619 E10.49567
G1 X145.544 Y118.831 E10.53599
G1 X145.495 Y119.706 E10.56514
G1 X145.432 Y120.372 E10.58739
G1 X145.233 Y121.899 E10.63861
G1 X145.153 Y122.403 E10.65558
G1 X145.016 Y123.107 E10.67944
G1 X144.734 Y124.328 E10.72112
G1 X144.523 Y125.142 E10.74908
G1 X144.335 Y125.767 E10.77079
G1 X143.954 Y126.907 E10.81077
G1 X143.653 Y127.732 E10.83998
G1 X143.4 Y128.349 E10.86216
G1 X142.906 Y129.453 E10.90239
G1 X142.517 Y130.258 E10.93212
G1 X142.208 Y130.842 E10.9541
G1 X141.61 Y131.888 E10.99417
G1 X141.143 Y132.653 E11.02398
G1 X140.773 Y133.212 E11.04628
G1 X140.082 Y134.184 E11.08595
G1 X139.562 Y134.875 E11.11471
G1 X139.13 Y135.407 E11.1375
G1 X138.321 Y136.335 E11.17845
G1 X137.709 Y136.998 E11.20846
G1 X137.272 Y137.437 E11.22906
G1 X136.42 Y138.245 E11.26812
G1 X135.709 Y138.878 E11.29978
G1 X135.229 Y139.273 E11.32045
G1 X134.249 Y140.033 E11.3617
G1 X133.529 Y140.558 E11.39134
G1 X132.997 Y140.916 E11.41267
G1 X131.999 Y141.543 E11.45187
G1 X131.21 Y142.008 E11.48233
G1 X130.637 Y142.317 E11.50398
G1 X129.55 Y142.86 E11.54439
G1 X128.745 Y143.233 E11.5739
G1 X128.144 Y143.484 E11.59557
G1 X126.99 Y143.924 E11.63664
G1 X126.155 Y144.215 E11.66605
G1 X125.536 Y144.405 E11.68759
G1 X124.403 Y144.715 E11.72666
G1 X123.524 Y144.929 E11.75675
G1 X122.87 Y145.061 E11.77894
G1 X121.681 Y145.263 E11.81905
G0 F6000 X121.625 Y144.867
G1 F1200 X120.755 Y144.99 E11.84828
G1 X120.109 Y145.056 E11.86987
G1 X118.895 Y145.141 E11.91035
G1 X118.025 Y145.177 E11.93931
G1 X117.391 Y145.179 E11.9604
G1 X116.191 Y145.145 E12.00033
G1 X115.332 Y145.097 E12.02894
G1 X114.68 Y145.035 E12.05073
G1 X113.164 Y144.838 E12.10157
G1 X112.673 Y144.76 E12.11811
G1 X111.983 Y144.626 E12.14149
G1 X110.772 Y144.347 E12.18282
G1 X109.973 Y144.14 E12.21027
G1 X109.355 Y143.954 E12.23174
G1 X108.212 Y143.571 E12.27183
G1 X107.416 Y143.281 E12.30001
G1 X106.813 Y143.034 E12.32168
G1 X105.722 Y142.546 E12.36143
G1 X104.927 Y142.163 E12.39078
G1 X104.355 Y141.86 E12.41231
G1 X103.318 Y141.267 E12.45204
G1 X102.565 Y140.808 E12.48137
G1 X102.02 Y140.447 E12.50312
G1 X101.056 Y139.762 E12.54245
G1 X100.373 Y139.249 E12.57086
G1 X99.856 Y138.827 E12.59306
G1 X98.662 Y137.779 E12.6459
G1 X98.284 Y137.425 E12.66312
G1 X97.853 Y136.997 E12.68333
G1 X97.054 Y136.154 E12.72196
G1 X96.431 Y135.455 E12.7531
G1 X96.043 Y134.984 E12.7734
G1 X95.29 Y134.013 E12.81426
G1 X94.776 Y133.309 E12.84326
G1 X94.421 Y132.781 E12.86442
G1 X93.795 Y131.784 E12.90357
G1 X93.342 Y131.016 E12.93323
G1 X93.04 Y130.456 E12.95439
G1 X92.503 Y129.381 E12.99436
G1 X92.136 Y128.591 E13.02333
G1 X91.888 Y127.998 E13.04471
G1 X91.453 Y126.857 E13.08532
G1 X91.163 Y126.023 E13.11469
G1 X90.981 Y125.43 E13.13532
G1 X90.674 Y124.308 E13.17401
G1 X90.463 Y123.444 E13.20359
G1 X90.333 Y122.803 E13.22535
G1 X90.133 Y121.625 E13.26509
G1 X90.01 Y120.755 E13.29431
G1 X89.944 Y120.109 E13.31591
G1 X89.859 Y118.895 E13.35639
G1 X89.823 Y118.026 E13.38531
G1 X89.821 Y117.392 E13.4064
G1 X89.855 Y116.191 E13.44636
G1 X89.903 Y115.332 E13.47498
G1 X89.965 Y114.68 E13.49676
G1 X90.162 Y113.164 E13.54761
G1 X90.24 Y112.673 E13.56414
G1 X90.374 Y111.983 E13.58752
G1 X90.653 Y110.772 E13.62886
G1 X90.86 Y109.973 E13.65631
G1 X91.046 Y109.355 E13.67777
G1 X91.54 Y107.896 E13.72901
G1 X91.716 Y107.423 E13.74579
G1 X91.965 Y106.814 E13.76767
G1 X92.454 Y105.721 E13.8075
G1 X92.836 Y104.929 E13.83675
G1 X93.139 Y104.357 E13.85828
G1 X93.732 Y103.32 E13.89801
G1 X94.19 Y102.568 E13.92729
G1 X94.553 Y102.02 E13.94916
G1 X95.238 Y101.056 E13.98849
G1 X95.748 Y100.377 E14.01673
G1 X96.172 Y99.856 E14.03907
G1 X96.973 Y98.936 E14.07965
G1 X97.566 Y98.293 E14.10874
G1 X98.008 Y97.848 E14.1296
G1 X98.851 Y97.05 E14.16821
G1 X99.545 Y96.431 E14.19914
G1 X100.016 Y96.043 E14.21943
G1 X100.987 Y95.29 E14.2603
G1 X101.694 Y94.774 E14.28942
G1 X102.216 Y94.423 E14.31034
G1 X103.214 Y93.796 E14.34954
G1 X103.98 Y93.344 E14.37912
G1 X104.542 Y93.041 E14.40036
G1 X105.619 Y92.503 E14.4404
G1 X106.409 Y92.136 E14.46937
G1 X106.999 Y91.89 E14.49063
G1 X108.142 Y91.454 E14.53132
G1 X108.977 Y91.163 E14.56073
G1 X109.57 Y90.981 E14.58136
G1 X110.692 Y90.674 E14.62005
G1 X111.556 Y90.463 E14.64963
G1 X112.197 Y90.333 E14.67139
G1 X113.375 Y90.133 E14.71113
G1 X114.245 Y90.01 E14.74035
G1 X114.891 Y89.944 E14.76195
G1 X116.105 Y89.859 E14.80243
G1 X116.975 Y89.823 E14.83139
G1 X117.609 Y89.821 E14.85247
G1 X118.809 Y89.855 E14.8924
G1 X119.668 Y89.903 E14.92102
G1 X120.32 Y89.965 E14.9428
G1 X121.836 Y90.162 E14.99365
G1 X122.327 Y90.24 E15.01018
G1 X123.017 Y90.374 E15.03356
G1 X124.228 Y90.653 E15.07489
G1 X125.027 Y90.86 E15.10235
G1 X125.645 Y91.046 E15.12381
G1 X126.788 Y91.429 E15.1639
G1 X127.584 Y91.719 E15.19208
G1 X128.187 Y91.966 E15.21376
G1 X129.278 Y92.454 E15.25351
G1 X130.071 Y92.836 E15.28278
G1 X130.643 Y93.139 E15.30431
G1 X131.68 Y93.732 E15.34404
G1 X132.432 Y94.19 E15.37333
G1 X132.98 Y94.553 E15.39519
G1 X133.944 Y95.238 E15.43453
G1 X134.623 Y95.748 E15.46277
G1 X135.144 Y96.172 E15.48511
G1 X136.064 Y96.973 E15.52568
G1 X136.716 Y97.575 E15.5552
G1 X137.147 Y98.003 E15.5754
G1 X137.946 Y98.846 E15.61403
