;FLAVOR:Marlin
;TIME:5445
;Filament used: 4.42515m
;Layer height: 0.2
;MINX:67.85
;MINY:67.85
;MINZ:0.2
;MAXX:167.15
;MAXY:167.15
;MAXZ:13.8
;TARGET_MACHINE.NAME:Creality Ender-3
;Generated with Cura_SteamEngine 5.9.0
M140 S42
M105
M190 S42
M104 S205
M105
M109 S205
M82 ;absolute extrusion mode
; Ender 3 Custom Start G-code
G92 E0 ; Reset Extruder
G28 ; Home all axes
G1 Z2.0 F3000 ; Move Z Axis up little to prevent scratching of Heat Bed
G1 X0.1 Y20 Z0.3 F5000.0 ; Move to start position
G1 X0.1 Y200.0 Z0.3 F1500.0 E15 ; Draw the first line
G1 X0.4 Y200.0 Z0.3 F5000.0 ; Move to side a little
G1 X0.4 Y20 Z0.3 F1500.0 E30 ; Draw the second line
G92 E0 ; Reset Extruder
G1 Z2.0 F3000 ; Move Z Axis up little to prevent scratching of Heat Bed
G1 X5 Y20 Z0.3 F5000.0 ; Move over to prevent blob squish
G92 E0
G92 E0
G1 F2700 E-5
;LAYER_COUNT:69
;LAYER:0
M107
G0 F6000 X79.708 Y156.571 Z0.2
;TYPE:SKIRT
G1 F2700 E0
G1 F1200 X77.77 Y154.916 E0.08476
G1 X75.843 Y153.362 E0.1671
G1 X73.812 Y151.817 E0.25198
G1 X72.375 Y150.773 E0.31105
G1 X71.614 Y150.165 E0.34345
G1 X70.96 Y149.542 E0.37349
G1 X70.269 Y148.758 E0.40825
G1 X69.735 Y148.03 E0.43828
G1 X69.195 Y147.136 E0.47302
G1 X68.769 Y146.26 E0.50542
G1 X68.42 Y145.349 E0.53786
G1 X68.156 Y144.413 E0.57021
G1 X67.973 Y143.439 E0.60317
G1 X67.865 Y142.107 E0.64762
G1 X67.851 Y141.243 E0.67636
G1 X67.85 Y95.35 E2.20277
G1 X67.863 Y94.468 E2.23211
G1 X67.922 Y93.496 E2.26449
G1 X68.068 Y92.533 E2.29689
G1 X68.299 Y91.585 E2.32934
G1 X68.587 Y90.729 E2.35938
G1 X69.006 Y89.773 E2.3941
G1 X69.477 Y88.92 E2.42651
G1 X70.022 Y88.113 E2.45889
G1 X70.635 Y87.358 E2.49124
G1 X71.309 Y86.661 E2.52349
G1 X71.942 Y86.107 E2.55147
G1 X72.857 Y85.367 E2.59061
G1 X72.977 Y85.26 E2.59595
G1 X74.43 Y84.071 E2.6584
G1 X76.336 Y82.418 E2.74231
G1 X78.181 Y80.725 E2.8256
G1 X79.999 Y78.96 E2.90987
G1 X81.773 Y77.136 E2.9945
G1 X83.471 Y75.291 E3.0779
G1 X85.13 Y73.379 E3.16209
G1 X86.409 Y71.831 E3.22888
G1 X87.064 Y71.109 E3.2613
G1 X87.78 Y70.449 E3.29369
G1 X88.552 Y69.855 E3.32609
G1 X89.374 Y69.331 E3.35851
G1 X90.174 Y68.913 E3.38853
G1 X91.14 Y68.512 E3.42332
G1 X92.069 Y68.223 E3.45568
G1 X93.02 Y68.018 E3.48804
G1 X93.98 Y67.896 E3.52023
G1 X94.706 Y67.862 E3.5444
G1 X95.466 Y67.851 E3.56968
G1 X138.52 Y67.85 E5.00166
G1 X139.403 Y67.863 E5.03103
G1 X140.375 Y67.922 E5.06342
G1 X141.338 Y68.068 E5.09582
G1 X142.285 Y68.299 E5.12824
G1 X143.206 Y68.612 E5.16059
G1 X144.098 Y69.006 E5.19302
G1 X144.951 Y69.477 E5.22543
G1 X145.758 Y70.021 E5.2578
G1 X146.524 Y70.644 E5.29064
G1 X147.457 Y71.579 E5.33457
G1 X149.185 Y73.536 E5.42141
G1 X150.906 Y75.386 E5.50545
G1 X152.681 Y77.177 E5.58931
G1 X154.508 Y78.925 E5.67341
G1 X156.328 Y80.57 E5.75501
G1 X158.318 Y82.268 E5.84202
G1 X160.23 Y83.808 E5.92367
G1 X162.802 Y85.76 E6.03106
G1 X163.563 Y86.397 E6.06407
G1 X164.252 Y87.086 E6.09648
G1 X164.878 Y87.833 E6.1289
G1 X165.434 Y88.631 E6.16124
G1 X165.885 Y89.413 E6.19127
G1 X166.31 Y90.328 E6.22483
G1 X166.652 Y91.28 E6.25847
G1 X166.895 Y92.221 E6.2908
G1 X167.057 Y93.19 E6.32347
G1 X167.137 Y94.341 E6.36185
G1 X167.149 Y95.122 E6.38783
G1 X167.15 Y141.252 E7.92212
G1 X167.137 Y142.135 E7.95149
G1 X167.078 Y143.107 E7.98388
G1 X166.932 Y144.07 E8.01627
G1 X166.701 Y145.017 E8.04869
G1 X166.388 Y145.938 E8.08105
G1 X165.994 Y146.83 E8.11348
G1 X165.523 Y147.683 E8.14589
G1 X164.979 Y148.489 E8.17823
G1 X164.365 Y149.246 E8.21065
G1 X163.687 Y149.944 E8.24301
G1 X162.955 Y150.578 E8.27522
G1 X162.332 Y151.035 E8.30092
G1 X161.485 Y151.608 E8.33493
G1 X159.336 Y153.108 E8.4221
G1 X157.336 Y154.59 E8.50489
G1 X155.329 Y156.166 E8.58976
G1 X153.421 Y157.754 E8.67233
G1 X151.498 Y159.45 E8.75761
G1 X149.698 Y161.129 E8.83948
G1 X146.897 Y163.934 E8.97132
G1 X146.232 Y164.544 E9.00134
G1 X145.402 Y165.18 E9.03612
G1 X144.579 Y165.698 E9.06846
G1 X143.712 Y166.143 E9.10087
G1 X142.843 Y166.496 E9.13207
G1 X141.878 Y166.792 E9.16564
G1 X140.925 Y166.993 E9.19804
G1 X139.967 Y167.109 E9.23013
G1 X139.299 Y167.138 E9.25237
G1 X138.442 Y167.15 E9.28088
G1 X95.481 Y167.149 E10.70977
G1 X94.745 Y167.137 E10.73425
G1 X93.773 Y167.078 E10.76664
G1 X92.81 Y166.932 E10.79903
G1 X91.862 Y166.701 E10.83149
G1 X91.006 Y166.413 E10.86153
G1 X90.05 Y165.994 E10.89624
G1 X89.197 Y165.523 E10.92865
G1 X88.391 Y164.978 E10.96101
G1 X87.632 Y164.363 E10.9935
G1 X86.903 Y163.653 E11.02735
G1 X85.162 Y161.793 E11.11209
G1 X83.405 Y160.012 E11.1953
G1 X81.567 Y158.253 E11.27991
G1 X79.708 Y156.571 E11.36329
G0 F6000 X79.976 Y156.274
G1 F1200 X78.03 Y154.612 E11.44841
G1 X76.094 Y153.051 E11.53113
G1 X74.047 Y151.493 E11.61669
G1 X72.624 Y150.46 E11.67517
G1 X71.89 Y149.875 E11.70639
G1 X71.236 Y149.252 E11.73643
G1 X70.592 Y148.521 E11.76884
G1 X70.058 Y147.793 E11.79886
G1 X69.554 Y146.96 E11.83125
G1 X69.142 Y146.117 E11.86245
G1 X68.805 Y145.24 E11.8937
G1 X68.549 Y144.338 E11.92489
G1 X68.372 Y143.407 E11.95641
G1 X68.264 Y142.075 E12.00086
G1 X68.251 Y141.243 E12.02853
G1 X68.25 Y95.356 E13.55474
G1 X68.262 Y94.492 E13.58348
G1 X68.318 Y93.555 E13.6147
G1 X68.457 Y92.627 E13.64591
G1 X68.678 Y91.713 E13.67719
G1 X68.966 Y90.857 E13.70722
G1 X69.356 Y89.966 E13.73957
G1 X69.809 Y89.143 E13.77082
G1 X70.333 Y88.365 E13.80202
G1 X70.923 Y87.636 E13.83321
G1 X71.573 Y86.962 E13.86435
G1 X72.194 Y86.418 E13.89181
G1 X73.109 Y85.678 E13.93095
G1 X73.23 Y85.57 E13.93635
G1 X74.683 Y84.381 E13.99879
G1 X76.598 Y82.72 E14.08311
G1 X78.46 Y81.012 E14.16715
G1 X80.278 Y79.247 E14.25142
G1 X82.06 Y77.415 E14.33642
G1 X83.765 Y75.562 E14.42018
G1 X85.432 Y73.641 E14.50477
G1 X86.706 Y72.099 E14.5713
G1 X87.336 Y71.403 E14.60252
G1 X88.025 Y70.766 E14.63373
G1 X88.768 Y70.192 E14.66496
G1 X89.559 Y69.686 E14.69619
G1 X90.359 Y69.268 E14.72621
G1 X91.259 Y68.894 E14.75863
G1 X92.154 Y68.614 E14.78982
G1 X93.071 Y68.415 E14.82103
G1 X93.999 Y68.296 E14.85215
G1 X94.712 Y68.262 E14.87589
G1 X95.466 Y68.251 E14.90097
G1 X138.514 Y68.25 E16.33275
G1 X139.379 Y68.262 E16.36152
G1 X140.316 Y68.318 E16.39274
G1 X141.244 Y68.457 E16.42395
G1 X142.157 Y68.678 E16.4552
G1 X143.045 Y68.978 E16.48637
G1 X143.905 Y69.356 E16.51762
G1 X144.728 Y69.809 E16.54886
G1 X145.506 Y70.332 E16.58004
G1 X146.241 Y70.927 E16.61149
G1 X147.157 Y71.844 E16.6546
G1 X148.892 Y73.809 E16.74179
G1 X150.614 Y75.658 E16.82583
G1 X152.404 Y77.466 E16.91045
G1 X154.231 Y79.214 E16.99455
G1 X156.068 Y80.874 E17.0769
G1 X158.058 Y82.572 E17.1639
G1 X159.988 Y84.127 E17.24634
G1 X162.56 Y86.079 E17.35373
G1 X163.281 Y86.68 E17.38495
G1 X163.946 Y87.343 E17.41618
G1 X164.55 Y88.062 E17.44742
G1 X165.087 Y88.831 E17.47861
G1 X165.538 Y89.613 E17.50864
G1 X165.947 Y90.496 E17.541
G1 X166.265 Y91.381 E17.57228
G1 X166.501 Y92.288 E17.60345
G1 X166.658 Y93.218 E17.63482
G1 X166.737 Y94.347 E17.67246
G1 X166.749 Y95.122 E17.69824
G1 X166.75 Y141.246 E19.23233
G1 X166.738 Y142.111 E19.26111
G1 X166.682 Y143.048 E19.29233
G1 X166.543 Y143.976 E19.32354
G1 X166.322 Y144.889 E19.35478
G1 X166.022 Y145.777 E19.38596
G1 X165.644 Y146.637 E19.4172
G1 X165.191 Y147.46 E19.44845
G1 X164.668 Y148.238 E19.47963
G1 X164.078 Y148.968 E19.51084
G1 X163.425 Y149.642 E19.54206
G1 X162.718 Y150.255 E19.57318
G1 X162.095 Y150.712 E19.59888
G1 X161.256 Y151.28 E19.63258
G1 X159.107 Y152.78 E19.71974
G1 X157.089 Y154.275 E19.80327
G1 X155.082 Y155.851 E19.88815
G1 X153.156 Y157.454 E19.97149
G1 X151.233 Y159.15 E20.05677
G1 X149.425 Y160.836 E20.139
G1 X146.627 Y163.639 E20.27072
G1 X145.962 Y164.249 E20.30074
G1 X145.189 Y164.842 E20.33314
G1 X144.396 Y165.342 E20.36432
G1 X143.561 Y165.772 E20.39556
G1 X142.692 Y166.125 E20.42676
G1 X141.795 Y166.401 E20.45797
G1 X140.877 Y166.596 E20.48918
G1 X139.949 Y166.709 E20.52028
G1 X139.288 Y166.739 E20.54229
G1 X138.442 Y166.75 E20.57043
G1 X95.487 Y166.749 E21.99912
G1 X94.769 Y166.738 E22.023
G1 X93.832 Y166.682 E22.05422
G1 X92.904 Y166.543 E22.08543
G1 X91.99 Y166.322 E22.1167
G1 X91.134 Y166.034 E22.14674
G1 X90.243 Y165.644 E22.17909
G1 X89.42 Y165.191 E22.21034
G1 X88.642 Y164.667 E22.24154
G1 X87.911 Y164.076 E22.2728
G1 X87.195 Y163.38 E22.30601
G1 X85.447 Y161.512 E22.3911
G1 X83.69 Y159.731 E22.47431
G1 X81.844 Y157.964 E22.55931
G1 X79.976 Y156.274 E22.64309
G0 F6000 X80.244 Y155.977
G1 F1200 X78.29 Y154.308 E22.72856
G1 X76.345 Y152.74 E22.81165
G1 X74.282 Y151.169 E22.8979
G1 X72.873 Y150.147 E22.95579
G1 X72.166 Y149.585 E22.98583
G1 X71.512 Y148.962 E23.01588
G1 X70.915 Y148.284 E23.04592
G1 X70.381 Y147.556 E23.07595
G1 X69.913 Y146.784 E23.10598
G1 X69.515 Y145.973 E23.13602
G1 X69.19 Y145.13 E23.16607
G1 X68.942 Y144.262 E23.1961
G1 X68.771 Y143.375 E23.22614
G1 X68.663 Y142.043 E23.27059
G1 X68.651 Y141.243 E23.2972
G1 X68.65 Y95.361 E24.82324
G1 X68.661 Y94.515 E24.85138
G1 X68.714 Y93.613 E24.88144
G1 X68.846 Y92.72 E24.91146
G1 X69.057 Y91.841 E24.94153
G1 X69.345 Y90.985 E24.97157
G1 X69.707 Y90.158 E25.00159
G1 X70.141 Y89.366 E25.03163
G1 X70.644 Y88.616 E25.06167
G1 X71.211 Y87.913 E25.0917
G1 X71.837 Y87.263 E25.12172
G1 X72.446 Y86.729 E25.14866
G1 X73.361 Y85.989 E25.1878
G1 X73.483 Y85.88 E25.19324
G1 X74.936 Y84.691 E25.25569
G1 X76.86 Y83.022 E25.3404
G1 X78.739 Y81.299 E25.42519
G1 X80.557 Y79.534 E25.50947
G1 X82.347 Y77.694 E25.59485
G1 X84.059 Y75.833 E25.67895
G1 X85.734 Y73.903 E25.76395
G1 X87.003 Y72.367 E25.83022
G1 X87.608 Y71.696 E25.86027
G1 X88.27 Y71.082 E25.8903
G1 X88.984 Y70.529 E25.92034
G1 X89.744 Y70.041 E25.95038
G1 X90.544 Y69.623 E25.9804
G1 X91.379 Y69.276 E26.01047
G1 X92.24 Y69.005 E26.04049
G1 X93.122 Y68.812 E26.07052
G1 X94.018 Y68.696 E26.10057
G1 X94.718 Y68.662 E26.12388
G1 X95.466 Y68.651 E26.14876
G1 X138.509 Y68.65 E27.58038
G1 X139.356 Y68.661 E27.60855
G1 X140.258 Y68.714 E27.63861
G1 X141.151 Y68.846 E27.66863
G1 X142.029 Y69.057 E27.69866
G1 X142.885 Y69.345 E27.7287
G1 X143.713 Y69.707 E27.75876
G1 X144.505 Y70.141 E27.7888
G1 X145.255 Y70.644 E27.81883
G1 X145.958 Y71.21 E27.84885
G1 X146.857 Y72.109 E27.89114
G1 X148.599 Y74.082 E27.97868
G1 X150.322 Y75.93 E28.06271
G1 X152.127 Y77.755 E28.14809
G1 X153.954 Y79.503 E28.23218
G1 X155.808 Y81.178 E28.31529
G1 X157.798 Y82.876 E28.4023
G1 X159.746 Y84.446 E28.48551
G1 X162.304 Y86.387 E28.59231
G1 X162.999 Y86.964 E28.62235
G1 X163.64 Y87.601 E28.65241
G1 X164.222 Y88.291 E28.68243
G1 X164.74 Y89.031 E28.71248
G1 X165.191 Y89.813 E28.7425
G1 X165.571 Y90.632 E28.77253
G1 X165.878 Y91.482 E28.80259
G1 X166.107 Y92.355 E28.83261
G1 X166.259 Y93.246 E28.86267
G1 X166.337 Y94.353 E28.89958
G1 X166.349 Y95.122 E28.92516
G1 X166.35 Y141.241 E30.45909
G1 X166.339 Y142.088 E30.48726
G1 X166.286 Y142.99 E30.51731
G1 X166.154 Y143.883 E30.54734
G1 X165.943 Y144.761 E30.57737
G1 X165.655 Y145.617 E30.60741
G1 X165.293 Y146.445 E30.63747
G1 X164.859 Y147.237 E30.6675
G1 X164.356 Y147.987 E30.69754
G1 X163.79 Y148.69 E30.72756
G1 X163.163 Y149.34 E30.7576
G1 X162.481 Y149.932 E30.78763
G1 X161.858 Y150.389 E30.81333
G1 X161.027 Y150.952 E30.84672
G1 X158.878 Y152.452 E30.93388
G1 X156.842 Y153.96 E31.01815
G1 X154.835 Y155.536 E31.10302
G1 X152.891 Y157.154 E31.18715
G1 X150.968 Y158.85 E31.27243
G1 X149.152 Y160.543 E31.35501
G1 X146.357 Y163.344 E31.48661
G1 X145.692 Y163.954 E31.51663
G1 X144.975 Y164.504 E31.54668
G1 X144.212 Y164.987 E31.57672
G1 X143.41 Y165.402 E31.60675
G1 X142.574 Y165.743 E31.63678
G1 X141.711 Y166.01 E31.66683
G1 X140.828 Y166.199 E31.69686
G1 X139.931 Y166.309 E31.72692
G1 X139.283 Y166.339 E31.7485
G1 X138.442 Y166.35 E31.77647
G1 X95.493 Y166.349 E33.20496
G1 X94.792 Y166.339 E33.22828
G1 X93.89 Y166.286 E33.25833
G1 X92.997 Y166.154 E33.28835
G1 X92.118 Y165.943 E33.31842
G1 X91.262 Y165.655 E33.34846
G1 X90.435 Y165.293 E33.37848
G1 X89.643 Y164.859 E33.40852
G1 X88.893 Y164.356 E33.43856
G1 X88.19 Y163.789 E33.4686
G1 X87.487 Y163.107 E33.50117
G1 X85.732 Y161.231 E33.58662
G1 X83.975 Y159.45 E33.66983
G1 X82.121 Y157.675 E33.7552
G1 X80.244 Y155.977 E33.83938
G1 F2700 E28.83938
;MESH:Kappe f??r Steckdosenturm.stl
G0 F6000 X93.89 Y153.819
G0 X117.5 Y155.548
;TYPE:WALL-INNER
G1 F2700 E33.83938
G1 F1200 X138.619 Y155.548 E34.5418
G1 X139.211 Y151.809 E34.66771
G1 X141.435 Y147.443 E34.83068
G1 X144.894 Y143.982 E34.99343
G1 X149.232 Y141.773 E35.15534
G1 X153.966 Y141.023 E35.31476
G1 X154.155 Y141.023 E35.32104
G1 X155.548 Y141.245 E35.36796
G1 X155.548 Y95.21 E36.89909
G1 X154.059 Y95.444 E36.94922
G1 X149.232 Y94.679 E37.11177
G1 X144.894 Y92.47 E37.27368
G1 X141.434 Y89.01 E37.43643
G1 X139.218 Y84.663 E37.59871
G1 X138.452 Y79.836 E37.76127
G1 X138.513 Y79.449 E37.7743
G1 X95.567 Y79.449 E39.20269
G1 X95.628 Y79.837 E39.21575
G1 X94.856 Y84.672 E39.3786
G1 X92.642 Y89.01 E39.54059
G1 X89.202 Y92.455 E39.70252
G1 X84.843 Y94.678 E39.86526
G1 X80.017 Y95.444 E40.02778
G1 X79.449 Y95.355 E40.04691
G1 X79.449 Y141.189 E41.57135
G1 X80.017 Y141.1 E41.59047
G1 X84.851 Y141.867 E41.75326
G1 X89.198 Y144.084 E41.91556
G1 X92.639 Y147.531 E42.07756
G1 X94.865 Y151.901 E42.24068
G1 X95.441 Y155.548 E42.36348
G1 X117.5 Y155.548 E43.09717
G0 F6000 X117.5 Y155.948
;TYPE:WALL-OUTER
G1 F1200 X138.961 Y155.948 E43.81096
G1 X139.602 Y151.914 E43.94682
G1 X141.755 Y147.692 E44.10444
G1 X145.116 Y144.322 E44.26275
G1 X149.359 Y142.158 E44.42116
G1 X154.06 Y141.413 E44.57947
G1 X155.948 Y141.713 E44.64305
G1 X155.948 Y94.742 E46.20532
G1 X154.059 Y95.039 E46.26892
G1 X149.359 Y94.294 E46.42719
G1 X145.125 Y92.137 E46.58524
G1 X141.768 Y88.779 E46.74316
G1 X139.599 Y84.527 E46.90192
G1 X138.857 Y79.836 E47.05989
G1 X138.981 Y79.049 E47.08638
G1 X95.099 Y79.049 E48.54591
G1 X95.223 Y79.836 E48.5724
G1 X94.477 Y84.527 E48.73039
G1 X92.315 Y88.769 E48.88874
G1 X88.963 Y92.128 E49.04658
G1 X84.707 Y94.297 E49.20546
G1 X80.016 Y95.039 E49.36342
G1 X79.049 Y94.887 E49.39598
G1 X79.049 Y141.657 E50.95155
G1 X80.016 Y141.505 E50.98411
G1 X84.707 Y142.247 E51.14207
G1 X88.953 Y144.409 E51.30055
G1 X92.307 Y147.764 E51.45833
G1 X94.474 Y152.006 E51.61677
G1 X95.099 Y155.948 E51.74952
G1 X117.5 Y155.948 E52.49458
G0 F6000 X117.5 Y155.188
;TYPE:SKIN
G1 F1200 X95.747 Y155.188 E53.21808
G1 X95.206 Y151.766 E53.33331
G1 X92.927 Y147.308 E53.49984
G1 X89.405 Y143.786 E53.6655
G1 X84.963 Y141.523 E53.83131
G1 X80.168 Y140.758 E53.99281
G1 X79.808 Y140.78 E54.00481
G1 X79.808 Y95.76 E55.50218
G1 X80.167 Y95.782 E55.51414
G1 X84.935 Y95.029 E55.67469
G1 X89.411 Y92.752 E55.84172
G1 X92.938 Y89.211 E56.00795
G1 X95.201 Y84.779 E56.17346
G1 X95.995 Y79.808 E56.34089
G1 X138.108 Y79.808 E57.74158
G1 X138.11 Y79.987 E57.74753
G1 X138.863 Y84.755 E57.90808
G1 X141.126 Y89.199 E58.07395
G1 X144.663 Y92.747 E58.24058
G1 X149.11 Y95.022 E58.40672
G1 X153.908 Y95.782 E58.56829
G1 X154.207 Y95.782 E58.57824
G1 X155.188 Y95.63 E58.61125
G1 X155.188 Y140.821 E60.11431
G1 X154.208 Y140.666 E60.14731
G1 X153.908 Y140.666 E60.15729
G1 X149.11 Y141.43 E60.31888
G1 X144.653 Y143.708 E60.48536
G1 X141.127 Y147.248 E60.65154
G1 X138.87 Y151.674 E60.81679
G1 X138.309 Y155.188 E60.93515
G1 X117.5 Y155.188 E61.62726
G1 F2700 E56.62726
G0 F6000 X117.5 Y155.448
G0 X95.587 Y155.378
G0 X95.017 Y151.833
G0 X92.775 Y147.438
G0 X89.336 Y143.961
G0 X84.793 Y142.01
G0 X79.622 Y140.984
G0 X79.549 Y139.97
G0 X80.008 Y139.97
G1 F2700 E61.62726
G1 F1200 X80.674 Y140.636 E61.65858
G0 F6000 X81.346 Y140.743
G1 F1200 X80.008 Y139.405 E61.72152
G0 F6000 X80.008 Y138.839
G1 F1200 X82.019 Y140.85 E61.81611
G0 F6000 X82.691 Y140.957
G1 F1200 X80.008 Y138.273 E61.94233
G0 F6000 X80.008 Y137.708
G1 F1200 X83.364 Y141.064 E62.10019
G0 F6000 X84.037 Y141.171
G1 F1200 X80.008 Y137.142 E62.2897
G0 F6000 X80.008 Y136.576
G1 F1200 X84.709 Y141.278 E62.51084
G0 F6000 X85.636 Y141.638
G1 F1200 X80.008 Y136.011 E62.77554
G0 F6000 X80.008 Y135.445
G1 F1200 X86.792 Y142.229 E63.09464
G0 F6000 X86.583 Y142.638
G0 X87.741 Y143.228
G0 X87.949 Y142.82
G1 F1200 X80.008 Y134.879 E63.46816
G0 F6000 X80.008 Y134.314
G1 F1200 X89.105 Y143.41 E63.89604
G0 F6000 X88.897 Y143.817
G0 X92.902 Y147.82
G0 X93.308 Y147.614
G1 F1200 X100.682 Y154.988 E64.24289
G0 F6000 X100.116 Y154.988
