;FLAVOR:Marlin
;TIME:34393
;Filament used: 20.4528m
;Layer height: 0.2
;MINX:45.392
;MINY:61.261
;MINZ:0.2
;MAXX:189.608
;MAXY:173.737
;MAXZ:30
;TARGET_MACHINE.NAME:Creality Ender-3
;Generated with Cura_SteamEngine 5.9.0
M140 S42
M105
M190 S42
M104 S205
M105
M109 S205
M82 ;absolute extrusion mode
; Ender 3 Custom Start G-code
G92 E0 ; Reset Extruder
G28 ; Home all axes
G1 Z2.0 F3000 ; Move Z Axis up little to prevent scratching of Heat Bed
G1 X0.1 Y20 Z0.3 F5000.0 ; Move to start position
G1 X0.1 Y200.0 Z0.3 F1500.0 E15 ; Draw the first line
G1 X0.4 Y200.0 Z0.3 F5000.0 ; Move to side a little
G1 X0.4 Y20 Z0.3 F1500.0 E30 ; Draw the second line
G92 E0 ; Reset Extruder
G1 Z2.0 F3000 ; Move Z Axis up little to prevent scratching of Heat Bed
G1 X5 Y20 Z0.3 F5000.0 ; Move over to prevent blob squish
G92 E0
G92 E0
G1 F2700 E-5
;LAYER_COUNT:150
;LAYER:0
M107
G0 F6000 X45.605 Y79.81 Z0.2
;TYPE:SKIRT
G1 F2700 E0
G1 F1200 X46.291 Y76.322 E0.11823
G1 X47.16 Y73.732 E0.2091
G1 X48.654 Y70.684 E0.322
G1 X50.348 Y68.199 E0.42203
G1 X52.608 Y65.787 E0.53196
G1 X55.086 Y63.902 E0.63552
G1 X57.635 Y62.503 E0.73223
G1 X60.8 Y61.546 E0.8422
G1 X63.981 Y61.263 E0.94842
G1 X170.999 Y61.261 E4.50785
G1 X174.216 Y61.553 E4.61529
G1 X177.307 Y62.498 E4.7228
G1 X180.256 Y64.059 E4.83377
G1 X182.398 Y65.785 E4.92527
G1 X185.154 Y68.84 E5.06211
G1 X186.408 Y70.768 E5.13861
G1 X187.904 Y73.897 E5.25396
G1 X188.865 Y76.92 E5.35947
G1 X189.367 Y79.583 E5.4496
G1 X189.603 Y82.883 E5.55964
G1 X189.608 Y152.012 E7.85888
G1 X189.395 Y155.19 E7.96482
G1 X188.709 Y158.678 E8.08305
G1 X187.84 Y161.268 E8.17391
G1 X186.346 Y164.316 E8.28681
G1 X184.652 Y166.801 E8.38684
G1 X182.392 Y169.213 E8.49678
G1 X179.914 Y171.098 E8.60033
G1 X177.365 Y172.497 E8.69704
G1 X174.2 Y173.454 E8.80702
G1 X171.019 Y173.737 E8.91324
G1 X63.222 Y173.701 E12.49858
G1 X60.764 Y173.447 E12.58077
G1 X57.625 Y172.479 E12.69002
G1 X54.801 Y170.986 E12.79627
G1 X52.401 Y169.022 E12.89941
G1 X49.848 Y166.164 E13.02687
G1 X48.645 Y164.326 E13.09994
G1 X47.075 Y161.047 E13.22085
G1 X46.135 Y158.08 E13.32437
G1 X45.633 Y155.417 E13.4145
G1 X45.397 Y152.117 E13.52454
G1 X45.392 Y82.988 E15.82378
G1 X45.605 Y79.81 E15.92972
G0 F6000 X46.004 Y79.837
G1 F1200 X46.67 Y76.449 E16.04456
G1 X47.519 Y73.908 E16.13367
G1 X48.985 Y70.909 E16.24469
G1 X50.679 Y68.424 E16.34472
G1 X52.851 Y66.105 E16.4504
G1 X55.278 Y64.253 E16.55194
G1 X57.79 Y62.874 E16.64725
G1 X60.879 Y61.94 E16.75459
G1 X63.981 Y61.663 E16.85817
G1 X170.999 Y61.661 E20.4176
G1 X174.139 Y61.947 E20.52247
G1 X177.149 Y62.868 E20.62717
G1 X180.034 Y64.395 E20.73573
G1 X182.147 Y66.097 E20.82598
G1 X184.819 Y69.059 E20.95865
G1 X186.047 Y70.941 E21.0334
G1 X187.543 Y74.07 E21.14875
G1 X188.472 Y76.994 E21.25079
G1 X188.968 Y79.612 E21.33942
G1 X189.204 Y82.912 E21.44946
G1 X189.208 Y152.012 E23.74773
G1 X188.996 Y155.163 E23.85277
G1 X188.33 Y158.551 E23.96761
G1 X187.481 Y161.092 E24.05672
G1 X186.015 Y164.091 E24.16775
G1 X184.321 Y166.576 E24.26778
G1 X182.149 Y168.895 E24.37345
G1 X179.722 Y170.747 E24.47499
G1 X177.21 Y172.126 E24.5703
G1 X174.121 Y173.06 E24.67764
G1 X171.019 Y173.337 E24.78122
G1 X63.263 Y173.303 E28.3652
G1 X60.843 Y173.053 E28.44612
G1 X57.782 Y172.109 E28.55266
G1 X55.023 Y170.65 E28.65647
G1 X52.654 Y168.712 E28.75827
G1 X50.182 Y165.944 E28.8817
G1 X49.006 Y164.153 E28.95296
G1 X47.436 Y160.874 E29.07388
G1 X46.528 Y158.006 E29.17394
G1 X46.032 Y155.388 E29.26256
G1 X45.796 Y152.088 E29.3726
G1 X45.792 Y82.988 E31.67087
G1 X46.004 Y79.837 E31.77591
G0 F6000 X46.403 Y79.864
G1 F1200 X47.05 Y76.575 E31.8874
G1 X47.879 Y74.083 E31.97475
G1 X49.316 Y71.134 E32.08386
G1 X51.01 Y68.649 E32.18389
G1 X53.094 Y66.423 E32.28531
G1 X55.471 Y64.604 E32.38486
G1 X57.948 Y63.244 E32.47885
G1 X60.958 Y62.334 E32.58344
G1 X63.981 Y62.063 E32.68439
G1 X170.999 Y62.061 E36.24382
G1 X174.057 Y62.341 E36.34595
G1 X176.996 Y63.24 E36.44818
G1 X179.812 Y64.731 E36.55415
G1 X181.896 Y66.409 E36.64314
G1 X184.484 Y69.278 E36.77166
G1 X185.686 Y71.114 E36.84464
G1 X187.182 Y74.243 E36.96
G1 X188.079 Y77.069 E37.05861
G1 X188.569 Y79.641 E37.1457
G1 X188.805 Y82.941 E37.25573
G1 X188.808 Y152.012 E39.55305
G1 X188.597 Y155.136 E39.65719
G1 X187.95 Y158.425 E39.76868
G1 X187.121 Y160.917 E39.85603
G1 X185.684 Y163.866 E39.96514
G1 X183.99 Y166.351 E40.06516
G1 X181.906 Y168.577 E40.16658
G1 X179.529 Y170.396 E40.26614
G1 X177.052 Y171.756 E40.36012
G1 X174.042 Y172.666 E40.46471
G1 X171.019 Y172.937 E40.56566
G1 X63.304 Y172.905 E44.14827
G1 X60.922 Y172.659 E44.22792
G1 X57.939 Y171.739 E44.33175
G1 X55.245 Y170.314 E44.43311
G1 X52.907 Y168.402 E44.53357
G1 X50.516 Y165.724 E44.65297
G1 X49.367 Y163.98 E44.72244
G1 X47.797 Y160.701 E44.84335
G1 X46.921 Y157.931 E44.93998
G1 X46.431 Y155.359 E45.02707
G1 X46.195 Y152.059 E45.1371
G1 X46.192 Y82.988 E47.43441
G1 X46.403 Y79.864 E47.53856
G0 F6000 X46.802 Y79.891
G1 F1200 X47.43 Y76.701 E47.64669
G1 X48.239 Y74.258 E47.73229
G1 X49.647 Y71.359 E47.83948
G1 X51.341 Y68.874 E47.93951
G1 X53.338 Y66.74 E48.03672
G1 X55.664 Y64.955 E48.13423
G1 X58.106 Y63.614 E48.2269
G1 X61.037 Y62.728 E48.32874
G1 X63.981 Y62.463 E48.42705
G1 X170.999 Y62.461 E51.98648
G1 X173.98 Y62.735 E52.08605
G1 X176.843 Y63.611 E52.18563
G1 X179.587 Y65.064 E52.2889
G1 X181.645 Y66.721 E52.37678
G1 X184.15 Y69.498 E52.50117
G1 X185.325 Y71.287 E52.57236
G1 X186.821 Y74.416 E52.68771
G1 X187.686 Y77.144 E52.7829
G1 X188.17 Y79.67 E52.86844
G1 X188.406 Y82.97 E52.97848
G1 X188.408 Y152.012 E55.27483
G1 X188.198 Y155.109 E55.37807
G1 X187.57 Y158.299 E55.48621
G1 X186.761 Y160.742 E55.5718
G1 X185.353 Y163.641 E55.67899
G1 X183.659 Y166.126 E55.77902
G1 X181.662 Y168.26 E55.87623
G1 X179.336 Y170.045 E55.97375
G1 X176.894 Y171.386 E56.06641
G1 X173.963 Y172.272 E56.16825
G1 X171.019 Y172.537 E56.26657
G1 X63.345 Y172.507 E59.84782
G1 X61.001 Y172.265 E59.92619
G1 X58.096 Y171.369 E60.02731
G1 X55.467 Y169.978 E60.12623
G1 X53.16 Y168.092 E60.22534
G1 X50.85 Y165.503 E60.34074
G1 X49.728 Y163.807 E60.40838
G1 X48.158 Y160.528 E60.5293
G1 X47.314 Y157.856 E60.6225
G1 X46.83 Y155.33 E60.70804
G1 X46.594 Y152.03 E60.81808
G1 X46.592 Y82.988 E63.11442
G1 X46.802 Y79.891 E63.21767
G0 F6000 X47.201 Y79.918
G1 F1200 X47.81 Y76.826 E63.32248
G1 X48.599 Y74.432 E63.40632
G1 X49.978 Y71.584 E63.51157
G1 X51.672 Y69.099 E63.61159
G1 X53.582 Y67.057 E63.70459
G1 X55.857 Y65.306 E63.80008
G1 X58.264 Y63.984 E63.89141
G1 X61.116 Y63.122 E63.99051
G1 X63.981 Y62.863 E64.08619
G1 X170.999 Y62.861 E67.64562
G1 X173.899 Y63.129 E67.74249
G1 X176.694 Y63.984 E67.8397
G1 X179.362 Y65.397 E67.94012
G1 X181.394 Y67.033 E68.02688
G1 X183.816 Y69.718 E68.14715
G1 X184.964 Y71.46 E68.21654
G1 X186.46 Y74.589 E68.33189
G1 X187.293 Y77.22 E68.42368
G1 X187.771 Y79.699 E68.50765
G1 X188.007 Y82.999 E68.61769
G1 X188.008 Y152.012 E70.91307
G1 X187.799 Y155.082 E71.01542
G1 X187.19 Y158.174 E71.12023
G1 X186.401 Y160.568 E71.20407
G1 X185.022 Y163.416 E71.30932
G1 X183.328 Y165.901 E71.40935
G1 X181.418 Y167.943 E71.50234
G1 X179.143 Y169.694 E71.59783
G1 X176.736 Y171.016 E71.68916
G1 X173.884 Y171.878 E71.78826
G1 X171.019 Y172.137 E71.88394
G1 X63.386 Y172.109 E75.46383
G1 X61.08 Y171.871 E75.54093
G1 X58.253 Y170.999 E75.63933
G1 X55.689 Y169.642 E75.73582
G1 X53.458 Y167.825 E75.83152
G1 X51.184 Y165.282 E75.94498
G1 X50.062 Y163.586 E76.01262
G1 X48.519 Y160.356 E76.13168
G1 X47.707 Y157.78 E76.22151
G1 X47.229 Y155.301 E76.30548
G1 X46.993 Y152.001 E76.41552
G1 X46.992 Y82.988 E78.7109
G1 X47.201 Y79.918 E78.81325
G0 F6000 X47.6 Y79.945
G1 F1200 X48.19 Y76.951 E78.91474
G1 X48.959 Y74.606 E78.99682
G1 X50.309 Y71.809 E79.10012
G1 X52.003 Y69.324 E79.20015
G1 X53.827 Y67.374 E79.28896
G1 X56.05 Y65.657 E79.38238
G1 X58.422 Y64.354 E79.47239
G1 X61.195 Y63.516 E79.56874
G1 X63.981 Y63.263 E79.66179
G1 X170.999 Y63.261 E83.22122
G1 X173.822 Y63.523 E83.31552
G1 X176.541 Y64.355 E83.41009
G1 X179.137 Y65.73 E83.5078
G1 X181.143 Y67.345 E83.59345
G1 X183.482 Y69.939 E83.70963
G1 X184.603 Y71.633 E83.77719
G1 X186.099 Y74.762 E83.89254
G1 X186.9 Y77.296 E83.98093
G1 X187.378 Y79.775 E84.0649
G1 X187.607 Y82.999 E84.1724
G1 X187.608 Y152.012 E86.46779
G1 X187.4 Y155.055 E86.56923
G1 X186.81 Y158.049 E86.67073
G1 X186.041 Y160.394 E86.75281
G1 X184.691 Y163.191 E86.85611
G1 X182.997 Y165.676 E86.95614
G1 X181.173 Y167.626 E87.04495
G1 X178.95 Y169.343 E87.13837
G1 X176.578 Y170.646 E87.22838
G1 X173.805 Y171.484 E87.32473
G1 X171.019 Y171.737 E87.41778
G1 X63.427 Y171.711 E90.9963
G1 X61.159 Y171.477 E91.07213
G1 X58.41 Y170.629 E91.16782
G1 X55.907 Y169.305 E91.262
G1 X53.756 Y167.558 E91.35416
G1 X51.518 Y165.061 E91.46569
G1 X50.396 Y163.365 E91.53333
G1 X48.9 Y160.235 E91.64871
G1 X48.1 Y157.704 E91.737
G1 X47.622 Y155.225 E91.82097
G1 X47.393 Y152.001 E91.92847
G1 X47.392 Y82.988 E94.22385
G1 X47.6 Y79.945 E94.3253
G0 F6000 X47.999 Y79.972
G1 F1200 X48.57 Y77.075 E94.4235
G1 X49.319 Y74.779 E94.50383
G1 X50.64 Y72.034 E94.60515
G1 X52.334 Y69.549 E94.70518
G1 X54.072 Y67.691 E94.7898
G1 X56.295 Y65.974 E94.88322
G1 X58.577 Y64.725 E94.96975
G1 X61.274 Y63.91 E95.06346
G1 X63.981 Y63.663 E95.15387
G1 X170.999 Y63.661 E98.7133
G1 X173.741 Y63.917 E98.8049
G1 X176.392 Y64.728 E98.8971
G1 X178.912 Y66.063 E98.99195
G1 X180.892 Y67.657 E99.0765
G1 X183.148 Y70.16 E99.18857
G1 X184.269 Y71.854 E99.25613
G1 X185.738 Y74.934 E99.36963
G1 X186.507 Y77.372 E99.45466
G1 X186.985 Y79.851 E99.53863
G1 X187.207 Y82.999 E99.64359
G1 X187.208 Y152.012 E101.93897
G1 X187.001 Y155.028 E102.03952
G1 X186.43 Y157.925 E102.13773
G1 X185.681 Y160.221 E102.21805
G1 X184.36 Y162.966 E102.31937
G1 X182.666 Y165.451 E102.4194
G1 X180.928 Y167.309 E102.50402
G1 X178.705 Y169.026 E102.59745
G1 X176.423 Y170.275 E102.68397
G1 X173.726 Y171.09 E102.77768
G1 X171.019 Y171.337 E102.86809
G1 X63.468 Y171.313 E106.44525
G1 X61.238 Y171.083 E106.51981
G1 X58.567 Y170.259 E106.61278
G1 X56.129 Y168.969 E106.70452
G1 X54.008 Y167.247 E106.79539
G1 X51.852 Y164.84 E106.90287
G1 X50.73 Y163.144 E106.9705
G1 X49.261 Y160.063 E107.08403
G1 X48.493 Y157.628 E107.16895
G1 X48.015 Y155.149 E107.25292
G1 X47.793 Y152.001 E107.35788
G1 X47.792 Y82.988 E109.65327
G1 X47.999 Y79.972 E109.75381
G0 F6000 X48.398 Y80
G1 F1200 X48.95 Y77.199 E109.84877
G1 X49.68 Y74.952 E109.92735
G1 X50.971 Y72.259 E110.02668
G1 X52.665 Y69.774 E110.12671
G1 X54.317 Y68.008 E110.20714
G1 X56.54 Y66.291 E110.30056
G1 X58.73 Y65.097 E110.38352
G1 X61.353 Y64.304 E110.47467
G1 X63.981 Y64.063 E110.56244
G1 X170.999 Y64.061 E114.12187
G1 X173.664 Y64.311 E114.2109
G1 X176.239 Y65.099 E114.30047
G1 X178.687 Y66.396 E114.39261
G1 X180.641 Y67.969 E114.47604
G1 X182.814 Y70.381 E114.58402
G1 X183.935 Y72.075 E114.65158
G1 X185.357 Y75.055 E114.7614
G1 X186.114 Y77.448 E114.84488
G1 X186.592 Y79.927 E114.92885
G1 X186.807 Y82.999 E115.03128
G1 X186.808 Y152.012 E117.32666
G1 X186.602 Y155 E117.42628
G1 X186.05 Y157.801 E117.52123
G1 X185.32 Y160.048 E117.59981
G1 X184.029 Y162.741 E117.69914
G1 X182.335 Y165.226 E117.79917
G1 X180.683 Y166.992 E117.8796
G1 X178.46 Y168.709 E117.97302
G1 X176.27 Y169.903 E118.05599
G1 X173.647 Y170.696 E118.14713
G1 X171.019 Y170.937 E118.2349
G1 X63.509 Y170.915 E121.8107
G1 X61.317 Y170.689 E121.88399
G1 X58.724 Y169.889 E121.97425
G1 X56.351 Y168.633 E122.06355
G1 X54.26 Y166.936 E122.15311
G1 X52.186 Y164.619 E122.25654
G1 X51.064 Y162.923 E122.32418
G1 X49.642 Y159.942 E122.43403
G1 X48.886 Y157.552 E122.5174
G1 X48.408 Y155.073 E122.60137
G1 X48.193 Y152.001 E122.7038
G1 X48.192 Y82.988 E124.99918
G1 X48.398 Y80 E125.0988
G0 F6000 X48.797 Y80.028
G1 F1200 X49.331 Y77.322 E125.19054
G1 X50.041 Y75.124 E125.26736
G1 X51.302 Y72.484 E125.36467
G1 X52.958 Y70.047 E125.46267
G1 X54.562 Y68.325 E125.54094
G1 X56.785 Y66.608 E125.63436
G1 X58.887 Y65.468 E125.7139
G1 X61.432 Y64.698 E125.80233
G1 X63.981 Y64.463 E125.88747
G1 X170.999 Y64.461 E129.4469
G1 X173.587 Y64.705 E129.53336
G1 X176.086 Y65.47 E129.62029
G1 X178.462 Y66.729 E129.70972
G1 X180.39 Y68.281 E129.79204
G1 X182.48 Y70.602 E129.89593
G1 X183.601 Y72.296 E129.96349
G1 X184.996 Y75.227 E130.07145
G1 X185.721 Y77.524 E130.15157
G1 X186.199 Y80.003 E130.23554
G1 X186.407 Y82.999 E130.33542
G1 X186.408 Y152.012 E132.6308
G1 X186.203 Y154.972 E132.72949
G1 X185.669 Y157.678 E132.82123
G1 X184.959 Y159.876 E132.89805
G1 X183.698 Y162.516 E132.99536
G1 X182.042 Y164.953 E133.09336
G1 X180.438 Y166.675 E133.17163
G1 X178.215 Y168.392 E133.26506
G1 X176.113 Y169.532 E133.34459
G1 X173.568 Y170.302 E133.43303
G1 X171.019 Y170.537 E133.51816
G1 X63.55 Y170.517 E137.0926
G1 X61.396 Y170.295 E137.16462
G1 X58.876 Y169.518 E137.25233
G1 X56.576 Y168.3 E137.33889
G1 X54.512 Y166.625 E137.4273
G1 X52.52 Y164.398 E137.52668
G1 X51.398 Y162.702 E137.59432
G1 X50.003 Y159.77 E137.70231
G1 X49.279 Y157.476 E137.78232
G1 X48.801 Y154.997 E137.86629
G1 X48.593 Y152.001 E137.96618
G1 X48.592 Y82.988 E140.26156
G1 X48.797 Y80.028 E140.36024
G0 F6000 X49.19 Y80.105
G1 F1200 X49.712 Y77.445 E140.4504
G1 X50.422 Y75.247 E140.52723
G1 X51.633 Y72.708 E140.62079
G1 X53.251 Y70.32 E140.71673
G1 X54.855 Y68.598 E140.795
G1 X56.976 Y66.96 E140.88413
G1 X59.043 Y65.839 E140.96234
G1 X61.511 Y65.092 E141.04811
G1 X63.981 Y64.863 E141.13061
G1 X170.999 Y64.861 E144.69004
G1 X173.51 Y65.099 E144.77393
G1 X175.933 Y65.841 E144.85822
G1 X178.237 Y67.062 E144.94494
G1 X180.139 Y68.593 E145.02615
G1 X182.146 Y70.823 E145.12594
G1 X183.267 Y72.517 E145.1935
G1 X184.615 Y75.348 E145.29779
G1 X185.328 Y77.6 E145.37636
G1 X185.806 Y80.079 E145.46033
G1 X186.007 Y82.999 E145.55768
G1 X186.008 Y152.012 E147.85306
G1 X185.81 Y154.895 E147.94917
G1 X185.288 Y157.555 E148.03933
G1 X184.578 Y159.753 E148.11616
G1 X183.367 Y162.292 E148.20972
G1 X181.749 Y164.68 E148.30566
G1 X180.145 Y166.402 E148.38393
G1 X178.024 Y168.04 E148.47306
G1 X175.957 Y169.161 E148.55127
G1 X173.489 Y169.908 E148.63703
G1 X171.019 Y170.137 E148.71954
G1 X63.591 Y170.119 E152.29261
G1 X61.475 Y169.901 E152.36336
G1 X59.033 Y169.148 E152.44836
G1 X56.795 Y167.963 E152.53258
G1 X54.81 Y166.358 E152.61749
G1 X52.854 Y164.177 E152.71493
G1 X51.732 Y162.481 E152.78256
G1 X50.384 Y159.649 E152.88688
G1 X49.672 Y157.4 E152.96534
G1 X49.194 Y154.921 E153.04931
G1 X48.993 Y152.001 E153.14666
G1 X48.992 Y82.988 E155.44204
G1 X49.19 Y80.105 E155.53816
G0 F6000 X49.589 Y80.133
G1 F1200 X50.093 Y77.568 E155.6251
G1 X50.803 Y75.37 E155.70193
G1 X51.965 Y72.932 E155.79175
G1 X53.544 Y70.593 E155.88562
G1 X55.148 Y68.871 E155.96389
G1 X57.167 Y67.312 E156.04873
G1 X59.199 Y66.21 E156.12561
G1 X61.59 Y65.486 E156.2087
G1 X63.981 Y65.263 E156.28857
G1 X170.999 Y65.261 E159.84801
G1 X173.433 Y65.493 E159.92933
G1 X175.78 Y66.212 E160.01097
G1 X178.012 Y67.395 E160.09499
G1 X179.888 Y68.905 E160.17509
G1 X181.812 Y71.044 E160.27078
G1 X182.933 Y72.738 E160.33834
G1 X184.234 Y75.469 E160.43895
G1 X184.935 Y77.676 E160.51597
G1 X185.413 Y80.155 E160.59994
G1 X185.607 Y82.999 E160.69476
G1 X185.608 Y152.012 E162.99014
G1 X185.411 Y154.867 E163.08532
G1 X184.907 Y157.432 E163.17226
G1 X184.197 Y159.63 E163.24909
G1 X183.035 Y162.068 E163.33892
G1 X181.456 Y164.407 E163.43278
G1 X179.852 Y166.129 E163.51105
G1 X177.833 Y167.688 E163.59589
G1 X175.801 Y168.79 E163.67278
G1 X173.41 Y169.514 E163.75587
G1 X171.019 Y169.737 E163.83574
G1 X63.632 Y169.721 E167.40744
G1 X61.554 Y169.507 E167.47692
G1 X59.19 Y168.778 E167.5592
G1 X57.016 Y167.627 E167.64102
G1 X55.062 Y166.047 E167.7246
G1 X53.188 Y163.956 E167.81799
G1 X52.066 Y162.26 E167.88563
G1 X50.765 Y159.528 E167.98627
G1 X50.065 Y157.324 E168.06318
G1 X49.587 Y154.845 E168.14715
G1 X49.393 Y152.001 E168.24197
G1 X49.392 Y82.988 E170.53735
G1 X49.589 Y80.133 E170.63253
G0 F6000 X49.982 Y80.21
G1 F1200 X50.474 Y77.691 E170.7179
G1 X51.184 Y75.493 E170.79472
G1 X52.297 Y73.155 E170.88084
G1 X53.837 Y70.866 E170.9726
G1 X55.441 Y69.144 E171.05088
G1 X57.358 Y67.664 E171.13143
G1 X59.355 Y66.581 E171.20699
G1 X61.67 Y65.88 E171.28743
