;FLAVOR:Marlin
;TIME:13835
;Filament used: 6.49158m
;Layer height: 0.2
;MINX:44.43
;MINY:60.02
;MINZ:0.2
;MAXX:190.57
;MAXY:174.941
;MAXZ:5
;TARGET_MACHINE.NAME:Creality Ender-3
;Generated with Cura_SteamEngine 5.9.0
M140 S42
M105
M190 S42
M104 S205
M105
M109 S205
M82 ;absolute extrusion mode
; Ender 3 Custom Start G-code
G92 E0 ; Reset Extruder
G28 ; Home all axes
G1 Z2.0 F3000 ; Move Z Axis up little to prevent scratching of Heat Bed
G1 X0.1 Y20 Z0.3 F5000.0 ; Move to start position
G1 X0.1 Y200.0 Z0.3 F1500.0 E15 ; Draw the first line
G1 X0.4 Y200.0 Z0.3 F5000.0 ; Move to side a little
G1 X0.4 Y20 Z0.3 F1500.0 E30 ; Draw the second line
G92 E0 ; Reset Extruder
G1 Z2.0 F3000 ; Move Z Axis up little to prevent scratching of Heat Bed
G1 X5 Y20 Z0.3 F5000.0 ; Move over to prevent blob squish
G92 E0
G92 E0
G1 F2700 E-5
;LAYER_COUNT:25
;LAYER:0
M107
G0 F6000 X45.379 Y75.92 Z0.2
;TYPE:SKIRT
G1 F2700 E0
G1 F1200 X46.292 Y73.189 E0.09577
G1 X47.694 Y70.263 E0.20369
G1 X49.823 Y67.12 E0.32995
G1 X51.659 Y65.134 E0.41991
G1 X54.828 Y62.69 E0.55301
G1 X57.328 Y61.341 E0.6475
G1 X60.66 Y60.322 E0.76339
G1 X63.205 Y60.059 E0.84848
G1 X158.748 Y60.02 E4.02626
G1 X161.316 Y60.242 E4.11199
G1 X163.743 Y61.065 E4.19723
G1 X166.022 Y62.39 E4.28491
G1 X168.092 Y64.359 E4.37993
G1 X169.069 Y65.591 E4.43222
G1 X170.527 Y68.178 E4.53099
G1 X171.236 Y70.104 E4.59925
G1 X172.38 Y74.8 E4.76001
G1 X173.344 Y77.308 E4.84938
G1 X174.619 Y79.598 E4.93655
G1 X176.066 Y81.461 E5.01501
G1 X177.586 Y82.874 E5.08404
G1 X179.261 Y83.949 E5.15023
G1 X183.086 Y85.478 E5.28724
G1 X185.203 Y86.868 E5.37147
G1 X186.68 Y88.353 E5.44114
G1 X188.515 Y90.9 E5.54555
G1 X189.421 Y92.77 E5.61466
G1 X189.858 Y94.018 E5.65864
G1 X190.475 Y97.161 E5.76517
G1 X190.57 Y98.787 E5.81934
G1 X190.551 Y152.539 E7.60714
G1 X190.343 Y155.423 E7.70331
G1 X189.621 Y159.08 E7.82729
G1 X188.708 Y161.811 E7.92307
G1 X187.306 Y164.737 E8.03098
G1 X185.177 Y167.88 E8.15724
G1 X183.341 Y169.866 E8.2472
G1 X180.172 Y172.31 E8.38031
G1 X177.672 Y173.659 E8.47479
G1 X174.34 Y174.678 E8.59068
G1 X171.795 Y174.941 E8.67578
G1 X63.202 Y174.941 E12.28759
G1 X60.56 Y174.67 E12.37593
G1 X57.292 Y173.652 E12.48977
G1 X54.68 Y172.216 E12.58891
G1 X51.495 Y169.715 E12.7236
G1 X49.165 Y167.044 E12.84149
G1 X47.951 Y165.207 E12.91473
G1 X46.086 Y161.274 E13.0595
G1 X45.239 Y158.528 E13.15508
G1 X44.666 Y155.462 E13.25882
G1 X44.43 Y152.013 E13.3738
G1 X44.449 Y82.461 E15.68711
G1 X44.657 Y79.577 E15.78328
G1 X45.379 Y75.92 E15.90726
G0 F6000 X45.759 Y76.046
G1 F1200 X46.653 Y73.362 E16.00136
G1 X48.055 Y70.436 E16.10927
G1 X50.117 Y67.392 E16.23156
G1 X51.953 Y65.406 E16.32151
G1 X55.018 Y63.042 E16.45026
G1 X57.485 Y61.711 E16.54349
G1 X60.737 Y60.716 E16.6566
G1 X63.246 Y60.457 E16.74049
G1 X158.748 Y60.42 E19.9169
G1 X161.231 Y60.636 E19.9998
G1 X163.576 Y61.431 E20.08215
G1 X165.78 Y62.712 E20.16694
G1 X167.816 Y64.649 E20.26041
G1 X168.755 Y65.839 E20.31083
G1 X170.152 Y68.317 E20.40544
G1 X170.847 Y70.199 E20.47217
G1 X171.996 Y74.915 E20.63361
G1 X172.983 Y77.483 E20.72512
G1 X174.281 Y79.815 E20.81388
G1 X175.77 Y81.732 E20.89462
G1 X177.342 Y83.193 E20.966
G1 X179.073 Y84.304 E21.03441
G1 X182.898 Y85.833 E21.17142
G1 X184.948 Y87.179 E21.25298
G1 X186.355 Y88.587 E21.31919
G1 X188.19 Y91.134 E21.4236
G1 X189.043 Y92.902 E21.48889
G1 X189.48 Y94.15 E21.53287
G1 X190.076 Y97.184 E21.63571
G1 X190.17 Y98.787 E21.68911
G1 X190.152 Y152.51 E23.47595
G1 X189.944 Y155.394 E23.57212
G1 X189.241 Y158.954 E23.69281
G1 X188.347 Y161.638 E23.7869
G1 X186.945 Y164.564 E23.89482
G1 X184.883 Y167.608 E24.0171
G1 X183.047 Y169.594 E24.10706
G1 X179.982 Y171.958 E24.2358
G1 X177.515 Y173.289 E24.32904
G1 X174.263 Y174.284 E24.44215
G1 X171.754 Y174.543 E24.52604
G1 X63.243 Y174.543 E28.13513
G1 X60.641 Y174.276 E28.22213
G1 X57.449 Y173.282 E28.33332
G1 X54.927 Y171.901 E28.42896
G1 X51.769 Y169.422 E28.56249
G1 X49.499 Y166.823 E28.67726
G1 X48.285 Y164.986 E28.7505
G1 X46.468 Y161.156 E28.89149
G1 X45.632 Y158.454 E28.98556
G1 X45.065 Y155.435 E29.08773
G1 X44.83 Y152.013 E29.20182
G1 X44.848 Y82.49 E31.51416
G1 X45.056 Y79.606 E31.61033
G1 X45.759 Y76.046 E31.73103
G0 F6000 X46.139 Y76.172
G1 F1200 X47.014 Y73.535 E31.82343
G1 X48.416 Y70.609 E31.93135
G1 X50.411 Y67.664 E32.04966
G1 X52.247 Y65.678 E32.13962
G1 X55.208 Y63.394 E32.26399
G1 X57.638 Y62.083 E32.35583
G1 X60.819 Y61.11 E32.46647
G1 X63.287 Y60.855 E32.54899
G1 X158.748 Y60.82 E35.72404
G1 X161.146 Y61.03 E35.8041
G1 X163.409 Y61.797 E35.88357
G1 X165.538 Y63.034 E35.96547
G1 X167.54 Y64.939 E36.05738
G1 X168.407 Y66.036 E36.10389
G1 X169.777 Y68.456 E36.19638
G1 X170.458 Y70.294 E36.26157
G1 X171.611 Y75.027 E36.4236
G1 X172.621 Y77.655 E36.51724
G1 X173.947 Y80.037 E36.60791
G1 X175.474 Y82.003 E36.69071
G1 X177.098 Y83.512 E36.76444
G1 X178.885 Y84.659 E36.83507
G1 X182.71 Y86.188 E36.97208
G1 X184.693 Y87.49 E37.05098
G1 X186.072 Y88.87 E37.11586
G1 X187.83 Y91.308 E37.21584
G1 X188.665 Y93.034 E37.27961
G1 X189.102 Y94.282 E37.32359
G1 X189.677 Y97.208 E37.42277
G1 X189.77 Y98.787 E37.47538
G1 X189.753 Y152.481 E39.26125
G1 X189.545 Y155.365 E39.35742
G1 X188.861 Y158.828 E39.47482
G1 X187.986 Y161.465 E39.56723
G1 X186.584 Y164.391 E39.67515
G1 X184.589 Y167.336 E39.79346
G1 X182.753 Y169.322 E39.88341
G1 X179.792 Y171.606 E40.00779
G1 X177.362 Y172.917 E40.09962
G1 X174.181 Y173.89 E40.21026
G1 X171.713 Y174.145 E40.29279
G1 X63.284 Y174.145 E43.89915
G1 X60.722 Y173.882 E43.98481
G1 X57.606 Y172.912 E44.09335
G1 X55.119 Y171.55 E44.18766
G1 X52.046 Y169.132 E44.31772
G1 X49.833 Y166.602 E44.42952
G1 X48.619 Y164.765 E44.50275
G1 X46.85 Y161.037 E44.64
G1 X46.025 Y158.38 E44.73253
G1 X45.464 Y155.407 E44.83316
G1 X45.23 Y152.013 E44.94631
G1 X45.247 Y82.519 E47.25769
G1 X45.455 Y79.635 E47.35386
G1 X46.139 Y76.172 E47.47127
G0 F6000 X46.519 Y76.298
G1 F1200 X47.375 Y73.708 E47.56199
G1 X48.777 Y70.782 E47.66991
G1 X50.705 Y67.936 E47.78424
G1 X52.541 Y65.95 E47.8742
G1 X55.398 Y63.746 E47.99421
G1 X57.791 Y62.455 E48.08465
G1 X60.901 Y61.504 E48.19282
G1 X63.328 Y61.253 E48.27397
G1 X158.748 Y61.22 E51.44765
G1 X161.061 Y61.424 E51.52488
G1 X163.242 Y62.163 E51.60147
G1 X165.296 Y63.356 E51.68048
G1 X167.264 Y65.229 E51.77084
G1 X168.092 Y66.283 E51.81542
G1 X169.402 Y68.595 E51.9038
G1 X170.069 Y70.389 E51.96746
G1 X171.226 Y75.139 E52.13006
G1 X172.259 Y77.827 E52.22584
G1 X173.613 Y80.259 E52.31842
G1 X175.178 Y82.274 E52.40328
G1 X176.854 Y83.831 E52.47937
G1 X178.697 Y85.014 E52.55221
G1 X182.522 Y86.543 E52.68922
G1 X184.438 Y87.801 E52.76545
G1 X185.789 Y89.153 E52.82902
G1 X187.47 Y91.483 E52.92458
G1 X188.287 Y93.166 E52.9868
G1 X188.724 Y94.414 E53.03078
G1 X189.278 Y97.232 E53.12631
G1 X189.37 Y98.787 E53.17812
G1 X189.354 Y152.452 E54.96302
G1 X189.146 Y155.336 E55.05919
G1 X188.481 Y158.702 E55.17331
G1 X187.625 Y161.292 E55.26404
G1 X186.223 Y164.218 E55.37195
G1 X184.295 Y167.064 E55.48628
G1 X182.459 Y169.05 E55.57624
G1 X179.602 Y171.254 E55.69625
G1 X177.209 Y172.545 E55.78669
G1 X174.099 Y173.496 E55.89486
G1 X171.672 Y173.747 E55.97601
G1 X63.325 Y173.747 E59.57965
G1 X60.803 Y173.488 E59.66397
G1 X57.763 Y172.542 E59.76986
G1 X55.311 Y171.199 E59.86285
G1 X52.347 Y168.868 E59.98826
G1 X50.167 Y166.381 E60.09826
G1 X48.953 Y164.544 E60.1715
G1 X47.232 Y160.918 E60.30499
G1 X46.418 Y158.305 E60.39602
G1 X45.863 Y155.379 E60.49508
G1 X45.63 Y152.013 E60.6073
G1 X45.646 Y82.548 E62.91771
G1 X45.854 Y79.664 E63.01388
G1 X46.519 Y76.298 E63.128
G0 F6000 X46.899 Y76.423
G1 F1200 X47.736 Y73.881 E63.21701
G1 X49.138 Y70.955 E63.32493
G1 X50.999 Y68.208 E63.43529
G1 X52.835 Y66.222 E63.52524
G1 X55.588 Y64.098 E63.64089
G1 X57.948 Y62.825 E63.73008
G1 X60.978 Y61.898 E63.83547
G1 X63.369 Y61.651 E63.91542
G1 X158.748 Y61.62 E67.08773
G1 X160.976 Y61.818 E67.16213
G1 X163.075 Y62.529 E67.23584
G1 X165.056 Y63.679 E67.31203
G1 X166.949 Y65.476 E67.39884
G1 X167.777 Y66.53 E67.44342
G1 X169.027 Y68.735 E67.52772
G1 X169.68 Y70.484 E67.58981
G1 X170.841 Y75.251 E67.753
G1 X171.899 Y78.004 E67.85109
G1 X173.275 Y80.476 E67.94519
G1 X174.882 Y82.545 E68.03233
G1 X176.61 Y84.15 E68.11077
G1 X178.509 Y85.369 E68.18582
G1 X182.334 Y86.898 E68.32283
G1 X184.183 Y88.112 E68.3964
G1 X185.465 Y89.388 E68.45656
G1 X187.11 Y91.658 E68.5498
G1 X187.909 Y93.298 E68.61048
G1 X188.346 Y94.546 E68.65445
G1 X188.879 Y97.256 E68.74632
G1 X188.97 Y98.787 E68.79733
G1 X188.955 Y152.423 E70.58127
G1 X188.747 Y155.307 E70.67744
G1 X188.101 Y158.577 E70.7883
G1 X187.264 Y161.119 E70.87732
G1 X185.862 Y164.045 E70.98523
G1 X184.001 Y166.792 E71.09559
G1 X182.165 Y168.778 E71.18554
G1 X179.412 Y170.902 E71.30119
G1 X177.052 Y172.175 E71.39038
G1 X174.022 Y173.102 E71.49577
G1 X171.631 Y173.349 E71.57572
G1 X63.366 Y173.349 E75.17662
G1 X60.884 Y173.094 E75.25961
G1 X57.92 Y172.172 E75.36285
G1 X55.503 Y170.848 E75.45451
G1 X52.648 Y168.604 E75.57529
G1 X50.501 Y166.16 E75.68349
G1 X49.287 Y164.323 E75.75673
G1 X47.614 Y160.799 E75.88647
G1 X46.811 Y158.23 E75.976
G1 X46.256 Y155.304 E76.07505
G1 X46.03 Y152.013 E76.18477
G1 X46.045 Y82.577 E78.49422
G1 X46.253 Y79.693 E78.59039
G1 X46.899 Y76.423 E78.70125
G0 F6000 X47.279 Y76.548
G1 F1200 X48.097 Y74.054 E78.78855
G1 X49.499 Y71.128 E78.89646
G1 X51.293 Y68.48 E79.00285
G1 X53.129 Y66.494 E79.0928
G1 X55.778 Y64.45 E79.20409
G1 X58.101 Y63.197 E79.29188
G1 X61.06 Y62.292 E79.39479
G1 X63.41 Y62.049 E79.47337
G1 X158.748 Y62.02 E82.64433
G1 X160.891 Y62.212 E82.71589
G1 X162.908 Y62.895 E82.78671
G1 X164.814 Y64.001 E82.86001
G1 X166.634 Y65.723 E82.94334
G1 X167.462 Y66.777 E82.98792
G1 X168.652 Y68.876 E83.06817
G1 X169.291 Y70.579 E83.12867
G1 X170.457 Y75.366 E83.29254
G1 X171.536 Y78.173 E83.39257
G1 X172.941 Y80.697 E83.48864
G1 X174.586 Y82.816 E83.57787
G1 X176.366 Y84.469 E83.65866
G1 X178.321 Y85.724 E83.73593
G1 X182.146 Y87.253 E83.87294
G1 X183.931 Y88.425 E83.94396
G1 X185.142 Y89.623 E84.00062
G1 X186.751 Y91.834 E84.09157
G1 X187.531 Y93.43 E84.15065
G1 X187.968 Y94.678 E84.19463
G1 X188.48 Y97.28 E84.28283
G1 X188.57 Y98.787 E84.33304
G1 X188.556 Y152.394 E86.11602
G1 X188.348 Y155.278 E86.21219
G1 X187.721 Y158.452 E86.3198
G1 X186.903 Y160.946 E86.4071
G1 X185.501 Y163.872 E86.51501
G1 X183.707 Y166.52 E86.62139
G1 X181.871 Y168.506 E86.71135
G1 X179.222 Y170.55 E86.82264
G1 X176.899 Y171.803 E86.91042
G1 X173.94 Y172.708 E87.01334
G1 X171.59 Y172.951 E87.09192
G1 X63.407 Y172.951 E90.6901
G1 X60.965 Y172.7 E90.77175
G1 X58.075 Y171.801 E90.87241
G1 X55.75 Y170.534 E90.96048
G1 X52.924 Y168.313 E91.08003
G1 X50.835 Y165.939 E91.1852
G1 X49.621 Y164.102 E91.25844
G1 X47.996 Y160.679 E91.38447
G1 X47.204 Y158.155 E91.47245
G1 X46.649 Y155.229 E91.5715
G1 X46.43 Y152.013 E91.67872
G1 X46.444 Y82.606 E93.9872
G1 X46.652 Y79.722 E94.08337
G1 X47.279 Y76.548 E94.19098
G0 F6000 X47.659 Y76.672
G1 F1200 X48.458 Y74.227 E94.27654
G1 X49.86 Y71.301 E94.38445
G1 X51.587 Y68.752 E94.48686
G1 X53.423 Y66.766 E94.57681
G1 X55.968 Y64.802 E94.68373
G1 X58.258 Y63.567 E94.77027
G1 X61.137 Y62.686 E94.87041
G1 X63.451 Y62.447 E94.94778
G1 X158.748 Y62.42 E98.11737
G1 X160.806 Y62.606 E98.1861
G1 X162.741 Y63.261 E98.25405
G1 X164.575 Y64.325 E98.32457
G1 X166.319 Y65.97 E98.40431
G1 X167.147 Y67.024 E98.44889
G1 X168.277 Y69.017 E98.52509
G1 X168.916 Y70.72 E98.58559
G1 X170.073 Y75.48 E98.74851
G1 X171.176 Y78.35 E98.85078
G1 X172.603 Y80.914 E98.94837
G1 X174.29 Y83.087 E99.03987
G1 X176.122 Y84.788 E99.12302
G1 X178.133 Y86.079 E99.2025
G1 X181.958 Y87.608 E99.33951
G1 X183.68 Y88.739 E99.40803
G1 X184.861 Y89.907 E99.46328
G1 X186.392 Y92.01 E99.5498
G1 X187.153 Y93.562 E99.60729
G1 X187.59 Y94.81 E99.65127
G1 X188.081 Y97.304 E99.73581
G1 X188.17 Y98.787 E99.78523
G1 X188.157 Y152.365 E101.56724
G1 X187.949 Y155.249 E101.66341
G1 X187.341 Y158.328 E101.76779
G1 X186.542 Y160.773 E101.85335
G1 X185.14 Y163.699 E101.96126
G1 X183.413 Y166.248 E102.06367
G1 X181.577 Y168.234 E102.15362
G1 X179.032 Y170.198 E102.26055
G1 X176.742 Y171.433 E102.34708
G1 X173.863 Y172.314 E102.44722
G1 X171.549 Y172.553 E102.52459
G1 X63.448 Y172.553 E106.12005
G1 X61.046 Y172.306 E106.20036
G1 X58.233 Y171.431 E106.29834
G1 X55.997 Y170.219 E106.38293
G1 X53.2 Y168.021 E106.50125
G1 X51.169 Y165.718 E106.60338
G1 X49.955 Y163.881 E106.67662
G1 X48.378 Y160.559 E106.79892
G1 X47.597 Y158.08 E106.88537
G1 X47.042 Y155.154 E106.98442
G1 X46.83 Y152.013 E107.08913
G1 X46.843 Y82.635 E109.39665
G1 X47.051 Y79.751 E109.49283
G1 X47.659 Y76.672 E109.59721
G0 F6000 X48.039 Y76.796
G1 F1200 X48.819 Y74.4 E109.68102
G1 X50.221 Y71.474 E109.78893
G1 X51.881 Y69.024 E109.88736
G1 X53.717 Y67.038 E109.97732
G1 X56.158 Y65.154 E110.07988
G1 X58.415 Y63.937 E110.16516
G1 X61.214 Y63.08 E110.26252
G1 X63.492 Y62.845 E110.33869
G1 X158.748 Y62.82 E113.50692
G1 X160.721 Y63 E113.57282
G1 X162.574 Y63.627 E113.63788
G1 X164.333 Y64.647 E113.70551
G1 X166.004 Y66.217 E113.78177
G1 X166.832 Y67.271 E113.82635
G1 X167.902 Y69.158 E113.8985
G1 X168.541 Y70.861 E113.959
G1 X169.689 Y75.594 E114.12098
G1 X170.814 Y78.522 E114.22531
G1 X172.269 Y81.135 E114.32478
G1 X173.994 Y83.358 E114.41837
G1 X175.878 Y85.107 E114.50387
G1 X177.945 Y86.434 E114.58557
G1 X181.77 Y87.963 E114.72257
G1 X183.429 Y89.053 E114.7886
G1 X184.58 Y90.191 E114.84243
G1 X186.033 Y92.187 E114.92455
G1 X186.775 Y93.694 E114.98042
G1 X187.212 Y94.942 E115.0244
G1 X187.682 Y97.328 E115.10528
G1 X187.77 Y98.787 E115.15389
G1 X187.758 Y152.336 E116.93494
G1 X187.55 Y155.22 E117.03111
G1 X186.961 Y158.204 E117.13227
G1 X186.181 Y160.6 E117.21608
G1 X184.779 Y163.526 E117.324
G1 X183.119 Y165.976 E117.42243
G1 X181.283 Y167.962 E117.51238
G1 X178.842 Y169.846 E117.61494
G1 X176.585 Y171.063 E117.70023
G1 X173.786 Y171.92 E117.79759
G1 X171.508 Y172.155 E117.87376
G1 X63.489 Y172.155 E121.46648
G1 X61.127 Y171.912 E121.54546
G1 X58.391 Y171.061 E121.64076
G1 X56.188 Y169.867 E121.7241
G1 X53.448 Y167.707 E121.84015
G1 X51.503 Y165.497 E121.93806
G1 X50.289 Y163.66 E122.0113
G1 X48.759 Y160.438 E122.12993
G1 X47.99 Y158.005 E122.2148
G1 X47.435 Y155.079 E122.31385
G1 X47.23 Y152.013 E122.41606
G1 X47.242 Y82.664 E124.72261
G1 X47.45 Y79.78 E124.81879
G1 X48.039 Y76.796 E124.91995
G0 F6000 X48.419 Y76.919
G1 F1200 X49.18 Y74.573 E125.00198
G1 X50.582 Y71.647 E125.10989
G1 X52.175 Y69.296 E125.20435
G1 X54.011 Y67.31 E125.2943
G1 X56.402 Y65.471 E125.39463
G1 X58.57 Y64.307 E125.47647
G1 X61.291 Y63.474 E125.57112
G1 X63.533 Y63.243 E125.64609
G1 X158.748 Y63.22 E128.81295
G1 X160.636 Y63.394 E128.87601
G1 X162.407 Y63.993 E128.93819
G1 X164.094 Y64.971 E129.00305
G1 X165.69 Y66.465 E129.07576
G1 X166.484 Y67.469 E129.11833
G1 X167.527 Y69.299 E129.18839
G1 X168.166 Y71.002 E129.24889
G1 X169.305 Y75.708 E129.40993
G1 X170.452 Y78.694 E129.51632
G1 X171.935 Y81.356 E129.61767
G1 X173.698 Y83.629 E129.71335
G1 X175.634 Y85.426 E129.8012
G1 X177.757 Y86.789 E129.88511
G1 X181.582 Y88.318 E130.02212
G1 X183.178 Y89.367 E130.08564
G1 X184.299 Y90.475 E130.13807
G1 X185.674 Y92.364 E130.21578
G1 X186.397 Y93.826 E130.27003
G1 X186.834 Y95.074 E130.31401
G1 X187.283 Y97.352 E130.39123
G1 X187.37 Y98.787 E130.43905
G1 X187.359 Y152.307 E132.21913
G1 X187.151 Y155.191 E132.3153
G1 X186.581 Y158.081 E132.41327
G1 X185.82 Y160.427 E132.4953
G1 X184.418 Y163.353 E132.60322
G1 X182.825 Y165.704 E132.69767
G1 X180.989 Y167.69 E132.78763
G1 X178.598 Y169.529 E132.88796
G1 X176.43 Y170.693 E132.9698
G1 X173.709 Y171.526 E133.06445
G1 X171.467 Y171.757 E133.13941
G1 X63.53 Y171.757 E136.72941
G1 X61.208 Y171.518 E136.80705
G1 X58.549 Y170.691 E136.89967
G1 X56.379 Y169.515 E136.98176
G1 X53.725 Y167.416 E137.0943
G1 X51.837 Y165.276 E137.18922
G1 X50.623 Y163.439 E137.26245
G1 X49.14 Y160.317 E137.37741
G1 X48.383 Y157.93 E137.4607
G1 X47.828 Y155.004 E137.55975
G1 X47.63 Y152.013 E137.65945
G1 X47.641 Y82.693 E139.96505
G1 X47.849 Y79.809 E140.06122
G1 X48.419 Y76.919 E140.15919
G0 F6000 X48.8 Y77.042
G1 F1200 X49.541 Y74.745 E140.23947
