;FLAVOR:Marlin
;TIME:8705
;Filament used: 7.43688m
;Layer height: 0.2
;MINX:74.515
;MINY:74.51
;MINZ:0.2
;MAXX:160.485
;MAXY:160.487
;MAXZ:21.4
;TARGET_MACHINE.NAME:Creality Ender-3
;Generated with Cura_SteamEngine 5.9.0
M140 S42
M105
M190 S42
M104 S205
M105
M109 S205
M82 ;absolute extrusion mode
; Ender 3 Custom Start G-code
G92 E0 ; Reset Extruder
G28 ; Home all axes
G1 Z2.0 F3000 ; Move Z Axis up little to prevent scratching of Heat Bed
G1 X0.1 Y20 Z0.3 F5000.0 ; Move to start position
G1 X0.1 Y200.0 Z0.3 F1500.0 E15 ; Draw the first line
G1 X0.4 Y200.0 Z0.3 F5000.0 ; Move to side a little
G1 X0.4 Y20 Z0.3 F1500.0 E30 ; Draw the second line
G92 E0 ; Reset Extruder
G1 Z2.0 F3000 ; Move Z Axis up little to prevent scratching of Heat Bed
G1 X5 Y20 Z0.3 F5000.0 ; Move over to prevent blob squish
G92 E0
G92 E0
G1 F2700 E-5
;LAYER_COUNT:107
;LAYER:0
M107
G0 F6000 X120.656 Y160.37 Z0.2
;TYPE:SKIRT
G1 F2700 E0
G1 F1200 X119.136 Y160.455 E0.05063
G1 X117.312 Y160.487 E0.11131
G1 X116.212 Y160.469 E0.1479
G1 X114.485 Y160.384 E0.20541
G1 X113.416 Y160.297 E0.24108
G1 X111.578 Y160.08 E0.30264
G1 X110.647 Y159.943 E0.33394
G1 X110.219 Y159.871 E0.34837
G1 X108.75 Y159.588 E0.39813
G1 X107.71 Y159.363 E0.43352
G1 X107.252 Y159.251 E0.4492
G1 X105.479 Y158.776 E0.51025
G1 X104.383 Y158.44 E0.54838
G1 X102.801 Y157.895 E0.60403
G1 X101.338 Y157.334 E0.65615
G1 X100.384 Y156.933 E0.69057
G1 X98.953 Y156.278 E0.74291
G1 X97.697 Y155.653 E0.78957
G1 X96.375 Y154.939 E0.83955
G1 X96.042 Y154.749 E0.8523
G1 X94.775 Y153.99 E0.90142
G1 X93.802 Y153.365 E0.93988
G1 X92.33 Y152.347 E0.99941
G1 X91.422 Y151.674 E1.037
G1 X90.237 Y150.735 E1.08729
G1 X89.126 Y149.791 E1.13578
G1 X88.007 Y148.772 E1.18612
G1 X86.905 Y147.697 E1.23732
G1 X86.134 Y146.903 E1.27413
G1 X85.85 Y146.596 E1.28804
G1 X84.711 Y145.299 E1.34545
G1 X83.769 Y144.149 E1.3949
G1 X83.08 Y143.253 E1.43249
G1 X82.222 Y142.064 E1.48126
G1 X81.374 Y140.8 E1.53188
G1 X80.614 Y139.578 E1.57975
G1 X80.416 Y139.245 E1.59263
G1 X79.707 Y137.984 E1.64075
G1 X79.161 Y136.945 E1.67978
G1 X78.529 Y135.645 E1.72786
G1 X77.901 Y134.229 E1.77938
G1 X77.372 Y132.916 E1.82646
G1 X76.747 Y131.182 E1.88777
G1 X76.386 Y130.06 E1.92697
G1 X75.985 Y128.655 E1.97557
G1 X75.624 Y127.21 E2.02511
G1 X75.322 Y125.812 E2.07268
G1 X74.993 Y123.915 E2.13671
G1 X74.808 Y122.539 E2.18289
G1 X74.654 Y120.996 E2.23447
G1 X74.558 Y119.516 E2.28379
G1 X74.515 Y118.059 E2.33227
G1 X74.521 Y116.565 E2.38197
G1 X74.56 Y115.454 E2.41894
G1 X74.691 Y113.56 E2.48209
G1 X74.847 Y112.141 E2.52957
G1 X75.061 Y110.639 E2.58003
G1 X75.316 Y109.223 E2.62788
G1 X75.636 Y107.73 E2.67867
G1 X75.996 Y106.299 E2.72774
G1 X76.397 Y104.905 E2.77599
G1 X76.738 Y103.842 E2.81312
G1 X77.315 Y102.233 E2.86997
G1 X77.783 Y101.047 E2.91238
G1 X78.538 Y99.331 E2.97473
G1 X79.188 Y97.997 E3.02409
G1 X79.701 Y97.02 E3.06079
G1 X80.441 Y95.711 E3.1108
G1 X81.197 Y94.472 E3.15908
G1 X82.03 Y93.211 E3.20934
G1 X82.882 Y92.008 E3.25838
G1 X83.808 Y90.798 E3.30905
G1 X84.713 Y89.696 E3.35648
G1 X85.701 Y88.572 E3.40626
G1 X87.008 Y87.194 E3.46942
G1 X88.01 Y86.219 E3.51592
G1 X88.859 Y85.44 E3.55425
G1 X90.028 Y84.432 E3.60559
G1 X91.109 Y83.562 E3.65174
G1 X92.628 Y82.435 E3.71465
G1 X93.564 Y81.789 E3.75247
G1 X94.837 Y80.967 E3.80287
G1 X96.341 Y80.076 E3.86102
G1 X97.723 Y79.328 E3.91328
G1 X99.026 Y78.681 E3.96167
G1 X100.401 Y78.055 E4.01192
G1 X101.696 Y77.519 E4.05854
G1 X103.147 Y76.975 E4.11008
G1 X104.201 Y76.617 E4.1471
G1 X105.98 Y76.081 E4.2089
G1 X107.399 Y75.713 E4.25765
G1 X108.851 Y75.387 E4.30715
G1 X109.93 Y75.18 E4.34369
G1 X111.422 Y74.941 E4.39395
G1 X112.891 Y74.758 E4.44319
G1 X114.39 Y74.623 E4.49324
G1 X115.819 Y74.542 E4.54085
G1 X117.331 Y74.51 E4.59115
G1 X117.721 Y74.51 E4.60412
G1 X119.174 Y74.543 E4.65246
G1 X120.898 Y74.639 E4.70989
G1 X121.981 Y74.74 E4.74607
G1 X123.42 Y74.915 E4.79428
G1 X124.35 Y75.052 E4.82555
G1 X124.784 Y75.125 E4.84018
G1 X126.374 Y75.432 E4.89404
G1 X127.203 Y75.611 E4.92225
G1 X127.623 Y75.713 E4.93663
G1 X129.346 Y76.174 E4.99595
G1 X130.843 Y76.633 E5.04803
G1 X132.187 Y77.097 E5.09532
G1 X133.634 Y77.652 E5.14687
G1 X134.999 Y78.231 E5.19618
G1 X136.297 Y78.835 E5.2438
G1 X137.646 Y79.522 E5.29415
G1 X138.625 Y80.057 E5.33126
G1 X139.903 Y80.809 E5.38057
G1 X141.212 Y81.642 E5.43218
G1 X142.413 Y82.464 E5.48059
G1 X143.546 Y83.297 E5.52736
G1 X144.768 Y84.264 E5.57919
G1 X145.893 Y85.219 E5.62827
G1 X146.965 Y86.193 E5.67644
G1 X148.309 Y87.513 E5.7391
G1 X148.918 Y88.146 E5.76832
G1 X149.917 Y89.256 E5.81798
G1 X150.18 Y89.563 E5.83143
G1 X151.199 Y90.806 E5.88489
G1 X151.932 Y91.76 E5.9249
G1 X152.768 Y92.918 E5.97241
G1 X153.617 Y94.183 E6.02308
G1 X154.381 Y95.412 E6.07121
G1 X155.134 Y96.723 E6.12149
G1 X155.84 Y98.053 E6.17158
G1 X156.471 Y99.35 E6.21955
G1 X157.091 Y100.748 E6.27041
G1 X157.633 Y102.093 E6.31864
G1 X158.251 Y103.812 E6.3794
G1 X158.712 Y105.27 E6.43026
G1 X159.106 Y106.68 E6.47895
G1 X159.454 Y108.12 E6.52823
G1 X159.748 Y109.555 E6.57695
G1 X160.007 Y111.079 E6.62836
G1 X160.192 Y112.453 E6.67447
G1 X160.345 Y113.988 E6.72578
G1 X160.442 Y115.486 E6.77571
G1 X160.485 Y116.946 E6.82429
G1 X160.479 Y118.444 E6.87411
G1 X160.421 Y119.908 E6.92285
G1 X160.311 Y121.409 E6.9729
G1 X160.198 Y122.485 E7.00889
G1 X159.994 Y123.994 E7.05953
G1 X159.752 Y125.423 E7.10774
G1 X159.443 Y126.921 E7.15861
G1 X159.098 Y128.344 E7.20731
G1 X158.703 Y129.752 E7.25595
G1 X158.275 Y131.111 E7.30334
G1 X157.644 Y132.875 E7.36565
G1 X157.112 Y134.203 E7.41323
G1 X156.464 Y135.659 E7.46624
G1 X155.813 Y136.996 E7.5157
G1 X155.135 Y138.277 E7.56391
G1 X154.557 Y139.289 E7.60267
G1 X153.8 Y140.526 E7.6509
G1 X152.971 Y141.783 E7.70098
G1 X152.119 Y142.986 E7.75001
G1 X151.208 Y144.177 E7.79989
G1 X150.289 Y145.298 E7.8481
G1 X149.292 Y146.433 E7.89835
G1 X148.289 Y147.5 E7.94705
G1 X146.952 Y148.813 E8.00938
G1 X145.878 Y149.79 E8.05767
G1 X144.708 Y150.782 E8.10869
G1 X143.896 Y151.43 E8.14324
G1 X142.374 Y152.558 E8.20625
G1 X141.13 Y153.409 E8.25638
G1 X139.889 Y154.195 E8.30524
G1 X138.611 Y154.945 E8.35452
G1 X137.315 Y155.646 E8.40353
G1 X135.957 Y156.323 E8.454
G1 X134.662 Y156.912 E8.50132
G1 X133.219 Y157.509 E8.55326
G1 X131.89 Y158.007 E8.60046
G1 X130.828 Y158.369 E8.63778
G1 X129.383 Y158.811 E8.68804
G1 X129.013 Y158.915 E8.70082
G1 X127.6 Y159.281 E8.74937
G1 X126.158 Y159.605 E8.79853
G1 X125.08 Y159.813 E8.83504
G1 X123.58 Y160.054 E8.88557
G1 X122.075 Y160.241 E8.93601
G1 X120.656 Y160.37 E8.9834
G0 F6000 X122.039 Y159.843
G1 F1200 X120.634 Y159.971 E9.03033
G1 X119.129 Y160.055 E9.08046
G1 X117.319 Y160.087 E9.14067
G1 X116.232 Y160.069 E9.17683
G1 X114.517 Y159.985 E9.23394
G1 X113.463 Y159.9 E9.26911
G1 X111.636 Y159.684 E9.3303
G1 X110.714 Y159.549 E9.36129
G1 X110.295 Y159.478 E9.37543
G1 X108.835 Y159.197 E9.42488
G1 X107.804 Y158.974 E9.45996
G1 X107.355 Y158.865 E9.47533
G1 X105.596 Y158.394 E9.5359
G1 X104.513 Y158.062 E9.57357
G1 X102.944 Y157.521 E9.62877
G1 X101.493 Y156.965 E9.68045
G1 X100.55 Y156.569 E9.71447
G1 X99.131 Y155.92 E9.76637
G1 X97.887 Y155.301 E9.81258
G1 X96.573 Y154.591 E9.86226
G1 X96.248 Y154.406 E9.8747
G1 X94.991 Y153.653 E9.92343
G1 X94.029 Y153.036 E9.96145
G1 X92.568 Y152.026 E10.02052
G1 X91.67 Y151.36 E10.05771
G1 X90.496 Y150.43 E10.10752
G1 X89.395 Y149.495 E10.15556
G1 X88.286 Y148.486 E10.20543
G1 X87.192 Y147.419 E10.25626
G1 X86.428 Y146.631 E10.29276
G1 X86.144 Y146.324 E10.30667
G1 X85.02 Y145.045 E10.3633
G1 X84.086 Y143.905 E10.41232
G1 X83.404 Y143.019 E10.44951
G1 X82.554 Y141.841 E10.49782
G1 X81.714 Y140.589 E10.54797
G1 X80.958 Y139.374 E10.59557
G1 X80.765 Y139.049 E10.60814
G1 X80.061 Y137.798 E10.65588
G1 X79.521 Y136.77 E10.6945
G1 X78.895 Y135.483 E10.7421
G1 X78.272 Y134.079 E10.79319
G1 X77.748 Y132.78 E10.83978
G1 X77.128 Y131.059 E10.90062
G1 X76.771 Y129.95 E10.93937
G1 X76.373 Y128.558 E10.98753
G1 X76.015 Y127.126 E11.03662
G1 X75.715 Y125.737 E11.08388
G1 X75.644 Y125.364 E11.09651
G1 X75.389 Y123.862 E11.14718
G1 X75.206 Y122.499 E11.19292
G1 X75.053 Y120.97 E11.24403
G1 X74.958 Y119.504 E11.29289
G1 X74.915 Y118.061 E11.34091
G1 X74.921 Y116.579 E11.3902
G1 X74.959 Y115.482 E11.42671
G1 X75.089 Y113.604 E11.48932
G1 X75.243 Y112.197 E11.5364
G1 X75.455 Y110.71 E11.58636
G1 X75.707 Y109.307 E11.63377
G1 X76.024 Y107.827 E11.68411
G1 X76.38 Y106.41 E11.7327
G1 X76.778 Y105.027 E11.78057
G1 X77.115 Y103.977 E11.81725
G1 X77.687 Y102.38 E11.87367
G1 X78.149 Y101.208 E11.91557
G1 X78.898 Y99.506 E11.97741
G1 X79.542 Y98.183 E12.02635
G1 X80.049 Y97.217 E12.06264
G1 X80.782 Y95.919 E12.11222
G1 X81.531 Y94.692 E12.16003
G1 X82.356 Y93.442 E12.20985
G1 X83.2 Y92.251 E12.2584
G1 X84.117 Y91.052 E12.3086
G1 X85.013 Y89.96 E12.35558
G1 X85.992 Y88.846 E12.40491
G1 X87.024 Y87.749 E12.455
G1 X87.287 Y87.481 E12.46749
G1 X88.281 Y86.514 E12.51362
G1 X89.12 Y85.743 E12.55152
G1 X90.279 Y84.744 E12.60241
G1 X91.36 Y83.874 E12.64856
G1 X92.855 Y82.764 E12.71049
G1 X93.781 Y82.125 E12.74791
G1 X95.041 Y81.311 E12.7978
G1 X96.532 Y80.428 E12.85544
G1 X97.901 Y79.686 E12.90723
G1 X99.192 Y79.045 E12.95517
G1 X100.554 Y78.425 E13.00494
G1 X101.836 Y77.894 E13.0511
G1 X103.276 Y77.354 E13.10225
G1 X104.317 Y77 E13.13882
G1 X106.08 Y76.468 E13.20007
G1 X107.487 Y76.103 E13.24841
G1 X108.927 Y75.78 E13.2975
G1 X109.993 Y75.575 E13.3336
G1 X111.472 Y75.338 E13.38342
G1 X112.927 Y75.156 E13.43219
G1 X114.413 Y75.022 E13.48182
G1 X115.827 Y74.942 E13.52892
G1 X117.339 Y74.91 E13.57922
G1 X117.712 Y74.91 E13.59163
G1 X119.152 Y74.942 E13.63954
G1 X120.861 Y75.037 E13.69647
G1 X121.933 Y75.137 E13.73228
G1 X123.362 Y75.311 E13.78015
G1 X124.283 Y75.446 E13.81111
G1 X124.708 Y75.518 E13.82545
G1 X126.29 Y75.823 E13.87904
G1 X127.109 Y76 E13.90691
G1 X127.52 Y76.099 E13.92097
G1 X129.229 Y76.556 E13.97981
G1 X130.713 Y77.011 E14.03143
G1 X132.044 Y77.47 E14.07826
G1 X133.478 Y78.02 E14.12934
G1 X134.83 Y78.594 E14.1782
G1 X136.128 Y79.198 E14.22581
G1 X137.454 Y79.873 E14.2753
G1 X138.422 Y80.402 E14.31199
G1 X139.688 Y81.147 E14.36085
G1 X140.986 Y81.972 E14.412
G1 X142.176 Y82.786 E14.45996
G1 X143.298 Y83.611 E14.50628
G1 X144.509 Y84.569 E14.55763
G1 X145.624 Y85.515 E14.60627
G1 X146.685 Y86.479 E14.65395
G1 X148.021 Y87.79 E14.7162
G1 X148.621 Y88.414 E14.74499
G1 X149.613 Y89.516 E14.79431
G1 X149.871 Y89.817 E14.8075
G1 X150.882 Y91.05 E14.86053
G1 X151.608 Y91.994 E14.90014
G1 X152.436 Y93.141 E14.94719
G1 X153.277 Y94.394 E14.99738
G1 X154.034 Y95.611 E15.04505
G1 X154.781 Y96.911 E15.09492
G1 X155.48 Y98.228 E15.14451
G1 X156.105 Y99.512 E15.19201
G1 X156.72 Y100.898 E15.24244
G1 X157.257 Y102.228 E15.29014
G1 X157.87 Y103.933 E15.35041
G1 X158.327 Y105.378 E15.40081
G1 X158.717 Y106.774 E15.44902
G1 X159.062 Y108.201 E15.49785
G1 X159.354 Y109.622 E15.5461
G1 X159.611 Y111.132 E15.59705
G1 X159.794 Y112.493 E15.64272
G1 X159.946 Y114.014 E15.69356
G1 X160.042 Y115.498 E15.74302
G1 X160.085 Y116.944 E15.79114
G1 X160.079 Y118.428 E15.8405
G1 X160.022 Y119.879 E15.8888
G1 X159.913 Y121.367 E15.93842
G1 X159.802 Y122.431 E15.974
G1 X159.6 Y123.927 E16.02421
G1 X159.36 Y125.342 E16.07194
G1 X159.054 Y126.827 E16.12237
G1 X158.713 Y128.236 E16.17059
G1 X158.322 Y129.632 E16.21881
G1 X157.898 Y130.976 E16.26568
G1 X157.273 Y132.726 E16.32749
G1 X156.746 Y134.04 E16.37457
G1 X156.104 Y135.484 E16.42714
G1 X155.459 Y136.809 E16.47615
G1 X154.781 Y138.09 E16.52435
G1 X154.216 Y139.08 E16.56227
G1 X153.466 Y140.306 E16.61007
G1 X152.645 Y141.552 E16.6597
G1 X151.801 Y142.743 E16.70825
G1 X150.89 Y143.934 E16.75812
G1 X149.989 Y145.034 E16.80541
G1 X149 Y146.159 E16.85524
G1 X148.004 Y147.219 E16.90361
G1 X147.745 Y147.482 E16.91589
G1 X146.683 Y148.517 E16.96521
G1 X145.619 Y149.485 E17.01306
G1 X144.458 Y150.469 E17.06367
G1 X143.646 Y151.117 E17.09823
G1 X142.148 Y152.228 E17.16026
G1 X140.916 Y153.071 E17.20991
G1 X139.687 Y153.85 E17.25831
G1 X138.42 Y154.593 E17.30716
G1 X137.137 Y155.288 E17.35569
G1 X135.791 Y155.959 E17.40571
G1 X134.509 Y156.542 E17.45255
G1 X133.079 Y157.134 E17.50403
G1 X131.761 Y157.628 E17.55084
G1 X130.699 Y157.99 E17.58816
G1 X129.275 Y158.426 E17.63769
G1 X128.913 Y158.528 E17.6502
G1 X127.512 Y158.891 E17.69834
G1 X126.082 Y159.212 E17.74709
G1 X125.017 Y159.418 E17.78316
G1 X123.53 Y159.657 E17.83326
G1 X122.039 Y159.843 E17.88323
G0 F6000 X122.003 Y159.445
G1 F1200 X120.612 Y159.572 E17.92969
G1 X119.122 Y159.655 E17.97932
G1 X117.326 Y159.687 E18.03907
G1 X116.251 Y159.669 E18.07483
G1 X114.549 Y159.586 E18.1315
G1 X113.51 Y159.503 E18.16617
G1 X111.694 Y159.288 E18.22699
G1 X110.781 Y159.155 E18.25768
G1 X110.371 Y159.085 E18.27151
G1 X108.92 Y158.806 E18.32066
G1 X107.898 Y158.585 E18.35544
G1 X107.459 Y158.479 E18.37046
G1 X105.713 Y158.011 E18.43058
G1 X104.643 Y157.684 E18.46779
G1 X103.087 Y157.148 E18.52253
G1 X101.648 Y156.596 E18.57379
G1 X100.716 Y156.205 E18.60741
G1 X99.309 Y155.562 E18.65886
G1 X98.077 Y154.949 E18.70463
G1 X96.771 Y154.243 E18.75401
G1 X96.454 Y154.063 E18.76613
G1 X95.207 Y153.316 E18.81448
G1 X94.256 Y152.707 E18.85204
G1 X92.806 Y151.705 E18.91066
G1 X91.918 Y151.046 E18.94744
G1 X90.755 Y150.125 E18.99678
G1 X89.664 Y149.199 E19.04438
G1 X88.565 Y148.2 E19.09378
G1 X87.479 Y147.141 E19.14423
G1 X86.722 Y146.359 E19.18043
G1 X86.438 Y146.052 E19.19434
G1 X85.329 Y144.791 E19.25019
G1 X84.403 Y143.661 E19.29878
G1 X83.728 Y142.785 E19.33556
G1 X82.886 Y141.618 E19.38343
G1 X82.054 Y140.378 E19.43309
G1 X81.302 Y139.17 E19.48042
G1 X81.114 Y138.853 E19.49268
G1 X80.415 Y137.612 E19.54005
G1 X79.881 Y136.595 E19.57826
G1 X79.261 Y135.321 E19.62538
G1 X78.643 Y133.929 E19.67604
G1 X78.124 Y132.644 E19.72213
G1 X77.509 Y130.936 E19.78251
G1 X77.156 Y129.84 E19.82081
G1 X76.761 Y128.461 E19.86852
G1 X76.406 Y127.042 E19.91717
G1 X76.108 Y125.661 E19.96416
G1 X76.038 Y125.297 E19.97648
G1 X75.785 Y123.809 E20.02669
G1 X75.604 Y122.459 E20.07199
G1 X75.452 Y120.944 E20.12263
G1 X75.358 Y119.492 E20.17103
G1 X75.315 Y118.063 E20.21858
G1 X75.321 Y116.593 E20.26747
G1 X75.358 Y115.51 E20.30351
G1 X75.487 Y113.647 E20.36562
G1 X75.639 Y112.253 E20.41226
G1 X75.849 Y110.781 E20.46172
G1 X76.098 Y109.391 E20.50868
G1 X76.412 Y107.924 E20.55858
G1 X76.764 Y106.521 E20.60669
G1 X77.159 Y105.149 E20.65418
G1 X77.492 Y104.112 E20.6904
G1 X78.059 Y102.527 E20.74639
G1 X78.516 Y101.368 E20.78783
G1 X79.108 Y100.007 E20.83719
G1 X79.258 Y99.681 E20.84913
G1 X79.896 Y98.369 E20.89765
G1 X80.397 Y97.414 E20.93352
G1 X81.124 Y96.127 E20.98268
G1 X81.865 Y94.912 E21.03002
G1 X82.682 Y93.673 E21.07938
G1 X83.518 Y92.494 E21.12745
G1 X84.426 Y91.306 E21.17718
G1 X85.313 Y90.224 E21.22372
G1 X86.283 Y89.12 E21.2726
G1 X87.31 Y88.029 E21.32243
G1 X87.566 Y87.768 E21.33459
G1 X88.552 Y86.808 E21.38036
G1 X89.381 Y86.046 E21.41781
G1 X90.53 Y85.056 E21.46826
G1 X91.599 Y84.195 E21.51391
G1 X93.082 Y83.093 E21.57536
G1 X93.998 Y82.461 E21.61238
G1 X95.251 Y81.652 E21.66199
G1 X95.563 Y81.46 E21.67417
G1 X96.723 Y80.78 E21.71889
G1 X98.079 Y80.044 E21.77021
G1 X99.358 Y79.409 E21.8177
G1 X100.707 Y78.795 E21.867
G1 X101.976 Y78.269 E21.91269
G1 X103.405 Y77.733 E21.96345
G1 X104.433 Y77.383 E21.99957
G1 X106.181 Y76.855 E22.0603
G1 X107.574 Y76.493 E22.10817
G1 X109.003 Y76.173 E22.15688
G1 X110.056 Y75.97 E22.19255
G1 X111.522 Y75.735 E22.24193
G1 X112.963 Y75.554 E22.29023
G1 X114.436 Y75.421 E22.33942
G1 X115.835 Y75.342 E22.38603
G1 X117.347 Y75.31 E22.43633
G1 X117.703 Y75.31 E22.44817
G1 X119.13 Y75.341 E22.49564
G1 X120.824 Y75.435 E22.55207
G1 X121.885 Y75.534 E22.58752
G1 X123.304 Y75.707 E22.63506
G1 X124.216 Y75.84 E22.66572
G1 X124.632 Y75.911 E22.67975
G1 X126.206 Y76.214 E22.73306
G1 X127.016 Y76.389 E22.76063
G1 X127.417 Y76.485 E22.77434
G1 X129.112 Y76.938 E22.8327
G1 X130.583 Y77.389 E22.88387
G1 X131.901 Y77.843 E22.93023
G1 X133.322 Y78.388 E22.98085
G1 X134.661 Y78.957 E23.02924
G1 X135.947 Y79.555 E23.07641
G1 X137.262 Y80.224 E23.12548
G1 X138.219 Y80.747 E23.16176
G1 X139.474 Y81.485 E23.21018
G1 X140.76 Y82.302 E23.26086
