;FLAVOR:Marlin
;TIME:7918
;Filament used: 4.43651m
;Layer height: 0.2
;MINX:46.7
;MINY:61.283
;MINZ:0.2
;MAXX:167.994
;MAXY:158.5
;MAXZ:8
;TARGET_MACHINE.NAME:Creality Ender-3
;Generated with Cura_SteamEngine 5.6.0
M140 S42
M105
M190 S42
M104 S205
M105
M109 S205
M82 ;absolute extrusion mode
; Ender 3 Custom Start G-code
G92 E0 ; Reset Extruder
G28 ; Home all axes
G29 ; Auto Bed Leveling
G1 Z2.0 F3000 ; Move Z Axis up little to prevent scratching of Heat Bed
G1 X0.1 Y20 Z0.3 F5000.0 ; Move to start position
G1 X0.1 Y200.0 Z0.3 F1500.0 E15 ; Draw the first line
G1 X0.4 Y200.0 Z0.3 F5000.0 ; Move to side a little
G1 X0.4 Y20 Z0.3 F1500.0 E30 ; Draw the second line
G92 E0 ; Reset Extruder
G1 Z2.0 F3000 ; Move Z Axis up little to prevent scratching of Heat Bed
G1 X5 Y20 Z0.3 F5000.0 ; Move over to prevent blob squish
G92 E0
G92 E0
G1 F2700 E-5
;LAYER_COUNT:40
;LAYER:0
M107
G0 F6000 X54.346 Y66.313 Z0.2
;TYPE:SKIRT
G1 F2700 E0
G1 F1200 X54.871 Y65.892 E0.02238
G1 X55.372 Y65.515 E0.04324
G1 X55.863 Y65.17 E0.0632
G1 X56.432 Y64.795 E0.08586
G1 X56.995 Y64.451 E0.10781
G1 X57.577 Y64.119 E0.13009
G1 X58.205 Y63.786 E0.15373
G1 X58.816 Y63.487 E0.17636
G1 X59.369 Y63.239 E0.19652
G1 X59.935 Y63.003 E0.21691
G1 X60.535 Y62.775 E0.23826
G1 X61.2 Y62.546 E0.26165
G1 X61.849 Y62.346 E0.28424
G1 X62.482 Y62.173 E0.30607
G1 X63.116 Y62.02 E0.32776
G1 X63.791 Y61.881 E0.35068
G1 X64.437 Y61.769 E0.37249
G1 X65.074 Y61.678 E0.39389
G1 X65.671 Y61.612 E0.41387
G1 X66.32 Y61.56 E0.43552
G1 X67.266 Y61.519 E0.46701
G1 X68.323 Y61.502 E0.50217
G1 X117.831 Y61.5 E2.14882
G1 X120.4 Y61.463 E2.23427
G1 X124.161 Y61.283 E2.35951
G1 X125.542 Y61.304 E2.40544
G1 X127.221 Y61.436 E2.46146
G1 X130.146 Y61.707 E2.55916
G1 X132.705 Y61.872 E2.64445
G1 X135.21 Y61.964 E2.72782
G1 X137.737 Y61.985 E2.81188
G1 X140.237 Y61.935 E2.89504
G1 X142.744 Y61.813 E2.97852
G1 X146.133 Y61.544 E3.0916
G1 X147.068 Y61.516 E3.12271
G1 X147.622 Y61.523 E3.14114
G1 X148.292 Y61.554 E3.16345
G1 X148.943 Y61.604 E3.18516
G1 X149.61 Y61.677 E3.20748
G1 X150.253 Y61.768 E3.22908
G1 X150.859 Y61.872 E3.24953
G1 X151.457 Y61.993 E3.26982
G1 X152.304 Y62.192 E3.29876
G1 X152.844 Y62.341 E3.31739
G1 X153.468 Y62.538 E3.33916
G1 X154.129 Y62.765 E3.3624
G1 X154.753 Y63 E3.38458
G1 X155.26 Y63.21 E3.40283
G1 X155.817 Y63.46 E3.42314
G1 X156.45 Y63.766 E3.44652
G1 X157.07 Y64.092 E3.46982
G1 X157.658 Y64.425 E3.49229
G1 X158.227 Y64.772 E3.51446
G1 X158.736 Y65.105 E3.53469
G1 X159.307 Y65.505 E3.55788
G1 X159.854 Y65.916 E3.58064
G1 X160.364 Y66.324 E3.60236
G1 X160.845 Y66.734 E3.62338
G1 X161.316 Y67.16 E3.6445
G1 X161.783 Y67.608 E3.66603
G1 X162.29 Y68.131 E3.69025
G1 X162.73 Y68.616 E3.71203
G1 X163.125 Y69.079 E3.73228
G1 X163.537 Y69.589 E3.75408
G1 X163.943 Y70.127 E3.7765
G1 X164.303 Y70.635 E3.79721
G1 X164.694 Y71.228 E3.82083
G1 X165.108 Y71.904 E3.8472
G1 X165.416 Y72.445 E3.8679
G1 X165.655 Y72.897 E3.88491
G1 X165.938 Y73.473 E3.90626
G1 X166.253 Y74.167 E3.9316
G1 X166.521 Y74.812 E3.95483
G1 X166.729 Y75.363 E3.97442
G1 X166.937 Y75.966 E3.99564
G1 X167.141 Y76.623 E4.01852
G1 X167.324 Y77.293 E4.04162
G1 X167.471 Y77.904 E4.06252
G1 X167.606 Y78.56 E4.0848
G1 X167.73 Y79.273 E4.10887
G1 X167.822 Y79.913 E4.13037
G1 X167.88 Y80.438 E4.14794
G1 X167.933 Y81.1 E4.17003
G1 X167.978 Y82.156 E4.20519
G1 X167.992 Y83.076 E4.23579
G1 X167.994 Y136.851 E6.02435
G1 X167.973 Y138.146 E6.06743
G1 X167.947 Y138.719 E6.08651
G1 X167.87 Y139.697 E6.11914
G1 X167.823 Y140.12 E6.13329
G1 X167.687 Y141.007 E6.16314
G1 X167.513 Y141.901 E6.19343
G1 X167.323 Y142.712 E6.22114
G1 X167.13 Y143.41 E6.24522
G1 X166.937 Y144.034 E6.26695
G1 X166.747 Y144.59 E6.28649
G1 X166.518 Y145.199 E6.30813
G1 X166.264 Y145.811 E6.33017
G1 X165.981 Y146.437 E6.35302
G1 X165.685 Y147.042 E6.37542
G1 X165.384 Y147.612 E6.39686
G1 X165.086 Y148.135 E6.41688
G1 X164.742 Y148.698 E6.43882
G1 X164.381 Y149.25 E6.46076
G1 X163.989 Y149.809 E6.48347
G1 X163.573 Y150.366 E6.50659
G1 X163.149 Y150.896 E6.52917
G1 X162.744 Y151.37 E6.5499
G1 X162.304 Y151.854 E6.57166
G1 X161.862 Y152.311 E6.5928
G1 X161.38 Y152.779 E6.61515
G1 X160.895 Y153.22 E6.63695
G1 X160.405 Y153.639 E6.65839
G1 X159.895 Y154.05 E6.68018
G1 X159.362 Y154.454 E6.70242
G1 X158.801 Y154.849 E6.72524
G1 X158.215 Y155.234 E6.74857
G1 X157.7 Y155.549 E6.76864
G1 X157.159 Y155.858 E6.78937
G1 X156.563 Y156.176 E6.81183
G1 X155.916 Y156.494 E6.83581
G1 X155.291 Y156.774 E6.85859
G1 X154.722 Y157.011 E6.87909
G1 X154.153 Y157.227 E6.89933
G1 X153.516 Y157.447 E6.92175
G1 X152.868 Y157.648 E6.94432
G1 X152.21 Y157.828 E6.967
G1 X151.578 Y157.98 E6.98862
G1 X150.897 Y158.12 E7.01175
G1 X150.247 Y158.232 E7.03369
G1 X149.619 Y158.321 E7.05478
G1 X149.013 Y158.388 E7.07506
G1 X148.372 Y158.44 E7.09645
G1 X147.427 Y158.481 E7.12791
G1 X146.37 Y158.498 E7.16307
G1 X92.692 Y158.5 E8.94841
G1 X91.809 Y158.487 E8.97778
G1 X90.91 Y158.436 E9.00773
G1 X89.841 Y158.33 E9.04346
G1 X87.004 Y158.093 E9.13815
G1 X85.728 Y158.005 E9.18069
G1 X83.162 Y157.866 E9.26616
G1 X80.596 Y157.799 E9.35153
G1 X78.099 Y157.806 E9.43458
G1 X75.574 Y157.882 E9.5186
G1 X73.056 Y158.031 E9.6025
G1 X70.548 Y158.251 E9.68624
G1 X68.85 Y158.429 E9.74302
G1 X67.638 Y158.484 E9.78337
G1 X67.064 Y158.477 E9.80247
G1 X66.401 Y158.446 E9.82454
G1 X65.75 Y158.396 E9.84626
G1 X65.083 Y158.323 E9.86857
G1 X64.44 Y158.232 E9.89017
G1 X63.834 Y158.128 E9.91062
G1 X63.236 Y158.007 E9.93092
G1 X62.389 Y157.808 E9.95986
G1 X61.849 Y157.659 E9.97849
G1 X61.225 Y157.462 E10.00025
G1 X60.562 Y157.235 E10.02356
G1 X59.922 Y156.992 E10.04633
G1 X59.348 Y156.753 E10.06701
G1 X58.789 Y156.501 E10.0874
G1 X58.204 Y156.216 E10.10905
G1 X57.613 Y155.904 E10.13127
G1 X57.001 Y155.554 E10.15472
G1 X56.441 Y155.21 E10.17658
G1 X55.925 Y154.872 E10.1971
G1 X55.396 Y154.5 E10.21861
G1 X54.86 Y154.1 E10.24085
G1 X54.335 Y153.679 E10.26323
G1 X53.846 Y153.263 E10.28459
G1 X53.359 Y152.823 E10.30642
G1 X52.898 Y152.377 E10.32775
G1 X52.41 Y151.874 E10.35106
G1 X51.936 Y151.352 E10.37451
G1 X51.518 Y150.862 E10.39593
G1 X51.136 Y150.385 E10.41626
G1 X50.742 Y149.864 E10.43799
G1 X50.354 Y149.313 E10.4604
G1 X49.958 Y148.711 E10.48437
G1 X49.61 Y148.14 E10.50661
G1 X49.29 Y147.576 E10.52817
G1 X48.995 Y147.015 E10.54926
G1 X48.707 Y146.428 E10.571
G1 X48.452 Y145.861 E10.59168
G1 X48.209 Y145.279 E10.61266
G1 X47.972 Y144.655 E10.63486
G1 X47.741 Y143.984 E10.65846
G1 X47.54 Y143.332 E10.68115
G1 X47.37 Y142.711 E10.70257
G1 X47.221 Y142.094 E10.72368
G1 X47.079 Y141.403 E10.74714
G1 X46.967 Y140.753 E10.76908
G1 X46.876 Y140.113 E10.79058
G1 X46.805 Y139.461 E10.8124
G1 X46.753 Y138.797 E10.83455
G1 X46.718 Y137.933 E10.86331
G1 X46.701 Y136.876 E10.89847
G1 X46.7 Y83.104 E12.68693
G1 X46.718 Y81.929 E12.72602
G1 X46.742 Y81.375 E12.74446
G1 X46.786 Y80.727 E12.76606
G1 X46.89 Y79.75 E12.79874
G1 X47.02 Y78.929 E12.82639
G1 X47.203 Y78.002 E12.85782
G1 X47.378 Y77.257 E12.88327
G1 X47.545 Y76.653 E12.90411
G1 X47.737 Y76.028 E12.92586
G1 X47.962 Y75.369 E12.94902
G1 X48.212 Y74.711 E12.97243
G1 X48.447 Y74.147 E12.99275
G1 X48.698 Y73.59 E13.01307
G1 X48.983 Y73.005 E13.03472
G1 X49.295 Y72.414 E13.05694
G1 X49.645 Y71.802 E13.08039
G1 X49.989 Y71.242 E13.10225
G1 X50.327 Y70.726 E13.12277
G1 X50.697 Y70.199 E13.14419
G1 X51.095 Y69.667 E13.16628
G1 X51.52 Y69.134 E13.18896
G1 X51.939 Y68.643 E13.21043
G1 X52.376 Y68.161 E13.23206
G1 X52.82 Y67.701 E13.25333
G1 X53.32 Y67.216 E13.2765
G1 X53.837 Y66.747 E13.29971
G1 X54.346 Y66.313 E13.32196
G0 F6000 X54.596 Y66.625
G1 F1200 X55.112 Y66.212 E13.34394
G1 X55.613 Y65.835 E13.3648
G1 X56.083 Y65.504 E13.38392
G1 X56.641 Y65.136 E13.40615
G1 X57.193 Y64.798 E13.42768
G1 X57.764 Y64.472 E13.44955
G1 X58.381 Y64.145 E13.47277
G1 X58.98 Y63.852 E13.49495
G1 X59.523 Y63.608 E13.51475
G1 X60.077 Y63.377 E13.53471
G1 X60.665 Y63.153 E13.55564
G1 X61.318 Y62.928 E13.57861
G1 X61.954 Y62.732 E13.60075
G1 X62.576 Y62.562 E13.6222
G1 X63.197 Y62.412 E13.64344
G1 X63.859 Y62.275 E13.66593
G1 X64.493 Y62.165 E13.68733
G1 X65.118 Y62.076 E13.70833
G1 X65.703 Y62.011 E13.72791
G1 X66.338 Y61.96 E13.74909
G1 X67.272 Y61.919 E13.78019
G1 X68.323 Y61.902 E13.81515
G1 X117.837 Y61.9 E15.46199
G1 X120.419 Y61.863 E15.54788
G1 X124.18 Y61.683 E15.67311
G1 X125.511 Y61.703 E15.71739
G1 X127.184 Y61.834 E15.7732
G1 X130.12 Y62.106 E15.87127
G1 X132.69 Y62.272 E15.95693
G1 X135.195 Y62.364 E16.0403
G1 X137.742 Y62.385 E16.12502
G1 X140.256 Y62.335 E16.20865
G1 X142.763 Y62.213 E16.29213
G1 X146.145 Y61.944 E16.40497
G1 X147.063 Y61.916 E16.43552
G1 X147.604 Y61.923 E16.45352
G1 X148.261 Y61.953 E16.47539
G1 X148.9 Y62.002 E16.49671
G1 X149.554 Y62.073 E16.51859
G1 X150.185 Y62.162 E16.53978
G1 X150.78 Y62.264 E16.55986
G1 X151.366 Y62.382 E16.57974
G1 X152.197 Y62.577 E16.60813
G1 X152.724 Y62.723 E16.62632
G1 X153.338 Y62.916 E16.64773
G1 X153.988 Y63.139 E16.67058
G1 X154.6 Y63.369 E16.69233
G1 X155.096 Y63.575 E16.71019
G1 X155.643 Y63.82 E16.73013
G1 X156.264 Y64.12 E16.75306
G1 X156.873 Y64.44 E16.77594
G1 X157.45 Y64.767 E16.798
G1 X158.008 Y65.107 E16.81974
G1 X158.517 Y65.44 E16.83997
G1 X159.067 Y65.825 E16.8623
G1 X159.604 Y66.228 E16.88463
G1 X160.105 Y66.629 E16.90597
G1 X160.577 Y67.031 E16.92659
G1 X161.039 Y67.448 E16.94729
G1 X161.496 Y67.887 E16.96837
G1 X161.994 Y68.4 E16.99215
G1 X162.426 Y68.876 E17.01353
G1 X162.814 Y69.33 E17.03339
G1 X163.218 Y69.83 E17.05477
G1 X163.617 Y70.358 E17.07678
G1 X163.969 Y70.855 E17.09704
G1 X164.353 Y71.437 E17.12023
G1 X164.76 Y72.102 E17.14616
G1 X165.068 Y72.643 E17.16687
G1 X165.296 Y73.073 E17.18306
G1 X165.574 Y73.639 E17.20403
G1 X165.884 Y74.321 E17.22895
G1 X166.147 Y74.953 E17.25171
G1 X166.351 Y75.493 E17.27091
G1 X166.555 Y76.085 E17.29174
G1 X166.755 Y76.729 E17.31417
G1 X166.935 Y77.386 E17.33683
G1 X167.079 Y77.985 E17.35732
G1 X167.212 Y78.629 E17.37919
G1 X167.334 Y79.33 E17.40285
G1 X167.424 Y79.957 E17.42392
G1 X167.481 Y80.47 E17.44109
G1 X167.533 Y81.117 E17.46268
G1 X167.578 Y82.162 E17.49747
G1 X167.592 Y83.076 E17.52787
G1 X167.594 Y136.844 E19.3162
G1 X167.573 Y138.128 E19.35891
G1 X167.548 Y138.688 E19.37756
G1 X167.472 Y139.653 E19.40975
G1 X167.425 Y140.076 E19.42391
G1 X167.294 Y140.931 E19.45268
G1 X167.12 Y141.825 E19.48297
G1 X166.937 Y142.606 E19.50965
G1 X166.748 Y143.292 E19.53332
G1 X166.559 Y143.905 E19.55465
G1 X166.373 Y144.449 E19.57377
G1 X166.148 Y145.046 E19.59499
G1 X165.9 Y145.646 E19.61659
G1 X165.622 Y146.261 E19.63903
G1 X165.331 Y146.855 E19.66103
G1 X165.036 Y147.414 E19.68206
G1 X164.738 Y147.937 E19.70208
G1 X164.407 Y148.479 E19.7232
G1 X164.053 Y149.021 E19.74473
G1 X163.669 Y149.57 E19.76701
G1 X163.261 Y150.116 E19.78969
G1 X162.845 Y150.636 E19.81183
G1 X162.448 Y151.101 E19.83217
G1 X162.017 Y151.576 E19.8535
G1 X161.583 Y152.024 E19.87425
G1 X161.111 Y152.483 E19.89615
G1 X160.635 Y152.916 E19.91755
G1 X160.154 Y153.328 E19.93861
G1 X159.654 Y153.731 E19.95997
G1 X159.131 Y154.127 E19.98179
G1 X158.581 Y154.515 E20.00418
G1 X158.007 Y154.893 E20.02704
G1 X157.501 Y155.202 E20.04676
G1 X156.971 Y155.505 E20.06706
G1 X156.387 Y155.817 E20.08908
G1 X155.752 Y156.129 E20.11262
G1 X155.137 Y156.405 E20.13504
G1 X154.58 Y156.637 E20.15511
G1 X154.023 Y156.849 E20.17493
G1 X153.397 Y157.065 E20.19695
G1 X152.762 Y157.262 E20.21907
G1 X152.116 Y157.439 E20.24134
G1 X151.497 Y157.588 E20.26252
G1 X150.829 Y157.726 E20.28521
G1 X150.191 Y157.836 E20.30674
G1 X149.575 Y157.923 E20.32743
G1 X148.981 Y157.989 E20.34731
G1 X148.354 Y158.04 E20.36823
G1 X147.421 Y158.081 E20.39929
G1 X146.37 Y158.098 E20.43426
G1 X92.698 Y158.1 E22.21939
G1 X91.832 Y158.088 E22.2482
G1 X90.95 Y158.038 E22.27758
G1 X89.874 Y157.931 E22.31355
G1 X87.037 Y157.694 E22.40823
G1 X85.755 Y157.606 E22.45097
G1 X83.172 Y157.466 E22.53701
G1 X80.605 Y157.399 E22.62242
G1 X78.087 Y157.406 E22.70617
G1 X75.562 Y157.482 E22.79019
G1 X73.032 Y157.632 E22.87448
G1 X70.506 Y157.853 E22.95882
G1 X68.832 Y158.029 E23.0148
G1 X67.62 Y158.084 E23.05516
G1 X67.082 Y158.077 E23.07305
G1 X66.432 Y158.047 E23.09469
G1 X65.793 Y157.998 E23.11601
G1 X65.139 Y157.927 E23.13789
G1 X64.508 Y157.838 E23.15909
G1 X63.913 Y157.736 E23.17916
G1 X63.327 Y157.618 E23.19905
G1 X62.496 Y157.423 E23.22744
G1 X61.969 Y157.277 E23.24562
G1 X61.355 Y157.084 E23.26703
G1 X60.704 Y156.861 E23.28992
G1 X60.064 Y156.618 E23.31269
G1 X59.512 Y156.388 E23.33258
G1 X58.964 Y156.141 E23.35257
G1 X58.391 Y155.862 E23.37377
G1 X57.8 Y155.55 E23.39599
G1 X57.21 Y155.213 E23.41859
G1 X56.66 Y154.875 E23.44006
G1 X56.155 Y154.545 E23.46013
G1 X55.635 Y154.179 E23.48128
G1 X55.11 Y153.788 E23.50305
G1 X54.594 Y153.375 E23.52503
G1 X54.114 Y152.966 E23.54601
G1 X53.637 Y152.535 E23.56739
G1 X53.185 Y152.099 E23.58828
G1 X52.706 Y151.605 E23.61116
G1 X52.24 Y151.092 E23.63422
G1 X51.83 Y150.612 E23.65521
G1 X51.455 Y150.144 E23.67516
G1 X51.069 Y149.633 E23.69646
G1 X50.688 Y149.093 E23.71844
G1 X50.3 Y148.503 E23.74193
G1 X49.958 Y147.942 E23.76378
G1 X49.644 Y147.389 E23.78493
G1 X49.354 Y146.839 E23.80561
G1 X49.072 Y146.263 E23.82694
G1 X48.821 Y145.707 E23.84723
G1 X48.583 Y145.136 E23.8678
G1 X48.35 Y144.525 E23.88955
G1 X48.123 Y143.866 E23.91274
G1 X47.926 Y143.226 E23.93501
G1 X47.759 Y142.617 E23.95601
G1 X47.613 Y142.013 E23.97668
G1 X47.473 Y141.335 E23.99971
G1 X47.363 Y140.697 E24.02124
G1 X47.274 Y140.069 E24.04233
G1 X47.204 Y139.43 E24.06372
G1 X47.153 Y138.781 E24.08537
G1 X47.118 Y137.927 E24.1138
G1 X47.101 Y136.876 E24.14876
G1 X47.1 Y83.11 E25.93702
G1 X47.118 Y81.946 E25.97574
G1 X47.141 Y81.402 E25.99385
G1 X47.184 Y80.769 E26.01495
G1 X47.285 Y79.812 E26.04696
G1 X47.412 Y79.006 E26.0741
G1 X47.592 Y78.094 E26.10502
G1 X47.764 Y77.363 E26.12999
G1 X47.927 Y76.77 E26.15045
G1 X48.115 Y76.157 E26.17177
G1 X48.336 Y75.511 E26.19448
G1 X48.581 Y74.865 E26.21746
G1 X48.812 Y74.311 E26.23743
G1 X49.058 Y73.765 E26.25734
G1 X49.337 Y73.192 E26.27854
G1 X49.649 Y72.601 E26.30077
G1 X49.986 Y72.011 E26.32337
G1 X50.324 Y71.461 E26.34484
G1 X50.654 Y70.956 E26.3649
G1 X51.017 Y70.439 E26.38591
G1 X51.408 Y69.916 E26.40763
G1 X51.824 Y69.394 E26.42983
G1 X52.235 Y68.912 E26.4509
G1 X52.664 Y68.439 E26.47214
G1 X53.099 Y67.988 E26.49298
G1 X53.589 Y67.512 E26.5157
G1 X54.096 Y67.051 E26.53849
G1 X54.596 Y66.625 E26.56034
G0 F6000 X54.846 Y66.937
G1 F1200 X55.352 Y66.532 E26.5819
G1 X55.844 Y66.162 E26.60237
G1 X56.303 Y65.838 E26.62106
G1 X56.85 Y65.477 E26.64286
G1 X57.391 Y65.145 E26.66397
G1 X57.951 Y64.825 E26.68542
G1 X58.557 Y64.504 E26.70823
G1 X59.144 Y64.217 E26.72996
G1 X59.677 Y63.977 E26.74941
G1 X60.22 Y63.751 E26.76897
G1 X60.795 Y63.531 E26.78944
G1 X61.436 Y63.31 E26.812
G1 X62.059 Y63.118 E26.83368
G1 X62.67 Y62.951 E26.85475
G1 X63.279 Y62.804 E26.87558
G1 X63.927 Y62.669 E26.8976
G1 X64.549 Y62.561 E26.91859
G1 X65.162 Y62.474 E26.93919
G1 X65.735 Y62.41 E26.95836
G1 X66.356 Y62.36 E26.97909
G1 X67.279 Y62.319 E27.00982
G1 X68.323 Y62.302 E27.04454
G1 X117.843 Y62.3 E28.69159
G1 X120.438 Y62.263 E28.7779
G1 X124.199 Y62.083 E28.90314
G1 X125.48 Y62.102 E28.94575
G1 X127.147 Y62.232 E29.00136
G1 X130.094 Y62.505 E29.0998
G1 X132.675 Y62.672 E29.18582
G1 X135.18 Y62.764 E29.2692
G1 X137.747 Y62.785 E29.35458
G1 X140.275 Y62.735 E29.43868
G1 X142.782 Y62.613 E29.52216
G1 X146.157 Y62.344 E29.63477
G1 X147.058 Y62.316 E29.66475
G1 X147.586 Y62.323 E29.68231
G1 X148.23 Y62.352 E29.70375
G1 X148.857 Y62.4 E29.72467
G1 X149.498 Y62.469 E29.74611
G1 X150.117 Y62.556 E29.7669
G1 X150.701 Y62.656 E29.78661
G1 X151.275 Y62.771 E29.80608
G1 X152.09 Y62.962 E29.83392
G1 X152.604 Y63.105 E29.85167
G1 X153.209 Y63.295 E29.87276
G1 X153.847 Y63.513 E29.89518
G1 X154.447 Y63.739 E29.91651
G1 X154.933 Y63.94 E29.934
G1 X155.469 Y64.18 E29.95353
G1 X156.078 Y64.474 E29.97602
G1 X156.676 Y64.788 E29.99849
G1 X157.242 Y65.109 E30.02013
G1 X157.789 Y65.442 E30.04143
G1 X158.288 Y65.768 E30.06125
G1 X158.827 Y66.145 E30.08313
G1 X159.354 Y66.54 E30.10504
G1 X159.846 Y66.934 E30.126
G1 X160.309 Y67.328 E30.14622
