;FLAVOR:Marlin
;TIME:14365
;Filament used: 10.7774m
;Layer height: 0.2
;MINX:44.021
;MINY:44.02
;MINZ:0.2
;MAXX:175.979
;MAXY:175.98
;MAXZ:15.6
;TARGET_MACHINE.NAME:Creality Ender-3
;Generated with Cura_SteamEngine 5.6.0
M140 S42
M105
M190 S42
M104 S205
M105
M109 S205
M82 ;absolute extrusion mode
; Ender 3 Custom Start G-code
G92 E0 ; Reset Extruder
G28 ; Home all axes
G29 ; Auto Bed Leveling
G1 Z2.0 F3000 ; Move Z Axis up little to prevent scratching of Heat Bed
G1 X0.1 Y20 Z0.3 F5000.0 ; Move to start position
G1 X0.1 Y200.0 Z0.3 F1500.0 E15 ; Draw the first line
G1 X0.4 Y200.0 Z0.3 F5000.0 ; Move to side a little
G1 X0.4 Y20 Z0.3 F1500.0 E30 ; Draw the second line
G92 E0 ; Reset Extruder
G1 Z2.0 F3000 ; Move Z Axis up little to prevent scratching of Heat Bed
G1 X5 Y20 Z0.3 F5000.0 ; Move over to prevent blob squish
G92 E0
G92 E0
G1 F2700 E-5
;LAYER_COUNT:78
;LAYER:0
M107
G0 F6000 X63.439 Y63.253 Z0.2
;TYPE:SKIRT
G1 F2700 E0
G1 F1200 X64.495 Y62.257 E0.04828
G1 X67.206 Y59.801 E0.16995
G1 X67.729 Y59.339 E0.19316
G1 X68.23 Y58.927 E0.21473
G1 X69.241 Y58.144 E0.25726
G1 X72.333 Y55.848 E0.38536
G1 X72.901 Y55.44 E0.40862
G1 X73.439 Y55.078 E0.43018
G1 X74.684 Y54.298 E0.47905
G1 X77.976 Y52.327 E0.60667
G1 X78.431 Y52.064 E0.62415
G1 X79.011 Y51.752 E0.64605
G1 X80.277 Y51.121 E0.6931
G1 X83.621 Y49.54 E0.81612
G1 X84.268 Y49.246 E0.83976
G1 X84.866 Y48.996 E0.86132
G1 X86.208 Y48.485 E0.90908
G1 X89.643 Y47.255 E1.03043
G1 X90.351 Y47.015 E1.0553
G1 X90.972 Y46.824 E1.07691
G1 X92.37 Y46.445 E1.12508
G1 X96.474 Y45.424 E1.26574
G1 X97.236 Y45.265 E1.29163
G1 X98.466 Y45.057 E1.33312
G1 X102.306 Y44.486 E1.46225
G1 X103.018 Y44.39 E1.48614
G1 X103.669 Y44.325 E1.5079
G1 X105.095 Y44.226 E1.55545
G1 X108.864 Y44.042 E1.68095
G1 X109.457 Y44.022 E1.70069
G1 X110.125 Y44.02 E1.7229
G1 X111.589 Y44.062 E1.77162
G1 X115.238 Y44.243 E1.89313
G1 X115.93 Y44.287 E1.9162
G1 X116.595 Y44.35 E1.93841
G1 X118.058 Y44.539 E1.98748
G1 X122.207 Y45.163 E2.12702
G1 X123.001 Y45.313 E2.1539
G1 X124.403 Y45.637 E2.20176
G1 X128.493 Y46.669 E2.34206
G1 X129.264 Y46.896 E2.36879
G1 X130.655 Y47.364 E2.4176
G1 X134.618 Y48.788 E2.55766
G1 X135.37 Y49.092 E2.58464
G1 X136.492 Y49.597 E2.62557
G1 X140.486 Y51.49 E2.77257
G1 X141.206 Y51.866 E2.79959
G1 X142.309 Y52.497 E2.84185
G1 X145.594 Y54.466 E2.96924
G1 X146.215 Y54.85 E2.99352
G1 X146.771 Y55.218 E3.0157
G1 X147.933 Y56.047 E3.06317
G1 X150.876 Y58.226 E3.18497
G1 X151.421 Y58.643 E3.20779
G1 X151.944 Y59.068 E3.23021
G1 X153.078 Y60.057 E3.28025
G1 X155.74 Y62.469 E3.39973
G1 X156.267 Y62.96 E3.42369
G1 X156.751 Y63.442 E3.4464
G1 X157.586 Y64.327 E3.48687
G1 X160.304 Y67.325 E3.62147
G1 X160.775 Y67.86 E3.64517
G1 X161.212 Y68.392 E3.66807
G1 X161.711 Y69.041 E3.6953
G1 X164.465 Y72.765 E3.84935
G1 X164.915 Y73.427 E3.87598
G1 X165.705 Y74.687 E3.92544
G1 X167.604 Y77.857 E4.04834
G1 X167.928 Y78.416 E4.06983
G1 X168.243 Y79 E4.0919
G1 X168.808 Y80.133 E4.13401
G1 X170.536 Y83.787 E4.26845
G1 X170.753 Y84.265 E4.28591
G1 X171.001 Y84.858 E4.30729
G1 X171.509 Y86.19 E4.3547
G1 X172.769 Y89.712 E4.47912
G1 X173.044 Y90.521 E4.50754
G1 X173.249 Y91.199 E4.53109
G1 X173.453 Y91.97 E4.55762
G1 X174.475 Y96.051 E4.69755
G1 X174.602 Y96.588 E4.7159
G1 X174.736 Y97.256 E4.73856
G1 X174.974 Y98.659 E4.78589
G1 X175.512 Y102.296 E4.90817
G1 X175.608 Y103.003 E4.93191
G1 X175.676 Y103.679 E4.9545
G1 X175.773 Y105.094 E5.00168
G1 X175.951 Y108.72 E5.12242
G1 X175.976 Y109.434 E5.14619
G1 X175.979 Y110.113 E5.16877
G1 X175.936 Y111.603 E5.21835
G1 X175.757 Y115.203 E5.33823
G1 X175.711 Y115.94 E5.36279
G1 X175.648 Y116.603 E5.38494
G1 X175.468 Y118.011 E5.43215
G1 X174.84 Y122.195 E5.57287
G1 X174.688 Y122.998 E5.60006
G1 X174.404 Y124.233 E5.6422
G1 X173.422 Y128.148 E5.77645
G1 X173.289 Y128.647 E5.79363
G1 X173.102 Y129.268 E5.8152
G1 X172.639 Y130.642 E5.86342
G1 X171.215 Y134.607 E6.00355
G1 X170.913 Y135.354 E6.03034
G1 X170.295 Y136.727 E6.08042
G1 X168.499 Y140.507 E6.21962
G1 X168.124 Y141.223 E6.2465
G1 X167.411 Y142.465 E6.29413
G1 X165.521 Y145.621 E6.41648
G1 X165.184 Y146.168 E6.43785
G1 X164.795 Y146.753 E6.46122
G1 X163.937 Y147.957 E6.51039
G1 X161.695 Y150.98 E6.63557
G1 X161.343 Y151.44 E6.65484
G1 X160.92 Y151.957 E6.67705
G1 X160.113 Y152.886 E6.71798
G1 X157.401 Y155.879 E6.85232
G1 X157.035 Y156.271 E6.87016
G1 X156.572 Y156.738 E6.89203
G1 X155.681 Y157.58 E6.9328
G1 X152.668 Y160.312 E7.06808
G1 X152.266 Y160.666 E7.08589
G1 X151.754 Y161.087 E7.10794
G1 X150.619 Y161.962 E7.15561
G1 X147.503 Y164.272 E7.28462
G1 X147.083 Y164.572 E7.30178
G1 X146.564 Y164.921 E7.32259
G1 X145.511 Y165.583 E7.36396
G1 X142.035 Y167.667 E7.49875
G1 X141.561 Y167.941 E7.51696
G1 X141.001 Y168.242 E7.53811
G1 X139.68 Y168.901 E7.58721
G1 X136.448 Y170.428 E7.7061
G1 X135.73 Y170.755 E7.73234
G1 X135.116 Y171.012 E7.75448
G1 X133.797 Y171.514 E7.80142
G1 X130.297 Y172.766 E7.92505
G1 X129.656 Y172.985 E7.94758
G1 X129.037 Y173.173 E7.9691
G1 X127.621 Y173.557 E8.0179
G1 X123.532 Y174.575 E8.15805
G1 X122.776 Y174.733 E8.18374
G1 X121.342 Y174.975 E8.23211
G1 X117.703 Y175.513 E8.35446
G1 X116.993 Y175.609 E8.37829
G1 X116.321 Y175.677 E8.40075
G1 X114.907 Y175.774 E8.44789
G1 X111.282 Y175.952 E8.5686
G1 X110.542 Y175.978 E8.59323
G1 X109.871 Y175.98 E8.61555
G1 X108.397 Y175.937 E8.6646
G1 X104.803 Y175.759 E8.78428
G1 X104.063 Y175.712 E8.80894
G1 X103.4 Y175.649 E8.83109
G1 X101.956 Y175.463 E8.87952
G1 X97.796 Y174.838 E9.01943
G1 X96.997 Y174.687 E9.04648
G1 X95.593 Y174.362 E9.09441
G1 X91.886 Y173.432 E9.22153
G1 X91.349 Y173.289 E9.24001
G1 X90.733 Y173.103 E9.26141
G1 X89.572 Y172.716 E9.30211
G1 X85.378 Y171.21 E9.45033
G1 X84.62 Y170.905 E9.4775
G1 X83.506 Y170.405 E9.51812
G1 X79.887 Y168.693 E9.65127
G1 X79.371 Y168.439 E9.6704
G1 X78.775 Y168.123 E9.69284
G1 X77.73 Y167.527 E9.73285
G1 X73.927 Y165.242 E9.88042
G1 X73.246 Y164.795 E9.90751
G1 X72.027 Y163.925 E9.95732
G1 X69.139 Y161.783 E10.07691
G1 X68.563 Y161.345 E10.10098
G1 X68.04 Y160.919 E10.12342
G1 X66.944 Y159.963 E10.17179
G1 X64.26 Y157.531 E10.29225
G1 X63.735 Y157.042 E10.31612
G1 X63.253 Y156.561 E10.33876
G1 X62.257 Y155.505 E10.38705
G1 X59.801 Y152.795 E10.50869
G1 X59.331 Y152.262 E10.53232
G1 X58.921 Y151.763 E10.5538
G1 X58.033 Y150.614 E10.6021
G1 X55.737 Y147.517 E10.73033
G1 X55.431 Y147.09 E10.7478
G1 X55.071 Y146.555 E10.76925
G1 X54.432 Y145.538 E10.8092
G1 X52.325 Y142.022 E10.94553
G1 X52.061 Y141.565 E10.96308
G1 X51.75 Y140.987 E10.98491
G1 X51.12 Y139.723 E11.03189
G1 X49.539 Y136.379 E11.15491
G1 X49.252 Y135.749 E11.17794
G1 X48.992 Y135.127 E11.20036
G1 X48.476 Y133.77 E11.24865
G1 X47.178 Y130.138 E11.37693
G1 X47.013 Y129.651 E11.39403
G1 X46.828 Y129.042 E11.4152
G1 X46.502 Y127.846 E11.45643
G1 X45.526 Y123.955 E11.58986
G1 X45.396 Y123.404 E11.60869
G1 X45.262 Y122.736 E11.63135
G1 X45.026 Y121.341 E11.67841
G1 X44.488 Y117.703 E11.80072
G1 X44.391 Y116.981 E11.82495
G1 X44.326 Y116.338 E11.84645
G1 X44.226 Y114.9 E11.89439
G1 X44.047 Y111.239 E12.0163
G1 X44.023 Y110.534 E12.03976
G1 X44.021 Y109.873 E12.06175
G1 X44.064 Y108.399 E12.1108
G1 X44.242 Y104.804 E12.23051
G1 X44.29 Y104.048 E12.25571
G1 X44.353 Y103.389 E12.27773
G1 X44.537 Y101.959 E12.32568
G1 X45.163 Y97.785 E12.46606
G1 X45.316 Y96.982 E12.49325
G1 X45.629 Y95.629 E12.53944
G1 X46.54 Y91.99 E12.66421
G1 X46.708 Y91.36 E12.68589
G1 X46.893 Y90.744 E12.70728
G1 X47.361 Y89.352 E12.75613
G1 X48.788 Y85.379 E12.89654
G1 X49.095 Y84.622 E12.92371
G1 X49.679 Y83.325 E12.97102
G1 X51.558 Y79.373 E13.11656
G1 X51.861 Y78.8 E13.13812
G1 X52.472 Y77.731 E13.17907
G1 X54.758 Y73.927 E13.32668
G1 X55.205 Y73.246 E13.35378
G1 X56.075 Y72.027 E13.40359
G1 X58.217 Y69.138 E13.52321
G1 X58.651 Y68.569 E13.54701
G1 X59.081 Y68.04 E13.56968
G1 X60.037 Y66.944 E13.61805
G1 X62.469 Y64.26 E13.73852
G1 X62.958 Y63.735 E13.76238
G1 X63.439 Y63.253 E13.78503
G0 F6000 X63.713 Y63.544
G1 F1200 X64.764 Y62.553 E13.83308
G1 X67.47 Y60.101 E13.95453
G1 X67.984 Y59.648 E13.97732
G1 X68.475 Y59.243 E13.99849
G1 X69.479 Y58.465 E14.04073
G1 X72.566 Y56.173 E14.16861
G1 X73.124 Y55.772 E14.19147
G1 X73.651 Y55.417 E14.2126
G1 X74.89 Y54.641 E14.26123
G1 X78.176 Y52.673 E14.38862
G1 X78.62 Y52.416 E14.40569
G1 X79.189 Y52.11 E14.42717
G1 X80.448 Y51.483 E14.47395
G1 X83.787 Y49.904 E14.5968
G1 X84.422 Y49.615 E14.62001
G1 X85.008 Y49.37 E14.64113
G1 X86.343 Y48.862 E14.68864
G1 X89.772 Y47.634 E14.80978
G1 X90.469 Y47.397 E14.83427
G1 X91.077 Y47.21 E14.85542
G1 X92.467 Y46.833 E14.90333
G1 X96.556 Y45.816 E15.04347
G1 X97.318 Y45.657 E15.06936
G1 X98.525 Y45.453 E15.11007
G1 X102.359 Y44.882 E15.239
G1 X103.058 Y44.788 E15.26246
G1 X103.697 Y44.724 E15.28382
G1 X105.115 Y44.626 E15.33109
G1 X108.878 Y44.442 E15.4564
G1 X109.458 Y44.422 E15.4757
G1 X110.113 Y44.42 E15.49749
G1 X111.569 Y44.462 E15.54594
G1 X115.213 Y44.642 E15.66728
G1 X115.892 Y44.685 E15.68991
G1 X116.544 Y44.747 E15.7117
G1 X117.999 Y44.935 E15.76049
G1 X122.133 Y45.556 E15.89953
G1 X122.911 Y45.703 E15.92587
G1 X124.305 Y46.025 E15.97345
G1 X128.38 Y47.053 E16.11323
G1 X129.137 Y47.275 E16.13947
G1 X130.52 Y47.74 E16.188
G1 X134.468 Y49.159 E16.32753
G1 X135.206 Y49.457 E16.35401
G1 X136.321 Y49.958 E16.39466
G1 X140.301 Y51.844 E16.54115
G1 X141.007 Y52.213 E16.56764
G1 X142.103 Y52.84 E16.60964
G1 X145.384 Y54.806 E16.73686
G1 X145.994 Y55.183 E16.76071
G1 X146.539 Y55.544 E16.78245
G1 X147.695 Y56.368 E16.82967
G1 X150.633 Y58.544 E16.95127
G1 X151.169 Y58.954 E16.97372
G1 X151.681 Y59.369 E16.99564
G1 X152.809 Y60.353 E17.04542
G1 X155.467 Y62.762 E17.16473
G1 X155.994 Y63.253 E17.18869
G1 X156.46 Y63.717 E17.21056
G1 X157.29 Y64.596 E17.25077
G1 X160.004 Y67.589 E17.38515
G1 X160.466 Y68.114 E17.40841
G1 X160.895 Y68.636 E17.43089
G1 X161.389 Y69.279 E17.45785
G1 X164.134 Y72.99 E17.61138
G1 X164.576 Y73.639 E17.6375
G1 X165.362 Y74.893 E17.68672
G1 X167.258 Y78.058 E17.80943
G1 X167.576 Y78.606 E17.83051
G1 X167.885 Y79.179 E17.85216
G1 X168.446 Y80.304 E17.89397
G1 X170.172 Y83.952 E18.0282
G1 X170.384 Y84.419 E18.04526
G1 X170.627 Y85.001 E18.06623
G1 X171.132 Y86.325 E18.11336
G1 X172.39 Y89.841 E18.23757
G1 X172.661 Y90.637 E18.26553
G1 X172.862 Y91.302 E18.28864
G1 X173.065 Y92.067 E18.31496
G1 X174.086 Y96.143 E18.45472
G1 X174.21 Y96.667 E18.47263
G1 X174.342 Y97.323 E18.49489
G1 X174.578 Y98.718 E18.54194
G1 X175.116 Y102.35 E18.66406
G1 X175.21 Y103.043 E18.68732
G1 X175.277 Y103.706 E18.70949
G1 X175.373 Y105.114 E18.75643
G1 X175.551 Y108.734 E18.87697
G1 X175.576 Y109.436 E18.90034
G1 X175.579 Y110.101 E18.92245
G1 X175.536 Y111.583 E18.97177
G1 X175.358 Y115.178 E19.09148
G1 X175.313 Y115.902 E19.11561
G1 X175.251 Y116.552 E19.13733
G1 X175.072 Y117.952 E19.18427
G1 X174.447 Y122.121 E19.32448
G1 X174.298 Y122.908 E19.35112
G1 X174.016 Y124.136 E19.39303
G1 X173.036 Y128.045 E19.52707
G1 X172.906 Y128.532 E19.54383
G1 X172.723 Y129.14 E19.56495
G1 X172.263 Y130.507 E19.61292
G1 X170.844 Y134.457 E19.75252
G1 X170.548 Y135.19 E19.77881
G1 X169.934 Y136.555 E19.82859
G1 X168.145 Y140.321 E19.96727
G1 X167.777 Y141.024 E19.99366
G1 X167.068 Y142.259 E20.04102
G1 X165.18 Y145.411 E20.16323
G1 X164.843 Y145.958 E20.18459
G1 X164.469 Y146.521 E20.20708
G1 X163.616 Y147.719 E20.25599
G1 X161.377 Y150.737 E20.38098
G1 X161.033 Y151.187 E20.39982
G1 X160.618 Y151.695 E20.42163
G1 X159.817 Y152.617 E20.46225
G1 X157.108 Y155.606 E20.59642
G1 X156.751 Y155.989 E20.61384
G1 X156.297 Y156.447 E20.63529
G1 X155.412 Y157.284 E20.6758
G1 X152.403 Y160.012 E20.81089
G1 X152.012 Y160.357 E20.82823
G1 X151.51 Y160.77 E20.84985
G1 X150.381 Y161.641 E20.89728
G1 X147.27 Y163.947 E21.02608
G1 X146.86 Y164.24 E21.04284
G1 X146.351 Y164.582 E21.06324
G1 X145.305 Y165.24 E21.10434
G1 X141.835 Y167.321 E21.23891
G1 X141.371 Y167.589 E21.25674
G1 X140.823 Y167.884 E21.27744
G1 X139.509 Y168.539 E21.32627
G1 X136.282 Y170.064 E21.44498
G1 X135.576 Y170.386 E21.47079
G1 X134.974 Y170.638 E21.49249
G1 X133.662 Y171.137 E21.53918
G1 X130.162 Y172.389 E21.66282
G1 X129.539 Y172.602 E21.68471
G1 X128.932 Y172.787 E21.70582
G1 X127.524 Y173.169 E21.75434
G1 X123.45 Y174.183 E21.89398
G1 X122.694 Y174.341 E21.91967
G1 X121.283 Y174.579 E21.96726
G1 X117.65 Y175.117 E22.08941
G1 X116.953 Y175.211 E22.1128
G1 X116.294 Y175.278 E22.13484
G1 X114.887 Y175.374 E22.18174
G1 X111.268 Y175.552 E22.30226
G1 X110.541 Y175.578 E22.32645
G1 X109.883 Y175.58 E22.34834
G1 X108.417 Y175.537 E22.39712
G1 X104.828 Y175.36 E22.51663
G1 X104.101 Y175.314 E22.54086
G1 X103.451 Y175.252 E22.56258
G1 X102.015 Y175.067 E22.61073
G1 X97.87 Y174.445 E22.75014
G1 X97.087 Y174.297 E22.77664
G1 X95.69 Y173.974 E22.82433
G1 X91.989 Y173.046 E22.95124
G1 X91.464 Y172.906 E22.96931
G1 X90.859 Y172.724 E22.99033
G1 X89.707 Y172.34 E23.03071
G1 X85.527 Y170.839 E23.17843
G1 X84.784 Y170.54 E23.20507
G1 X83.677 Y170.043 E23.24543
G1 X80.063 Y168.334 E23.3784
G1 X79.558 Y168.086 E23.39711
G1 X78.973 Y167.776 E23.41913
G1 X77.936 Y167.184 E23.45884
G1 X74.146 Y164.907 E23.6059
G1 X73.478 Y164.469 E23.63247
G1 X72.265 Y163.604 E23.68202
G1 X69.381 Y161.465 E23.80145
G1 X68.816 Y161.035 E23.82506
G1 X68.303 Y160.617 E23.84707
G1 X67.213 Y159.667 E23.89516
G1 X64.533 Y157.238 E24.01546
G1 X64.008 Y156.749 E24.03932
G1 X63.544 Y156.287 E24.0611
G1 X62.553 Y155.236 E24.10915
G1 X60.101 Y152.53 E24.2306
G1 X59.64 Y152.008 E24.25377
G1 X59.237 Y151.518 E24.27487
G1 X58.354 Y150.376 E24.32288
G1 X56.062 Y147.284 E24.45089
G1 X55.763 Y146.867 E24.46796
G1 X55.41 Y146.342 E24.489
G1 X54.775 Y145.332 E24.52868
G1 X52.671 Y141.822 E24.66479
G1 X52.413 Y141.376 E24.68193
G1 X52.108 Y140.809 E24.70334
G1 X51.482 Y139.552 E24.75005
G1 X49.903 Y136.213 E24.8729
G1 X49.621 Y135.595 E24.89549
G1 X49.366 Y134.985 E24.91748
G1 X48.853 Y133.635 E24.96551
G1 X47.557 Y130.009 E25.09359
G1 X47.396 Y129.535 E25.11024
G1 X47.211 Y128.926 E25.13141
G1 X46.89 Y127.749 E25.17198
G1 X45.915 Y123.863 E25.30524
G1 X45.788 Y123.325 E25.32362
G1 X45.656 Y122.67 E25.34585
G1 X45.422 Y121.282 E25.39266
G1 X44.884 Y117.65 E25.51478
G1 X44.789 Y116.941 E25.53858
G1 X44.725 Y116.31 E25.55967
G1 X44.626 Y114.88 E25.60735
G1 X44.447 Y111.225 E25.72906
G1 X44.423 Y110.533 E25.75209
G1 X44.421 Y109.885 E25.77364
G1 X44.464 Y108.419 E25.82242
G1 X44.641 Y104.829 E25.94197
G1 X44.688 Y104.086 E25.96673
G1 X44.75 Y103.44 E25.98832
G1 X44.933 Y102.018 E26.036
G1 X45.556 Y97.86 E26.17584
G1 X45.706 Y97.072 E26.20252
G1 X46.017 Y95.726 E26.24847
G1 X46.926 Y92.093 E26.37303
G1 X47.091 Y91.475 E26.3943
G1 X47.272 Y90.871 E26.41527
G1 X47.737 Y89.487 E26.46383
G1 X49.159 Y85.529 E26.60372
G1 X49.46 Y84.786 E26.63038
G1 X50.041 Y83.496 E26.67744
G1 X51.666 Y80.063 E26.80376
G1 X51.912 Y79.56 E26.82239
G1 X52.215 Y78.987 E26.84395
G1 X52.815 Y77.937 E26.88417
G1 X55.093 Y74.146 E27.03127
G1 X55.531 Y73.478 E27.05784
G1 X56.396 Y72.265 E27.10739
G1 X58.535 Y69.381 E27.22682
G1 X58.962 Y68.821 E27.25024
G1 X59.382 Y68.303 E27.27242
G1 X60.333 Y67.213 E27.32053
G1 X62.762 Y64.533 E27.44083
G1 X63.251 Y64.008 E27.4647
G1 X63.713 Y63.544 E27.48647
G0 F6000 X63.988 Y63.835
G1 F1200 X65.033 Y62.849 E27.53426
G1 X67.734 Y60.401 E27.6555
G1 X68.239 Y59.956 E27.67789
G1 X68.72 Y59.559 E27.69863
G1 X69.717 Y58.786 E27.74059
G1 X72.8 Y56.498 E27.86829
G1 X73.347 Y56.104 E27.89071
G1 X73.864 Y55.756 E27.91144
G1 X75.095 Y54.984 E27.95976
G1 X78.377 Y53.019 E28.08699
G1 X78.81 Y52.768 E28.10364
G1 X79.367 Y52.468 E28.12468
G1 X80.619 Y51.845 E28.17119
G1 X83.953 Y50.268 E28.29386
G1 X84.576 Y49.984 E28.31664
G1 X85.15 Y49.744 E28.33733
G1 X86.478 Y49.239 E28.38458
G1 X89.901 Y48.013 E28.50552
G1 X90.587 Y47.779 E28.52962
G1 X91.182 Y47.596 E28.55033
G1 X92.563 Y47.221 E28.59792
G1 X96.638 Y46.208 E28.73758
G1 X97.4 Y46.049 E28.76347
G1 X98.584 Y45.849 E28.80341
G1 X102.412 Y45.278 E28.93214
G1 X103.098 Y45.186 E28.95516
G1 X103.724 Y45.123 E28.97609
G1 X105.135 Y45.026 E29.02313
G1 X108.892 Y44.842 E29.14824
G1 X109.459 Y44.822 E29.16711
G1 X110.101 Y44.82 E29.18846
