;FLAVOR:Marlin
;TIME:8052
;Filament used: 5.13147m
;Layer height: 0.2
;MINX:44.021
;MINY:44.021
;MINZ:0.2
;MAXX:175.979
;MAXY:175.98
;MAXZ:14.4
;TARGET_MACHINE.NAME:Creality Ender-3
;Generated with Cura_SteamEngine 5.6.0
M140 S42
M105
M190 S42
M104 S205
M105
M109 S205
M82 ;absolute extrusion mode
; Ender 3 Custom Start G-code
G92 E0 ; Reset Extruder
G28 ; Home all axes
G29 ; Auto Bed Leveling
G1 Z2.0 F3000 ; Move Z Axis up little to prevent scratching of Heat Bed
G1 X0.1 Y20 Z0.3 F5000.0 ; Move to start position
G1 X0.1 Y200.0 Z0.3 F1500.0 E15 ; Draw the first line
G1 X0.4 Y200.0 Z0.3 F5000.0 ; Move to side a little
G1 X0.4 Y20 Z0.3 F1500.0 E30 ; Draw the second line
G92 E0 ; Reset Extruder
G1 Z2.0 F3000 ; Move Z Axis up little to prevent scratching of Heat Bed
G1 X5 Y20 Z0.3 F5000.0 ; Move over to prevent blob squish
G92 E0
G92 E0
G1 F2700 E-5
;LAYER_COUNT:72
;LAYER:0
M107
G0 F6000 X63.439 Y63.254 Z0.2
;TYPE:SKIRT
G1 F2700 E0
G1 F1200 X64.495 Y62.258 E0.04828
G1 X67.205 Y59.802 E0.16992
G1 X67.738 Y59.332 E0.19356
G1 X68.237 Y58.922 E0.21504
G1 X69.386 Y58.034 E0.26334
G1 X72.353 Y55.833 E0.38621
G1 X72.913 Y55.431 E0.40914
G1 X73.444 Y55.073 E0.43044
G1 X74.466 Y54.431 E0.47058
G1 X77.96 Y52.336 E0.60608
G1 X78.423 Y52.069 E0.62386
G1 X79.005 Y51.756 E0.64584
G1 X80.311 Y51.105 E0.69437
G1 X83.607 Y49.547 E0.81563
G1 X84.266 Y49.247 E0.83971
G1 X84.871 Y48.994 E0.86152
G1 X86.19 Y48.491 E0.90847
G1 X89.71 Y47.233 E1.0328
G1 X90.33 Y47.02 E1.0546
G1 X90.963 Y46.828 E1.07661
G1 X92.4 Y46.439 E1.12612
G1 X96.46 Y45.429 E1.26527
G1 X97.23 Y45.268 E1.29144
G1 X98.685 Y45.022 E1.34052
G1 X102.297 Y44.488 E1.46196
G1 X103.007 Y44.392 E1.48579
G1 X103.679 Y44.324 E1.50825
G1 X105.093 Y44.227 E1.55539
G1 X108.718 Y44.049 E1.67611
G1 X109.458 Y44.023 E1.70073
G1 X110.129 Y44.021 E1.72305
G1 X111.603 Y44.064 E1.7721
G1 X115.197 Y44.242 E1.89178
G1 X115.937 Y44.289 E1.91644
G1 X116.6 Y44.352 E1.93859
G1 X118.041 Y44.537 E1.98692
G1 X122.197 Y45.16 E2.12669
G1 X123.001 Y45.313 E2.15391
G1 X124.431 Y45.644 E2.20273
G1 X128.148 Y46.578 E2.3302
G1 X128.647 Y46.711 E2.34738
G1 X129.268 Y46.898 E2.36895
G1 X130.639 Y47.36 E2.41707
G1 X134.619 Y48.79 E2.55773
G1 X135.379 Y49.096 E2.58498
G1 X136.493 Y49.596 E2.62559
G1 X140.112 Y51.308 E2.75875
G1 X140.626 Y51.56 E2.77779
G1 X141.223 Y51.876 E2.80025
G1 X142.466 Y52.589 E2.84791
G1 X146.052 Y54.746 E2.9871
G1 X146.752 Y55.205 E3.01494
G1 X147.789 Y55.943 E3.05727
G1 X150.985 Y58.31 E3.18955
G1 X151.585 Y58.769 E3.21468
G1 X152.165 Y59.245 E3.23963
G1 X152.768 Y59.779 E3.26642
G1 X156.262 Y62.957 E3.42351
G1 X156.746 Y63.439 E3.44623
G1 X157.731 Y64.483 E3.49397
G1 X160.214 Y67.224 E3.61698
G1 X160.671 Y67.742 E3.63996
G1 X161.079 Y68.237 E3.66129
G1 X161.959 Y69.376 E3.70917
G1 X164.278 Y72.505 E3.8387
G1 X164.571 Y72.915 E3.85546
G1 X164.922 Y73.438 E3.87641
G1 X165.699 Y74.677 E3.92506
G1 X167.587 Y77.829 E4.04726
G1 X167.941 Y78.44 E4.07075
G1 X168.248 Y79.01 E4.09228
G1 X168.785 Y80.085 E4.13225
G1 X170.52 Y83.751 E4.26714
G1 X170.742 Y84.239 E4.28498
G1 X171 Y84.856 E4.30722
G1 X171.53 Y86.248 E4.35676
G1 X172.752 Y89.668 E4.47755
G1 X172.977 Y90.329 E4.50078
G1 X173.175 Y90.973 E4.52318
G1 X173.554 Y92.372 E4.57139
G1 X174.602 Y96.588 E4.71588
G1 X174.736 Y97.256 E4.73855
G1 X174.974 Y98.659 E4.78588
G1 X175.512 Y102.298 E4.90823
G1 X175.608 Y103.012 E4.93219
G1 X175.674 Y103.663 E4.95395
G1 X175.774 Y105.103 E5.00196
G1 X175.957 Y108.863 E5.12717
G1 X175.977 Y109.453 E5.1468
G1 X175.979 Y110.126 E5.16918
G1 X175.936 Y111.605 E5.2184
G1 X175.758 Y115.195 E5.33795
G1 X175.71 Y115.95 E5.36311
G1 X175.649 Y116.598 E5.38476
G1 X175.465 Y118.029 E5.43275
G1 X174.837 Y122.206 E5.57323
G1 X174.686 Y123.004 E5.60025
G1 X174.361 Y124.408 E5.64818
G1 X173.472 Y127.96 E5.76996
G1 X173.29 Y128.642 E5.79344
G1 X173.102 Y129.267 E5.81515
G1 X172.625 Y130.685 E5.86491
G1 X171.21 Y134.621 E6.00402
G1 X170.906 Y135.373 E6.031
G1 X170.293 Y136.731 E6.08056
G1 X168.501 Y140.502 E6.21942
G1 X168.129 Y141.214 E6.24614
G1 X167.389 Y142.504 E6.2956
G1 X165.231 Y146.09 E6.43481
G1 X164.791 Y146.761 E6.46149
G1 X164.067 Y147.779 E6.50304
G1 X161.691 Y150.985 E6.63577
G1 X161.354 Y151.426 E6.65423
G1 X160.924 Y151.953 E6.67685
G1 X159.955 Y153.064 E6.72588
G1 X157.503 Y155.771 E6.84736
G1 X157.042 Y156.265 E6.86983
G1 X156.575 Y156.736 E6.89189
G1 X155.67 Y157.591 E6.9333
G1 X152.661 Y160.318 E7.06837
G1 X152.261 Y160.668 E7.08605
G1 X151.771 Y161.071 E7.10715
G1 X150.583 Y161.989 E7.15708
G1 X147.538 Y164.248 E7.28319
G1 X147.1 Y164.562 E7.30111
G1 X146.548 Y164.932 E7.32321
G1 X145.339 Y165.689 E7.37066
G1 X142.029 Y167.671 E7.49898
G1 X141.566 Y167.938 E7.51675
G1 X140.993 Y168.246 E7.53839
G1 X139.684 Y168.898 E7.58703
G1 X136.306 Y170.494 E7.71129
G1 X135.746 Y170.749 E7.73176
G1 X135.128 Y171.008 E7.75404
G1 X133.973 Y171.449 E7.79516
G1 X130.356 Y172.745 E7.92296
G1 X129.665 Y172.981 E7.94724
G1 X129.032 Y173.175 E7.96926
G1 X127.827 Y173.504 E8.01081
G1 X123.955 Y174.475 E8.14358
G1 X123.404 Y174.605 E8.16241
G1 X122.736 Y174.739 E8.18507
G1 X121.341 Y174.975 E8.23213
G1 X117.703 Y175.513 E8.35444
G1 X116.993 Y175.609 E8.37827
G1 X116.321 Y175.677 E8.40074
G1 X114.907 Y175.774 E8.44788
G1 X111.282 Y175.952 E8.56859
G1 X110.542 Y175.978 E8.59322
G1 X109.871 Y175.98 E8.61554
G1 X108.397 Y175.937 E8.66458
G1 X104.803 Y175.759 E8.78426
G1 X104.063 Y175.712 E8.80893
G1 X103.4 Y175.649 E8.83108
G1 X101.958 Y175.464 E8.87943
G1 X97.792 Y174.839 E9.01954
G1 X96.988 Y174.686 E9.04677
G1 X95.588 Y174.362 E9.09456
G1 X91.507 Y173.333 E9.23454
G1 X90.735 Y173.105 E9.26132
G1 X89.34 Y172.635 E9.31028
G1 X85.371 Y171.208 E9.45056
G1 X84.626 Y170.907 E9.47728
G1 X83.498 Y170.4 E9.51842
G1 X79.497 Y168.503 E9.66569
G1 X78.773 Y168.124 E9.69287
G1 X77.52 Y167.404 E9.74094
G1 X73.931 Y165.246 E9.88022
G1 X73.239 Y164.792 E9.90775
G1 X72.053 Y163.945 E9.95622
G1 X69.018 Y161.694 E10.0819
G1 X68.557 Y161.341 E10.10121
G1 X68.041 Y160.919 E10.12339
G1 X66.954 Y159.971 E10.17136
G1 X64.114 Y157.395 E10.29888
G1 X63.727 Y157.033 E10.31651
G1 X63.269 Y156.577 E10.33801
G1 X62.251 Y155.498 E10.38734
G1 X59.697 Y152.679 E10.51386
G1 X59.338 Y152.271 E10.53194
G1 X58.922 Y151.765 E10.55373
G1 X58.149 Y150.766 E10.59574
G1 X55.743 Y147.525 E10.72999
G1 X55.428 Y147.084 E10.74802
G1 X55.071 Y146.551 E10.76935
G1 X54.311 Y145.339 E10.81693
G1 X52.33 Y142.034 E10.94509
G1 X52.061 Y141.567 E10.96302
G1 X51.757 Y141 E10.98442
G1 X51.099 Y139.681 E11.03344
G1 X49.572 Y136.449 E11.15233
G1 X49.25 Y135.742 E11.17817
G1 X48.992 Y135.125 E11.20041
G1 X48.466 Y133.744 E11.24957
G1 X47.253 Y130.347 E11.36954
G1 X47.025 Y129.683 E11.39289
G1 X46.825 Y129.034 E11.41548
G1 X46.44 Y127.614 E11.46441
G1 X45.522 Y123.942 E11.5903
G1 X45.399 Y123.42 E11.60814
G1 X45.267 Y122.761 E11.63049
G1 X45.018 Y121.288 E11.68018
G1 X44.474 Y117.597 E11.80427
G1 X44.393 Y116.995 E11.82447
G1 X44.326 Y116.331 E11.84667
G1 X44.225 Y114.874 E11.89524
G1 X44.043 Y111.135 E12.01975
G1 X44.023 Y110.547 E12.03932
G1 X44.021 Y109.871 E12.0618
G1 X44.064 Y108.397 E12.11085
G1 X44.243 Y104.798 E12.2307
G1 X44.288 Y104.077 E12.25473
G1 X44.351 Y103.412 E12.27694
G1 X44.539 Y101.945 E12.32614
G1 X45.066 Y98.389 E12.4457
G1 X45.18 Y97.682 E12.46952
G1 X45.312 Y97.005 E12.49246
G1 X45.648 Y95.55 E12.54213
G1 X46.571 Y91.872 E12.66825
G1 X46.707 Y91.361 E12.68584
G1 X46.895 Y90.741 E12.70739
G1 X47.374 Y89.311 E12.75755
G1 X48.63 Y85.803 E12.88148
G1 X48.832 Y85.262 E12.90068
G1 X49.096 Y84.618 E12.92383
G1 X49.595 Y83.509 E12.96428
G1 X51.496 Y79.502 E13.11179
G1 X51.87 Y78.787 E13.13863
G1 X52.607 Y77.504 E13.18784
G1 X54.758 Y73.93 E13.32658
G1 X55.219 Y73.227 E13.35454
G1 X56.056 Y72.054 E13.40247
G1 X58.224 Y69.128 E13.52359
G1 X58.654 Y68.565 E13.54716
G1 X59.07 Y68.056 E13.56902
G1 X59.912 Y67.087 E13.61172
G1 X62.469 Y64.261 E13.73847
G1 X62.958 Y63.736 E13.76234
G1 X63.439 Y63.254 E13.78499
G0 F6000 X63.713 Y63.545
G1 F1200 X64.764 Y62.554 E13.83303
G1 X67.47 Y60.102 E13.95449
G1 X67.992 Y59.641 E13.97765
G1 X68.482 Y59.238 E13.99875
G1 X69.624 Y58.355 E14.04676
G1 X72.586 Y56.158 E14.16942
G1 X73.136 Y55.763 E14.19194
G1 X73.657 Y55.412 E14.21284
G1 X74.672 Y54.774 E14.25271
G1 X78.16 Y52.682 E14.38799
G1 X78.612 Y52.421 E14.40535
G1 X79.183 Y52.114 E14.42691
G1 X80.482 Y51.467 E14.47518
G1 X83.773 Y49.911 E14.59626
G1 X84.42 Y49.616 E14.61991
G1 X85.013 Y49.368 E14.64129
G1 X86.325 Y48.868 E14.68798
G1 X89.84 Y47.611 E14.81214
G1 X90.446 Y47.403 E14.83345
G1 X91.067 Y47.214 E14.85504
G1 X92.497 Y46.827 E14.90432
G1 X96.542 Y45.821 E15.04295
G1 X97.312 Y45.66 E15.06912
G1 X98.744 Y45.418 E15.11742
G1 X102.351 Y44.884 E15.2387
G1 X103.047 Y44.79 E15.26206
G1 X103.706 Y44.723 E15.28409
G1 X105.113 Y44.627 E15.33099
G1 X108.732 Y44.449 E15.45151
G1 X109.459 Y44.423 E15.4757
G1 X110.117 Y44.421 E15.49759
G1 X111.583 Y44.464 E15.54637
G1 X115.172 Y44.641 E15.66589
G1 X115.899 Y44.687 E15.69011
G1 X116.549 Y44.749 E15.71183
G1 X117.982 Y44.933 E15.75988
G1 X122.122 Y45.553 E15.89912
G1 X122.911 Y45.703 E15.92583
G1 X124.334 Y46.032 E15.97441
G1 X128.045 Y46.964 E16.10167
G1 X128.532 Y47.094 E16.11843
G1 X129.14 Y47.277 E16.13955
G1 X130.504 Y47.736 E16.18742
G1 X134.47 Y49.161 E16.32758
G1 X135.215 Y49.461 E16.3543
G1 X136.322 Y49.958 E16.39466
G1 X139.936 Y51.667 E16.52762
G1 X140.439 Y51.913 E16.54624
G1 X141.024 Y52.223 E16.56826
G1 X142.26 Y52.932 E16.61566
G1 X145.846 Y55.089 E16.75484
G1 X146.52 Y55.531 E16.78165
G1 X147.551 Y56.264 E16.82372
G1 X150.742 Y58.628 E16.95581
G1 X151.331 Y59.078 E16.98046
G1 X151.9 Y59.545 E17.00494
G1 X152.499 Y60.075 E17.03155
G1 X155.98 Y63.241 E17.18805
G1 X156.455 Y63.713 E17.21032
G1 X157.435 Y64.752 E17.25783
G1 X159.914 Y67.488 E17.38062
G1 X160.362 Y67.997 E17.40318
G1 X160.762 Y68.482 E17.42409
G1 X161.642 Y69.621 E17.47196
G1 X163.953 Y72.738 E17.60102
G1 X164.239 Y73.138 E17.61737
G1 X164.583 Y73.65 E17.63789
G1 X165.356 Y74.883 E17.68629
G1 X167.241 Y78.029 E17.80827
G1 X167.589 Y78.63 E17.83137
G1 X167.89 Y79.189 E17.85249
G1 X168.423 Y80.256 E17.89216
G1 X170.156 Y83.917 E18.02688
G1 X170.373 Y84.393 E18.04427
G1 X170.626 Y84.998 E18.06609
G1 X171.153 Y86.383 E18.11537
G1 X172.375 Y89.803 E18.23617
G1 X172.595 Y90.446 E18.25877
G1 X172.789 Y91.078 E18.28076
G1 X173.166 Y92.469 E18.32869
G1 X174.21 Y96.667 E18.47257
G1 X174.342 Y97.323 E18.49483
G1 X174.578 Y98.718 E18.54188
G1 X175.116 Y102.351 E18.66404
G1 X175.21 Y103.053 E18.68759
G1 X175.275 Y103.691 E18.70892
G1 X175.374 Y105.122 E18.75663
G1 X175.557 Y108.877 E18.88167
G1 X175.577 Y109.454 E18.90087
G1 X175.579 Y110.114 E18.92283
G1 X175.536 Y111.585 E18.97177
G1 X175.359 Y115.17 E19.09116
G1 X175.312 Y115.912 E19.11588
G1 X175.252 Y116.547 E19.1371
G1 X175.069 Y117.97 E19.18482
G1 X174.444 Y122.132 E19.3248
G1 X174.296 Y122.914 E19.35127
G1 X173.973 Y124.311 E19.39896
G1 X173.085 Y127.857 E19.52054
G1 X172.907 Y128.527 E19.5436
G1 X172.723 Y129.14 E19.56489
G1 X172.249 Y130.55 E19.61436
G1 X170.839 Y134.471 E19.75295
G1 X170.541 Y135.209 E19.77942
G1 X169.932 Y136.559 E19.82868
G1 X168.147 Y140.317 E19.96706
G1 X167.782 Y141.015 E19.99325
G1 X167.046 Y142.298 E20.04245
G1 X164.896 Y145.871 E20.18114
G1 X164.465 Y146.529 E20.20731
G1 X163.746 Y147.541 E20.2486
G1 X161.373 Y150.742 E20.38113
G1 X161.044 Y151.173 E20.39916
G1 X160.623 Y151.69 E20.42134
G1 X159.659 Y152.795 E20.47011
G1 X157.21 Y155.498 E20.59142
G1 X156.758 Y155.983 E20.61347
G1 X156.3 Y156.445 E20.63511
G1 X155.401 Y157.295 E20.67626
G1 X152.398 Y160.017 E20.81107
G1 X152.007 Y160.359 E20.82834
G1 X151.526 Y160.755 E20.84906
G1 X150.345 Y161.668 E20.89871
G1 X147.305 Y163.923 E21.02461
G1 X146.877 Y164.23 E21.04212
G1 X146.336 Y164.593 E21.06379
G1 X145.134 Y165.346 E21.11097
G1 X141.829 Y167.325 E21.23909
G1 X141.377 Y167.586 E21.25645
G1 X140.815 Y167.888 E21.27767
G1 X139.513 Y168.536 E21.32605
G1 X136.14 Y170.13 E21.45013
G1 X135.591 Y170.38 E21.47019
G1 X134.985 Y170.634 E21.49205
G1 X133.838 Y171.072 E21.53288
G1 X130.227 Y172.366 E21.66046
G1 X129.536 Y172.602 E21.68475
G1 X128.927 Y172.789 E21.70594
G1 X127.73 Y173.116 E21.74721
G1 X123.863 Y174.086 E21.87981
G1 X123.325 Y174.213 E21.8982
G1 X122.67 Y174.345 E21.92042
G1 X121.282 Y174.579 E21.96724
G1 X117.65 Y175.117 E22.08936
G1 X116.953 Y175.211 E22.11275
G1 X116.294 Y175.278 E22.13478
G1 X114.887 Y175.374 E22.18169
G1 X111.268 Y175.552 E22.3022
G1 X110.541 Y175.578 E22.3264
G1 X109.883 Y175.58 E22.34828
G1 X108.417 Y175.537 E22.39706
G1 X104.828 Y175.36 E22.51658
G1 X104.101 Y175.314 E22.5408
G1 X103.451 Y175.252 E22.56252
G1 X102.017 Y175.068 E22.61061
G1 X97.867 Y174.446 E22.75018
G1 X97.078 Y174.296 E22.77689
G1 X95.686 Y173.974 E22.82441
G1 X91.62 Y172.949 E22.96388
G1 X90.863 Y172.726 E22.99013
G1 X89.475 Y172.259 E23.03883
G1 X85.521 Y170.837 E23.17859
G1 X84.79 Y170.542 E23.20481
G1 X83.669 Y170.039 E23.24568
G1 X79.682 Y168.148 E23.39244
G1 X78.972 Y167.777 E23.41909
G1 X77.726 Y167.061 E23.46688
G1 X74.137 Y164.903 E23.60617
G1 X73.471 Y164.466 E23.63267
G1 X72.291 Y163.624 E23.68088
G1 X69.261 Y161.376 E23.80637
G1 X68.81 Y161.031 E23.82525
G1 X68.304 Y160.618 E23.84698
G1 X67.223 Y159.675 E23.89469
G1 X64.387 Y157.103 E24.02203
G1 X64.009 Y156.749 E24.03925
G1 X63.56 Y156.303 E24.0603
G1 X62.547 Y155.229 E24.10941
G1 X59.997 Y152.415 E24.23571
G1 X59.647 Y152.017 E24.25334
G1 X59.238 Y151.52 E24.27475
G1 X58.47 Y150.528 E24.31647
G1 X56.068 Y147.292 E24.45051
G1 X55.76 Y146.862 E24.46811
G1 X55.41 Y146.339 E24.48904
G1 X54.654 Y145.133 E24.53638
G1 X52.677 Y141.834 E24.6643
G1 X52.408 Y141.367 E24.68222
G1 X52.115 Y140.822 E24.7028
G1 X51.461 Y139.51 E24.75156
G1 X49.936 Y136.283 E24.87027
G1 X49.619 Y135.588 E24.89568
G1 X49.366 Y134.983 E24.91749
G1 X48.843 Y133.609 E24.96639
G1 X47.631 Y130.217 E25.08619
G1 X47.407 Y129.565 E25.10912
G1 X47.211 Y128.929 E25.13126
G1 X46.828 Y127.517 E25.17992
G1 X45.911 Y123.85 E25.30564
G1 X45.791 Y123.341 E25.32303
G1 X45.661 Y122.694 E25.34498
G1 X45.414 Y121.23 E25.39436
G1 X44.87 Y117.544 E25.51829
G1 X44.791 Y116.955 E25.53805
G1 X44.725 Y116.303 E25.55985
G1 X44.625 Y114.855 E25.60812
G1 X44.443 Y111.121 E25.73247
G1 X44.423 Y110.546 E25.7516
G1 X44.421 Y109.883 E25.77365
G1 X44.464 Y108.417 E25.82243
G1 X44.642 Y104.823 E25.94212
G1 X44.686 Y104.115 E25.96571
G1 X44.748 Y103.463 E25.98749
G1 X44.935 Y102.004 E26.03642
G1 X45.461 Y98.453 E26.15581
G1 X45.573 Y97.758 E26.17923
G1 X45.702 Y97.095 E26.20169
G1 X46.036 Y95.647 E26.25112
G1 X46.957 Y91.975 E26.37703
G1 X47.09 Y91.477 E26.39418
G1 X47.274 Y90.868 E26.41533
G1 X47.751 Y89.446 E26.46522
G1 X49.005 Y85.943 E26.58897
G1 X49.202 Y85.414 E26.60775
G1 X49.461 Y84.782 E26.63046
G1 X49.956 Y83.68 E26.67064
G1 X51.851 Y79.687 E26.81765
G1 X52.217 Y78.986 E26.84395
G1 X52.95 Y77.71 E26.89289
G1 X55.101 Y74.136 E27.03163
G1 X55.545 Y73.459 E27.05856
G1 X56.377 Y72.292 E27.10623
G1 X58.542 Y69.371 E27.22716
G1 X58.964 Y68.818 E27.2503
G1 X59.372 Y68.318 E27.27176
G1 X60.209 Y67.355 E27.3142
G1 X62.762 Y64.534 E27.44074
G1 X63.251 Y64.009 E27.46461
G1 X63.713 Y63.545 E27.48638
G0 F6000 X63.988 Y63.836
G1 F1200 X65.033 Y62.85 E27.53417
G1 X67.734 Y60.402 E27.65541
G1 X68.247 Y59.95 E27.67815
G1 X68.727 Y59.554 E27.69885
G1 X69.862 Y58.676 E27.74658
G1 X72.819 Y56.483 E27.86902
G1 X73.359 Y56.095 E27.89114
G1 X73.87 Y55.751 E27.91163
G1 X74.878 Y55.117 E27.95123
G1 X78.361 Y53.028 E28.08632
G1 X78.801 Y52.773 E28.10323
G1 X79.361 Y52.472 E28.12438
G1 X80.653 Y51.829 E28.17238
G1 X83.939 Y50.275 E28.29328
G1 X84.575 Y49.985 E28.31652
G1 X85.155 Y49.742 E28.33744
G1 X86.46 Y49.245 E28.38389
G1 X89.97 Y47.989 E28.50788
G1 X90.563 Y47.786 E28.52872
G1 X91.172 Y47.6 E28.5499
G1 X92.594 Y47.215 E28.5989
G1 X96.624 Y46.212 E28.73703
G1 X97.378 Y46.054 E28.76265
G1 X98.803 Y45.814 E28.81072
G1 X102.404 Y45.28 E28.9318
G1 X103.088 Y45.188 E28.95475
G1 X103.733 Y45.122 E28.97632
G1 X105.133 Y45.027 E29.02299
G1 X108.747 Y44.849 E29.14333
G1 X109.46 Y44.823 E29.16706
G1 X110.105 Y44.821 E29.18852
