;FLAVOR:Marlin
;TIME:1668
;Filament used: 0.611736m
;Layer height: 0.2
;MINX:91.65
;MINY:86.836
;MINZ:0.2
;MAXX:128.35
;MAXY:141.725
;MAXZ:50
;TARGET_MACHINE.NAME:Creality Ender-3
;Generated with Cura_SteamEngine 5.6.0
M140 S42
M105
M190 S42
M104 S205
M105
M109 S205
M82 ;absolute extrusion mode
; Ender 3 Custom Start G-code
G92 E0 ; Reset Extruder
G28 ; Home all axes
G29 ; Auto Bed Leveling
G1 Z2.0 F3000 ; Move Z Axis up little to prevent scratching of Heat Bed
G1 X0.1 Y20 Z0.3 F5000.0 ; Move to start position
G1 X0.1 Y200.0 Z0.3 F1500.0 E15 ; Draw the first line
G1 X0.4 Y200.0 Z0.3 F5000.0 ; Move to side a little
G1 X0.4 Y20 Z0.3 F1500.0 E30 ; Draw the second line
G92 E0 ; Reset Extruder
G1 Z2.0 F3000 ; Move Z Axis up little to prevent scratching of Heat Bed
G1 X5 Y20 Z0.3 F5000.0 ; Move over to prevent blob squish
G92 E0
G92 E0
G1 F2700 E-5
;LAYER_COUNT:250
;LAYER:0
M107
G0 F6000 X100.265 Y90.604 Z0.2
;TYPE:SKIRT
G1 F2700 E0
G1 F1200 X100.939 Y89.899 E0.03244
G1 X101.644 Y89.28 E0.06364
G1 X102.456 Y88.684 E0.09715
G1 X103.228 Y88.215 E0.12719
G1 X104.168 Y87.755 E0.162
G1 X105.076 Y87.408 E0.19433
G1 X106.013 Y87.14 E0.22674
G1 X106.9 Y86.969 E0.25679
G1 X108.241 Y86.849 E0.30157
G1 X108.848 Y86.836 E0.32176
G1 X111.465 Y86.836 E0.4088
G1 X112.344 Y86.849 E0.43804
G1 X113.316 Y86.908 E0.47043
G1 X114.279 Y87.054 E0.50282
G1 X115.226 Y87.285 E0.53525
G1 X116.148 Y87.599 E0.56764
G1 X117.039 Y87.993 E0.60004
G1 X117.889 Y88.462 E0.63233
G1 X118.64 Y88.964 E0.66238
G1 X119.455 Y89.622 E0.69722
G1 X120.153 Y90.3 E0.72958
G1 X120.789 Y91.037 E0.76196
G1 X121.359 Y91.827 E0.79436
G1 X121.821 Y92.603 E0.8244
G1 X122.275 Y93.545 E0.85918
G1 X122.604 Y94.423 E0.89036
G1 X122.873 Y95.393 E0.92384
G1 X123.037 Y96.268 E0.95345
G1 X123.183 Y97.279 E0.98743
G1 X123.298 Y98.172 E1.01737
G1 X123.691 Y100.676 E1.10168
G1 X124.147 Y103.114 E1.18417
G1 X124.695 Y105.648 E1.2704
G1 X125.293 Y108.078 E1.35363
G1 X125.68 Y109.545 E1.4041
G1 X125.906 Y110.62 E1.44063
G1 X126.305 Y113.149 E1.52579
G1 X126.765 Y115.609 E1.60903
G1 X127.305 Y118.106 E1.694
G1 X128.024 Y121.01 E1.7935
G1 X128.214 Y121.979 E1.82634
G1 X128.335 Y123.298 E1.8704
G1 X128.35 Y123.955 E1.89226
G1 X128.349 Y130.125 E2.09747
G1 X128.338 Y130.888 E2.12285
G1 X128.281 Y131.861 E2.15527
G1 X128.136 Y132.824 E2.18766
G1 X127.907 Y133.77 E2.22003
G1 X127.596 Y134.694 E2.25246
G1 X127.204 Y135.585 E2.28483
G1 X126.736 Y136.437 E2.31716
G1 X126.214 Y137.218 E2.34841
G1 X125.581 Y138.003 E2.38195
G1 X124.956 Y138.654 E2.41197
G1 X124.167 Y139.342 E2.44678
G1 X123.407 Y139.892 E2.47799
G1 X122.54 Y140.409 E2.51156
G1 X121.662 Y140.831 E2.54396
G1 X120.751 Y141.173 E2.57632
G1 X119.812 Y141.434 E2.60874
G1 X118.846 Y141.612 E2.64141
G1 X117.695 Y141.71 E2.67983
G1 X117.02 Y141.725 E2.70229
G1 X103.214 Y141.724 E3.16148
G1 X102.481 Y141.713 E3.18586
G1 X101.509 Y141.656 E3.21824
G1 X100.546 Y141.51 E3.25064
G1 X99.6 Y141.281 E3.28301
G1 X98.676 Y140.969 E3.31545
G1 X97.786 Y140.577 E3.34779
G1 X96.963 Y140.126 E3.37901
G1 X96.124 Y139.565 E3.41258
G1 X95.42 Y138.999 E3.44262
G1 X94.667 Y138.274 E3.47739
G1 X94.03 Y137.538 E3.50976
G1 X93.5 Y136.807 E3.53979
G1 X92.964 Y135.91 E3.57455
G1 X92.542 Y135.032 E3.60695
G1 X92.2 Y134.12 E3.63935
G1 X91.94 Y133.182 E3.67172
G1 X91.762 Y132.213 E3.70449
G1 X91.664 Y131.034 E3.74384
G1 X91.65 Y130.383 E3.76549
G1 X91.651 Y124.16 E3.97247
G1 X91.664 Y123.418 E3.99715
G1 X91.724 Y122.447 E4.02951
G1 X91.858 Y121.554 E4.05955
G1 X92.013 Y120.868 E4.08294
G1 X92.643 Y118.43 E4.16669
G1 X93.219 Y115.931 E4.25199
G1 X93.716 Y113.45 E4.33614
G1 X94.228 Y110.441 E4.43766
G1 X94.536 Y109.14 E4.48213
G1 X94.93 Y107.849 E4.52702
G1 X95.653 Y105.362 E4.61317
G1 X96.294 Y102.898 E4.69785
G1 X96.849 Y100.487 E4.78013
G1 X97.353 Y97.973 E4.86541
G1 X97.585 Y96.622 E4.91101
G1 X97.738 Y95.798 E4.93888
G1 X97.961 Y94.85 E4.97127
G1 X98.267 Y93.925 E5.00368
G1 X98.639 Y93.064 E5.03487
G1 X99.119 Y92.175 E5.06848
G1 X99.637 Y91.392 E5.0997
G1 X100.265 Y90.604 E5.13322
G0 F6000 X100.555 Y90.88
G1 F1200 X101.203 Y90.2 E5.16446
G1 X101.908 Y89.581 E5.19566
G1 X102.664 Y89.026 E5.22685
G1 X103.436 Y88.557 E5.2569
G1 X104.311 Y88.128 E5.28931
G1 X105.186 Y87.792 E5.32048
G1 X106.089 Y87.533 E5.35173
G1 X106.976 Y87.362 E5.38177
G1 X108.25 Y87.249 E5.42431
G1 X108.857 Y87.236 E5.44451
G1 X111.459 Y87.236 E5.53105
G1 X112.32 Y87.248 E5.55969
G1 X113.257 Y87.304 E5.59091
G1 X114.185 Y87.443 E5.62212
G1 X115.098 Y87.664 E5.65336
G1 X115.987 Y87.965 E5.68458
G1 X116.846 Y88.343 E5.7158
G1 X117.667 Y88.795 E5.74697
G1 X118.418 Y89.297 E5.77701
G1 X119.177 Y89.909 E5.80944
G1 X119.851 Y90.562 E5.84065
G1 X120.465 Y91.271 E5.87185
G1 X121.015 Y92.032 E5.90308
G1 X121.477 Y92.808 E5.93312
G1 X121.9 Y93.685 E5.9655
G1 X122.229 Y94.563 E5.99669
G1 X122.48 Y95.467 E6.02789
G1 X122.641 Y96.325 E6.05693
G1 X122.786 Y97.33 E6.0907
G1 X122.901 Y98.223 E6.12064
G1 X123.298 Y100.75 E6.20572
G1 X123.756 Y103.199 E6.28859
G1 X124.304 Y105.733 E6.37482
G1 X124.906 Y108.18 E6.45863
G1 X125.293 Y109.647 E6.5091
G1 X125.511 Y110.682 E6.54428
G1 X125.912 Y113.223 E6.62984
G1 X126.374 Y115.694 E6.71345
G1 X126.914 Y118.191 E6.79842
G1 X127.632 Y121.088 E6.89769
G1 X127.816 Y122.016 E6.92915
G1 X127.935 Y123.307 E6.97227
G1 X127.95 Y123.955 E6.99383
G1 X127.949 Y130.12 E7.19888
G1 X127.939 Y130.865 E7.22366
G1 X127.885 Y131.802 E7.25488
G1 X127.747 Y132.731 E7.28611
G1 X127.528 Y133.643 E7.31731
G1 X127.23 Y134.533 E7.34853
G1 X126.853 Y135.393 E7.37976
G1 X126.403 Y136.215 E7.41093
G1 X125.881 Y136.996 E7.44217
G1 X125.292 Y137.726 E7.47337
G1 X124.667 Y138.377 E7.50338
G1 X123.932 Y139.018 E7.53582
G1 X123.172 Y139.568 E7.56702
G1 X122.366 Y140.049 E7.59824
G1 X121.521 Y140.457 E7.62945
G1 X120.643 Y140.788 E7.66066
G1 X119.739 Y141.041 E7.69188
G1 X118.812 Y141.213 E7.72324
G1 X117.661 Y141.311 E7.76166
G1 X117.02 Y141.325 E7.78299
G1 X103.22 Y141.324 E8.24198
G1 X102.504 Y141.314 E8.26579
G1 X101.568 Y141.26 E8.29698
G1 X100.639 Y141.121 E8.32822
G1 X99.727 Y140.902 E8.35941
G1 X98.837 Y140.603 E8.39064
G1 X97.978 Y140.226 E8.42184
G1 X97.155 Y139.775 E8.45306
G1 X96.375 Y139.253 E8.48427
G1 X95.671 Y138.687 E8.51432
G1 X94.969 Y138.012 E8.54671
G1 X94.354 Y137.303 E8.57793
G1 X93.824 Y136.572 E8.60796
G1 X93.324 Y135.736 E8.64036
G1 X92.916 Y134.891 E8.67157
G1 X92.585 Y134.013 E8.70277
G1 X92.333 Y133.109 E8.73399
G1 X92.161 Y132.18 E8.76541
G1 X92.063 Y131.001 E8.80476
G1 X92.05 Y130.383 E8.82532
G1 X92.051 Y124.167 E9.03206
G1 X92.063 Y123.442 E9.05618
G1 X92.12 Y122.506 E9.08737
G1 X92.254 Y121.613 E9.1174
G1 X92.4 Y120.968 E9.1394
G1 X93.033 Y118.52 E9.2235
G1 X93.609 Y116.021 E9.3088
G1 X94.108 Y113.529 E9.39332
G1 X94.617 Y110.533 E9.4944
G1 X94.919 Y109.257 E9.53801
G1 X95.313 Y107.966 E9.58291
G1 X96.037 Y105.474 E9.66922
G1 X96.681 Y102.999 E9.75428
G1 X97.239 Y100.577 E9.83694
G1 X97.745 Y98.052 E9.9226
G1 X97.978 Y96.695 E9.96839
G1 X98.127 Y95.889 E9.99565
G1 X98.341 Y94.975 E10.02687
G1 X98.635 Y94.083 E10.05811
G1 X98.991 Y93.254 E10.08812
G1 X99.453 Y92.396 E10.12053
G1 X99.971 Y91.613 E10.15176
G1 X100.555 Y90.88 E10.18293
G0 F6000 X100.845 Y91.155
G1 F1200 X101.467 Y90.5 E10.21297
G1 X102.145 Y89.903 E10.24302
G1 X102.872 Y89.368 E10.27304
G1 X103.644 Y88.899 E10.30308
G1 X104.455 Y88.501 E10.33313
G1 X105.297 Y88.176 E10.36315
G1 X106.165 Y87.926 E10.39319
G1 X107.052 Y87.755 E10.42324
G1 X108.259 Y87.649 E10.46354
G1 X108.866 Y87.636 E10.48373
G1 X111.454 Y87.636 E10.56981
G1 X112.297 Y87.647 E10.59785
G1 X113.199 Y87.7 E10.6279
G1 X114.092 Y87.832 E10.65792
G1 X114.97 Y88.043 E10.68796
G1 X115.826 Y88.331 E10.718
G1 X116.654 Y88.694 E10.74807
G1 X117.445 Y89.128 E10.77808
G1 X118.196 Y89.63 E10.80812
G1 X118.899 Y90.197 E10.83816
G1 X119.549 Y90.824 E10.8682
G1 X120.141 Y91.506 E10.89823
G1 X120.671 Y92.237 E10.92827
G1 X121.133 Y93.013 E10.9583
G1 X121.526 Y93.826 E10.98834
G1 X121.844 Y94.671 E11.01837
G1 X122.087 Y95.541 E11.04841
G1 X122.245 Y96.382 E11.07687
G1 X122.389 Y97.381 E11.11044
G1 X122.504 Y98.274 E11.14039
G1 X122.905 Y100.824 E11.22624
G1 X123.365 Y103.284 E11.30948
G1 X123.914 Y105.818 E11.39572
G1 X124.519 Y108.282 E11.48011
G1 X124.902 Y109.73 E11.52992
G1 X125.116 Y110.744 E11.56439
G1 X125.519 Y113.296 E11.65032
G1 X125.983 Y115.779 E11.73434
G1 X126.523 Y118.276 E11.81931
G1 X127.24 Y121.167 E11.91838
G1 X127.418 Y122.053 E11.94843
G1 X127.535 Y123.316 E11.99062
G1 X127.55 Y123.955 E12.01188
G1 X127.549 Y130.115 E12.21676
G1 X127.54 Y130.842 E12.24094
G1 X127.489 Y131.744 E12.27099
G1 X127.358 Y132.638 E12.30105
G1 X127.149 Y133.516 E12.33106
G1 X126.863 Y134.373 E12.36111
G1 X126.502 Y135.201 E12.39116
G1 X126.07 Y135.993 E12.42116
G1 X125.569 Y136.745 E12.45122
G1 X125.003 Y137.449 E12.48126
G1 X124.378 Y138.1 E12.51128
G1 X123.697 Y138.694 E12.54133
G1 X122.966 Y139.225 E12.57138
G1 X122.192 Y139.689 E12.6014
G1 X121.379 Y140.083 E12.63145
G1 X120.535 Y140.403 E12.66147
G1 X119.665 Y140.648 E12.69153
G1 X118.778 Y140.814 E12.72154
G1 X117.627 Y140.912 E12.75996
G1 X117.02 Y140.925 E12.78016
G1 X103.225 Y140.924 E13.23898
G1 X102.527 Y140.915 E13.2622
G1 X101.626 Y140.864 E13.29221
G1 X100.732 Y140.732 E13.32227
G1 X99.854 Y140.523 E13.35229
G1 X98.997 Y140.236 E13.38235
G1 X98.17 Y139.875 E13.41236
G1 X97.377 Y139.442 E13.44241
G1 X96.626 Y138.941 E13.47244
G1 X95.922 Y138.375 E13.50248
G1 X95.271 Y137.749 E13.53252
G1 X94.678 Y137.068 E13.56256
G1 X94.148 Y136.337 E13.59259
G1 X93.684 Y135.562 E13.62263
G1 X93.29 Y134.749 E13.65268
G1 X92.97 Y133.905 E13.6827
G1 X92.726 Y133.035 E13.71275
G1 X92.56 Y132.147 E13.7428
G1 X92.463 Y130.992 E13.78135
G1 X92.45 Y130.383 E13.80161
G1 X92.451 Y124.173 E14.00816
G1 X92.462 Y123.466 E14.03167
G1 X92.516 Y122.565 E14.0617
G1 X92.65 Y121.672 E14.09173
G1 X92.787 Y121.068 E14.11233
G1 X93.423 Y118.61 E14.19677
G1 X93.999 Y116.111 E14.28207
G1 X94.5 Y113.607 E14.367
G1 X95.006 Y110.625 E14.4676
G1 X95.308 Y109.349 E14.51122
G1 X95.697 Y108.078 E14.55543
G1 X96.421 Y105.586 E14.64174
G1 X97.068 Y103.1 E14.72718
G1 X97.629 Y100.667 E14.81022
G1 X98.137 Y98.131 E14.89624
G1 X98.371 Y96.768 E14.94224
G1 X98.517 Y95.979 E14.96893
G1 X98.721 Y95.1 E14.99894
G1 X99.003 Y94.241 E15.02901
G1 X99.359 Y93.412 E15.05902
G1 X99.787 Y92.616 E15.08908
G1 X100.284 Y91.862 E15.11912
G1 X100.845 Y91.155 E15.14913
G1 F2700 E10.14913
;MESH:dune-tooth-mihovec-design.stl
G0 F6000 X105.464 Y111.67
G0 X105.651 Y117.104
;TYPE:WALL-INNER
G1 F2700 E15.14913
G1 F1200 X114.45 Y117.104 E15.44179
G1 X114.45 Y112.936 E15.58042
G1 X112.161 Y112.935 E15.65655
G1 X111.964 Y112.902 E15.66319
G1 X111.797 Y112.813 E15.66949
G1 X111.659 Y112.665 E15.67622
G1 X111.562 Y112.388 E15.68598
G1 X111.561 Y98.437 E16.14999
G1 X109.137 Y98.437 E16.23062
G1 X109.134 Y112.388 E16.69463
G1 X109.038 Y112.665 E16.70438
G1 X108.9 Y112.813 E16.71111
G1 X108.61 Y112.935 E16.72157
G1 X105.651 Y112.936 E16.81999
G1 X105.651 Y117.104 E16.95862
G0 F6000 X105.251 Y117.504
;TYPE:WALL-OUTER
G1 F1200 X114.85 Y117.504 E17.27788
G1 X114.85 Y112.536 E17.44312
G1 X112.116 Y112.535 E17.53405
G1 X111.993 Y112.445 E17.53912
G1 X111.961 Y112.353 E17.54236
G1 X111.961 Y98.037 E18.01851
G1 X108.737 Y98.037 E18.12574
G1 X108.736 Y112.353 E18.6019
G1 X108.658 Y112.495 E18.60728
G1 X108.571 Y112.533 E18.61044
G1 X105.251 Y112.536 E18.72086
G1 X105.251 Y117.504 E18.8861
G0 F6000 X105.52 Y117.234
G0 X105.751 Y116.744
G0 X106.011 Y116.744
;TYPE:SKIN
G1 F1200 X106.011 Y113.296 E19.00078
G1 X108.762 Y113.293 E19.09228
G1 X109.12 Y113.101 E19.10579
G1 X109.345 Y112.863 E19.11669
G1 X109.493 Y112.437 E19.13169
G1 X109.497 Y98.797 E19.58535
G1 X111.201 Y98.797 E19.64203
G1 X111.203 Y112.436 E20.09566
G1 X111.36 Y112.862 E20.11076
G1 X111.578 Y113.098 E20.12145
G1 X111.819 Y113.23 E20.13059
G1 X112.125 Y113.293 E20.14098
G1 X114.09 Y113.296 E20.20634
G1 X114.09 Y116.744 E20.32102
G1 X106.011 Y116.744 E20.58973
G0 F6000 X106.36 Y116.543
G1 F1200 X106.21 Y116.393 E20.59678
G0 F6000 X106.21 Y115.827
G1 F1200 X106.926 Y116.543 E20.63046
G0 F6000 X107.492 Y116.543
G1 F1200 X106.21 Y115.261 E20.69076
G0 F6000 X106.21 Y114.696
G1 F1200 X108.057 Y116.543 E20.77764
G0 F6000 X108.623 Y116.543
G1 F1200 X106.21 Y114.13 E20.89114
G0 F6000 X106.21 Y113.564
G1 F1200 X109.189 Y116.543 E21.03126
G0 F6000 X109.754 Y116.543
G1 F1200 X106.706 Y113.494 E21.17465
G0 F6000 X107.27 Y113.493
G1 F1200 X110.32 Y116.543 E21.31812
G0 F6000 X110.886 Y116.543
G1 F1200 X107.835 Y113.492 E21.46163
G0 F6000 X108.399 Y113.49
G1 F1200 X111.452 Y116.543 E21.60523
G0 F6000 X112.017 Y116.543
G1 F1200 X108.913 Y113.439 E21.75123
G0 F6000 X109.271 Y113.231
G1 F1200 X112.583 Y116.543 E21.90702
G0 F6000 X113.149 Y116.543
G1 F1200 X109.533 Y112.927 E22.0771
G0 F6000 X109.679 Y112.507
G1 F1200 X113.714 Y116.543 E22.26692
G0 F6000 X113.89 Y116.152
G1 F1200 X109.692 Y111.954 E22.46438
G0 F6000 X109.692 Y111.389
G1 F1200 X111.129 Y112.826 E22.53198
G0 F6000 X111.003 Y112.135
G1 F1200 X109.692 Y110.823 E22.59366
G0 F6000 X109.692 Y110.257
G1 F1200 X111.003 Y111.569 E22.65535
G0 F6000 X111.003 Y111.003
G1 F1200 X109.692 Y109.692 E22.71702
G0 F6000 X109.692 Y109.127
G1 F1200 X111.003 Y110.438 E22.77868
G0 F6000 X111.003 Y109.872
G1 F1200 X109.692 Y108.561 E22.84035
G0 F6000 X109.692 Y107.995
G1 F1200 X111.003 Y109.306 E22.90201
G0 F6000 X111.003 Y108.74
G1 F1200 X109.693 Y107.43 E22.96363
G0 F6000 X109.693 Y106.865
G1 F1200 X111.003 Y108.174 E23.02523
G0 F6000 X111.003 Y107.608
G1 F1200 X109.693 Y106.299 E23.08682
G0 F6000 X109.694 Y105.734
G1 F1200 X111.003 Y107.043 E23.14839
G0 F6000 X111.003 Y106.477
G1 F1200 X109.694 Y105.168 E23.20997
G0 F6000 X109.694 Y104.603
G1 F1200 X111.003 Y105.911 E23.27151
G0 F6000 X111.002 Y105.345
G1 F1200 X109.694 Y104.037 E23.33304
G0 F6000 X109.694 Y103.472
G1 F1200 X111.002 Y104.779 E23.39454
G0 F6000 X111.002 Y104.214
G1 F1200 X109.694 Y102.906 E23.45606
G0 F6000 X109.694 Y102.34
G1 F1200 X111.002 Y103.648 E23.51759
G0 F6000 X111.002 Y103.082
G1 F1200 X109.694 Y101.775 E23.57909
G0 F6000 X109.695 Y101.21
G1 F1200 X111.002 Y102.517 E23.64057
G0 F6000 X111.001 Y101.95
G1 F1200 X109.695 Y100.644 E23.702
G0 F6000 X109.695 Y100.078
G1 F1200 X111.001 Y101.384 E23.76343
G0 F6000 X111.001 Y100.819
G1 F1200 X109.695 Y99.513 E23.82486
G0 F6000 X109.745 Y98.997
G1 F1200 X111.001 Y100.253 E23.88393
G0 F6000 X111.001 Y99.687
G1 F1200 X110.31 Y98.997 E23.91641
G0 F6000 X110.876 Y98.997
G1 F1200 X111.001 Y99.122 E23.92229
G0 F6000 X111.001 Y98.537
G0 X111.389 Y98.609
G0 X111.733 Y112.763
G0 X112.262 Y113.036
G0 X111.685 Y113.382
G1 F1200 X113.89 Y115.587 E24.02601
G0 F6000 X113.89 Y115.021
G1 F1200 X112.359 Y113.49 E24.09802
G0 F6000 X112.927 Y113.492
G1 F1200 X113.89 Y114.455 E24.14332
G0 F6000 X113.89 Y113.89
G1 F1200 X113.494 Y113.494 E24.16195
G1 F2700 E19.16195
G0 F6000 X113.496 Y113.036
G0 X114.278 Y113.108
G0 X114.636 Y117.29
G0 X114.636 Y118.369
G0 X114.636 Y119.644
G0 X116.75 Y130.125
;TYPE:WALL-INNER
G1 F2700 E24.16195
G1 F1200 X116.75 Y124.225 E24.35818
G1 X115.05 Y124.225 E24.41472
G1 X114.824 Y124.182 E24.42237
G1 X114.704 Y124.116 E24.42693
G1 X114.537 Y123.938 E24.43505
G1 X114.45 Y123.719 E24.44289
G1 X114.45 Y120.909 E24.53635
G1 X105.65 Y120.909 E24.82904
G1 X105.65 Y123.719 E24.9225
G1 X105.561 Y123.942 E24.93048
G1 X105.385 Y124.124 E24.9389
G1 X105.05 Y124.225 E24.95054
G1 X103.25 Y124.225 E25.01041
G1 X103.25 Y130.125 E25.20664
G1 X116.75 Y130.125 E25.65566
G0 F6000 X117.15 Y130.525
;TYPE:WALL-OUTER
G1 F1200 X117.15 Y123.825 E25.8785
G1 X114.994 Y123.825 E25.95021
G1 X114.85 Y123.677 E25.95708
G1 X114.85 Y120.509 E26.06244
G1 X105.25 Y120.509 E26.38174
G1 X105.246 Y123.667 E26.48678
G1 X105.162 Y123.792 E26.49179
G1 X105.05 Y123.825 E26.49567
G1 X102.85 Y123.825 E26.56884
G1 X102.85 Y130.525 E26.79168
G1 X117.15 Y130.525 E27.2673
G0 F6000 X116.88 Y130.255
G0 X116.65 Y129.765
G0 X116.39 Y129.765
;TYPE:SKIN
G1 F1200 X103.61 Y129.765 E27.69237
G1 X103.61 Y124.585 E27.86466
G1 X105.083 Y124.583 E27.91365
G1 X105.38 Y124.527 E27.9237
G1 X105.617 Y124.395 E27.93272
