;FLAVOR:Marlin
;TIME:4743
;Filament used: 3.60105m
;Layer height: 0.2
;MINX:51.514
;MINY:51.512
;MINZ:0.2
;MAXX:168.5
;MAXY:168.489
;MAXZ:1.2
;TARGET_MACHINE.NAME:Creality Ender-3
;Generated with Cura_SteamEngine 5.6.0
M140 S42
M105
M190 S42
M104 S205
M105
M109 S205
M82 ;absolute extrusion mode
; Ender 3 Custom Start G-code
G92 E0 ; Reset Extruder
G28 ; Home all axes
G29 ; Auto Bed Leveling
G1 Z2.0 F3000 ; Move Z Axis up little to prevent scratching of Heat Bed
G1 X0.1 Y20 Z0.3 F5000.0 ; Move to start position
G1 X0.1 Y200.0 Z0.3 F1500.0 E15 ; Draw the first line
G1 X0.4 Y200.0 Z0.3 F5000.0 ; Move to side a little
G1 X0.4 Y20 Z0.3 F1500.0 E30 ; Draw the second line
G92 E0 ; Reset Extruder
G1 Z2.0 F3000 ; Move Z Axis up little to prevent scratching of Heat Bed
G1 X5 Y20 Z0.3 F5000.0 ; Move over to prevent blob squish
G92 E0
G92 E0
G1 F2700 E-5
;LAYER_COUNT:6
;LAYER:0
M107
G0 F6000 X68.398 Y68.888 Z0.2
;TYPE:SKIRT
G1 F2700 E0
G1 F1200 X69.021 Y68.275 E0.02907
G1 X70.218 Y67.131 E0.08414
G1 X70.926 Y66.48 E0.11613
G1 X71.722 Y65.784 E0.1513
G1 X72.727 Y64.932 E0.19512
G1 X73.601 Y64.219 E0.23264
G1 X74.426 Y63.581 E0.26732
G1 X75.526 Y62.757 E0.31304
G1 X76.384 Y62.137 E0.34824
G1 X77.151 Y61.613 E0.37914
G1 X78.971 Y60.423 E0.45146
G1 X80.234 Y59.657 E0.50059
G1 X81.539 Y58.907 E0.55066
G1 X82.358 Y58.456 E0.58175
G1 X83.263 Y57.986 E0.61567
G1 X84.671 Y57.283 E0.66801
G1 X85.479 Y56.899 E0.69777
G1 X86.5 Y56.448 E0.73489
G1 X88.317 Y55.68 E0.8005
G1 X88.725 Y55.516 E0.81513
G1 X89.676 Y55.162 E0.84888
G1 X90.968 Y54.697 E0.89455
G1 X92.001 Y54.349 E0.9308
G1 X93.055 Y54.025 E0.96748
G1 X94.958 Y53.477 E1.03335
G1 X95.375 Y53.367 E1.04769
G1 X96.418 Y53.116 E1.08337
G1 X98.383 Y52.676 E1.15034
G1 X98.783 Y52.594 E1.16393
G1 X99.816 Y52.407 E1.19884
G1 X101.841 Y52.081 E1.26706
G1 X103.244 Y51.905 E1.31409
G1 X104.75 Y51.747 E1.36445
G1 X105.739 Y51.664 E1.39746
G1 X106.718 Y51.604 E1.43009
G1 X108.113 Y51.542 E1.47653
G1 X109.208 Y51.513 E1.51296
G1 X110.082 Y51.512 E1.54203
G1 X112.317 Y51.555 E1.61638
G1 X113.537 Y51.617 E1.65701
G1 X115.317 Y51.751 E1.71638
G1 X116.179 Y51.833 E1.74518
G1 X117.259 Y51.964 E1.78137
G1 X119.225 Y52.237 E1.84738
G1 X120.748 Y52.507 E1.89883
G1 X122.703 Y52.902 E1.96517
G1 X123.97 Y53.201 E2.00846
G1 X125.539 Y53.61 E2.06239
G1 X126.495 Y53.878 E2.09542
G1 X127.548 Y54.204 E2.13208
G1 X129.399 Y54.815 E2.19691
G1 X129.802 Y54.957 E2.21112
G1 X130.814 Y55.338 E2.24709
G1 X132.038 Y55.817 E2.29081
G1 X133.084 Y56.251 E2.32847
G1 X134.054 Y56.684 E2.3638
G1 X135.833 Y57.514 E2.42909
G1 X136.22 Y57.705 E2.44345
G1 X137.233 Y58.234 E2.48146
G1 X138.972 Y59.179 E2.54729
G1 X140.204 Y59.906 E2.59487
G1 X141.468 Y60.689 E2.64432
G1 X142.297 Y61.224 E2.67713
G1 X143.184 Y61.829 E2.71285
G1 X144.393 Y62.68 E2.76202
G1 X145.155 Y63.239 E2.79345
G1 X145.985 Y63.881 E2.82835
G1 X147.147 Y64.81 E2.87783
G1 X147.918 Y65.449 E2.91114
G1 X148.699 Y66.135 E2.94571
G1 X150.179 Y67.479 E3.01221
G1 X150.49 Y67.773 E3.02644
G1 X151.288 Y68.561 E3.06374
G1 X152.642 Y69.946 E3.12816
G1 X152.919 Y70.241 E3.14162
G1 X153.687 Y71.095 E3.17982
G1 X154.969 Y72.577 E3.245
G1 X155.895 Y73.726 E3.29408
G1 X156.7 Y74.765 E3.3378
G1 X157.385 Y75.686 E3.37597
G1 X157.995 Y76.552 E3.4112
G1 X158.804 Y77.739 E3.45898
G1 X159.352 Y78.579 E3.49234
G1 X159.83 Y79.353 E3.5226
G1 X160.634 Y80.697 E3.57469
G1 X161.151 Y81.602 E3.60935
G1 X161.637 Y82.506 E3.64349
G1 X162.33 Y83.841 E3.69352
G1 X162.74 Y84.672 E3.72434
G1 X163.217 Y85.704 E3.76215
G1 X164.015 Y87.524 E3.82825
G1 X164.553 Y88.868 E3.8764
G1 X165.025 Y90.128 E3.92115
G1 X165.387 Y91.15 E3.95721
G1 X165.699 Y92.108 E3.99072
G1 X166.096 Y93.392 E4.03542
G1 X166.42 Y94.508 E4.07407
G1 X166.646 Y95.375 E4.10387
G1 X167.16 Y97.516 E4.17711
G1 X167.251 Y97.931 E4.19124
G1 X167.457 Y98.99 E4.22712
G1 X167.801 Y100.94 E4.29298
G1 X168.01 Y102.422 E4.34276
G1 X168.164 Y103.699 E4.38554
G1 X168.281 Y104.845 E4.42385
G1 X168.357 Y105.862 E4.45777
G1 X168.448 Y107.378 E4.50829
G1 X168.486 Y108.34 E4.54031
G1 X168.499 Y109.181 E4.56828
G1 X168.5 Y110.728 E4.61974
G1 X168.481 Y111.824 E4.65619
G1 X168.433 Y112.86 E4.69069
G1 X168.35 Y114.264 E4.73747
G1 X168.268 Y115.307 E4.77226
G1 X168.152 Y116.395 E4.80866
G1 X167.842 Y118.817 E4.88987
G1 X167.675 Y119.816 E4.92356
G1 X167.43 Y121.159 E4.96896
G1 X167.223 Y122.196 E5.00413
G1 X166.959 Y123.353 E5.04361
G1 X166.48 Y125.268 E5.10926
G1 X166.098 Y126.599 E5.15532
G1 X165.696 Y127.906 E5.2008
G1 X165.342 Y128.981 E5.23844
G1 X164.965 Y130.028 E5.27545
G1 X164.269 Y131.857 E5.34054
G1 X164.111 Y132.251 E5.35466
G1 X163.687 Y133.24 E5.39045
G1 X163.156 Y134.434 E5.43391
G1 X162.813 Y135.175 E5.46107
G1 X162.174 Y136.46 E5.5088
G1 X161.252 Y138.213 E5.57468
G1 X160.517 Y139.501 E5.624
G1 X159.492 Y141.198 E5.68994
G1 X158.78 Y142.294 E5.73341
G1 X157.937 Y143.534 E5.78328
G1 X157.303 Y144.429 E5.81976
G1 X156.775 Y145.135 E5.84909
G1 X155.402 Y146.897 E5.92338
G1 X154.477 Y147.999 E5.97124
G1 X153.564 Y149.044 E6.01739
G1 X152.848 Y149.834 E6.05285
G1 X152.237 Y150.475 E6.0823
G1 X150.677 Y152.043 E6.15587
G1 X150.38 Y152.331 E6.16963
G1 X149.594 Y153.061 E6.20531
G1 X148.5 Y154.043 E6.2542
G1 X147.757 Y154.687 E6.28691
G1 X147.005 Y155.305 E6.31928
G1 X145.902 Y156.185 E6.36621
G1 X145.063 Y156.83 E6.40141
G1 X144.124 Y157.51 E6.43997
G1 X142.522 Y158.627 E6.50493
G1 X141.399 Y159.353 E6.5494
G1 X139.996 Y160.22 E6.60426
G1 X139.196 Y160.694 E6.63519
G1 X138.276 Y161.205 E6.67019
G1 X136.972 Y161.907 E6.71945
G1 X136.111 Y162.349 E6.75164
G1 X135.128 Y162.82 E6.78789
G1 X133.295 Y163.658 E6.85493
G1 X131.986 Y164.202 E6.90207
G1 X130.707 Y164.705 E6.94778
G1 X129.681 Y165.087 E6.9842
G1 X128.61 Y165.451 E7.02182
G1 X126.72 Y166.054 E7.0878
G1 X125.323 Y166.447 E7.13607
G1 X124.078 Y166.771 E7.17886
G1 X122.942 Y167.045 E7.21773
G1 X122.084 Y167.228 E7.24691
G1 X120.523 Y167.537 E7.29983
G1 X119.485 Y167.722 E7.3349
G1 X118.659 Y167.845 E7.36268
G1 X117.129 Y168.054 E7.41404
G1 X116.045 Y168.181 E7.45034
G1 X115.193 Y168.259 E7.47879
G1 X113.463 Y168.387 E7.53649
G1 X112.572 Y168.437 E7.56617
G1 X111.54 Y168.468 E7.60051
G1 X110.145 Y168.489 E7.64692
G1 X109.065 Y168.486 E7.68284
G1 X108.043 Y168.456 E7.71684
G1 X106.676 Y168.393 E7.76236
G1 X105.557 Y168.321 E7.79965
G1 X104.538 Y168.231 E7.83368
G1 X103.011 Y168.07 E7.88475
G1 X102.071 Y167.953 E7.91625
G1 X101.092 Y167.805 E7.94918
G1 X99.71 Y167.574 E7.99579
G1 X98.656 Y167.38 E8.03143
G1 X97.553 Y167.146 E8.06893
G1 X95.623 Y166.695 E8.13486
G1 X94.162 Y166.298 E8.18521
G1 X92.232 Y165.725 E8.25217
G1 X90.92 Y165.286 E8.29819
G1 X89.587 Y164.808 E8.34529
G1 X88.573 Y164.422 E8.38137
G1 X87.605 Y164.027 E8.41615
G1 X86.396 Y163.51 E8.45988
G1 X85.333 Y163.032 E8.49865
G1 X84.411 Y162.588 E8.53268
G1 X83.169 Y161.967 E8.57887
G1 X82.261 Y161.492 E8.61295
G1 X81.277 Y160.944 E8.65041
G1 X80.15 Y160.294 E8.69368
G1 X79.2 Y159.723 E8.73055
G1 X78.262 Y159.122 E8.7676
G1 X76.62 Y158.027 E8.83325
G1 X76.27 Y157.783 E8.84744
G1 X75.38 Y157.133 E8.88409
G1 X73.83 Y155.962 E8.9487
G1 X72.659 Y155.01 E8.9989
G1 X71.523 Y154.046 E9.04845
G1 X70.805 Y153.411 E9.08033
G1 X70.057 Y152.717 E9.11427
G1 X69.065 Y151.77 E9.15988
G1 X68.504 Y151.22 E9.18601
G1 X67.532 Y150.206 E9.23273
G1 X66.165 Y148.719 E9.29991
G1 X65.357 Y147.78 E9.34112
G1 X64.384 Y146.598 E9.39204
G1 X63.679 Y145.71 E9.42975
G1 X63.038 Y144.855 E9.46529
G1 X61.869 Y143.23 E9.53187
G1 X61.042 Y141.989 E9.58147
G1 X59.949 Y140.259 E9.64953
G1 X59.227 Y139.019 E9.69726
G1 X58.254 Y137.258 E9.76417
G1 X58.053 Y136.875 E9.77856
G1 X57.572 Y135.91 E9.81442
G1 X56.722 Y134.128 E9.88009
G1 X56.541 Y133.726 E9.89475
G1 X56.128 Y132.756 E9.92982
G1 X55.62 Y131.521 E9.97423
G1 X55.219 Y130.491 E10.01099
G1 X54.841 Y129.429 E10.04849
G1 X54.212 Y127.556 E10.1142
G1 X53.795 Y126.162 E10.1626
G1 X53.433 Y124.845 E10.20803
G1 X53.163 Y123.796 E10.24405
G1 X52.967 Y122.936 E10.27339
G1 X52.645 Y121.431 E10.32458
G1 X52.441 Y120.384 E10.36006
G1 X52.293 Y119.494 E10.39007
G1 X51.98 Y117.373 E10.46137
G1 X51.926 Y116.944 E10.47576
G1 X51.806 Y115.802 E10.51395
G1 X51.64 Y113.854 E10.57897
G1 X51.611 Y113.423 E10.59334
G1 X51.565 Y112.349 E10.6291
G1 X51.514 Y110.356 E10.6954
G1 X51.525 Y109.021 E10.73981
G1 X51.573 Y107.404 E10.79361
G1 X51.622 Y106.404 E10.82691
G1 X51.703 Y105.363 E10.86164
G1 X51.89 Y103.382 E10.92782
G1 X51.939 Y102.951 E10.94225
G1 X52.08 Y101.907 E10.97729
G1 X52.29 Y100.521 E11.02391
G1 X52.465 Y99.488 E11.05876
G1 X52.629 Y98.654 E11.08703
G1 X52.986 Y96.966 E11.14442
G1 X53.199 Y96.054 E11.17557
G1 X53.413 Y95.228 E11.20395
G1 X54.002 Y93.123 E11.27665
G1 X54.126 Y92.709 E11.29102
G1 X54.416 Y91.814 E11.32231
G1 X54.937 Y90.29 E11.37588
G1 X55.282 Y89.343 E11.4094
G1 X55.657 Y88.392 E11.44341
G1 X56.43 Y86.529 E11.51049
G1 X56.982 Y85.317 E11.55479
G1 X57.612 Y84.007 E11.60313
G1 X58.123 Y82.991 E11.64096
G1 X58.635 Y82.042 E11.67682
G1 X59.359 Y80.746 E11.7262
G1 X59.832 Y79.935 E11.75743
G1 X60.385 Y79.044 E11.7923
G1 X61.213 Y77.746 E11.84351
G1 X61.709 Y77.005 E11.87317
G1 X62.362 Y76.078 E11.91088
G1 X63.532 Y74.483 E11.97668
G1 X64.321 Y73.479 E12.01915
G1 X65.285 Y72.305 E12.06967
G1 X66.022 Y71.441 E12.10744
G1 X66.69 Y70.701 E12.1406
G1 X67.607 Y69.712 E12.18546
G1 X68.398 Y68.888 E12.22345
G0 F6000 X68.679 Y69.173
G1 F1200 X69.297 Y68.564 E12.25231
G1 X70.489 Y67.425 E12.30714
G1 X71.189 Y66.781 E12.33878
G1 X71.981 Y66.089 E12.37376
G1 X72.98 Y65.242 E12.41732
G1 X73.846 Y64.535 E12.4545
G1 X74.666 Y63.901 E12.48898
G1 X75.76 Y63.081 E12.53445
G1 X76.61 Y62.467 E12.56933
G1 X77.37 Y61.948 E12.59994
G1 X79.178 Y60.765 E12.6718
G1 X80.434 Y60.004 E12.72064
G1 X81.732 Y59.257 E12.77045
G1 X82.542 Y58.811 E12.80121
G1 X83.442 Y58.344 E12.83493
G1 X84.843 Y57.644 E12.88702
G1 X85.641 Y57.265 E12.91641
G1 X86.656 Y56.816 E12.95332
G1 X88.466 Y56.051 E13.01868
G1 X88.865 Y55.891 E13.03298
G1 X89.811 Y55.538 E13.06656
G1 X91.096 Y55.076 E13.11198
G1 X92.119 Y54.731 E13.14788
G1 X93.166 Y54.409 E13.18432
G1 X95.06 Y53.864 E13.24987
G1 X95.469 Y53.756 E13.26394
G1 X96.505 Y53.506 E13.29938
G1 X98.463 Y53.068 E13.36612
G1 X98.854 Y52.988 E13.37939
G1 X99.88 Y52.802 E13.41407
G1 X101.891 Y52.478 E13.48182
G1 X103.286 Y52.303 E13.52858
G1 X104.784 Y52.146 E13.57868
G1 X105.763 Y52.063 E13.61136
G1 X106.736 Y52.004 E13.64378
G1 X108.124 Y51.942 E13.68999
G1 X109.208 Y51.913 E13.72606
G1 X110.074 Y51.912 E13.75486
G1 X112.297 Y51.954 E13.82881
G1 X113.507 Y52.016 E13.86911
G1 X115.279 Y52.149 E13.92821
G1 X116.131 Y52.23 E13.95668
G1 X117.204 Y52.36 E13.99263
G1 X119.155 Y52.631 E14.05814
G1 X120.669 Y52.899 E14.10928
G1 X122.611 Y53.291 E14.17517
G1 X123.869 Y53.588 E14.21816
G1 X125.431 Y53.995 E14.27185
G1 X126.377 Y54.26 E14.30453
G1 X127.423 Y54.584 E14.34095
G1 X129.266 Y55.192 E14.40549
G1 X129.661 Y55.331 E14.41942
G1 X130.668 Y55.71 E14.45521
G1 X131.885 Y56.187 E14.49868
G1 X132.921 Y56.616 E14.53598
G1 X133.885 Y57.046 E14.57109
G1 X135.656 Y57.873 E14.6361
G1 X136.035 Y58.06 E14.65015
G1 X137.042 Y58.585 E14.68792
G1 X138.769 Y59.524 E14.75331
G1 X139.993 Y60.246 E14.80057
G1 X141.251 Y61.025 E14.84979
G1 X142.072 Y61.555 E14.88229
G1 X142.954 Y62.156 E14.91779
G1 X144.157 Y63.003 E14.96672
G1 X144.91 Y63.555 E14.99777
G1 X145.735 Y64.193 E15.03246
G1 X146.892 Y65.118 E15.08173
G1 X147.654 Y65.75 E15.11466
G1 X148.43 Y66.431 E15.149
G1 X149.904 Y67.769 E15.21521
G1 X150.209 Y68.058 E15.22918
G1 X151.002 Y68.841 E15.26625
G1 X152.35 Y70.22 E15.33039
G1 X152.627 Y70.515 E15.34385
G1 X153.384 Y71.357 E15.38151
G1 X154.666 Y72.839 E15.44668
G1 X155.579 Y73.971 E15.49505
G1 X156.379 Y75.004 E15.53851
G1 X157.058 Y75.916 E15.57632
G1 X157.664 Y76.777 E15.61134
G1 X158.469 Y77.958 E15.65888
G1 X159.012 Y78.789 E15.6919
G1 X159.487 Y79.558 E15.72196
G1 X160.291 Y80.902 E15.77405
G1 X160.799 Y81.791 E15.8081
G1 X161.282 Y82.69 E15.84205
G1 X161.971 Y84.018 E15.89181
G1 X162.377 Y84.84 E15.9223
G1 X162.851 Y85.865 E15.95986
G1 X163.644 Y87.673 E16.02553
G1 X164.178 Y89.008 E16.07335
G1 X164.648 Y90.262 E16.11789
G1 X165.007 Y91.274 E16.1536
G1 X165.317 Y92.226 E16.1869
G1 X165.712 Y93.503 E16.23136
G1 X166.033 Y94.609 E16.26967
G1 X166.257 Y95.468 E16.29919
G1 X166.769 Y97.602 E16.37218
G1 X166.858 Y98.008 E16.38601
G1 X167.063 Y99.06 E16.42166
G1 X167.406 Y101.002 E16.48725
G1 X167.47 Y101.412 E16.50105
G1 X167.613 Y102.47 E16.53656
G1 X167.766 Y103.74 E16.5791
G1 X167.882 Y104.875 E16.61705
G1 X167.958 Y105.886 E16.65077
G1 X168.048 Y107.394 E16.70102
G1 X168.086 Y108.346 E16.73271
G1 X168.099 Y109.181 E16.76048
G1 X168.1 Y110.721 E16.8117
G1 X168.081 Y111.806 E16.84779
G1 X168.034 Y112.836 E16.88209
G1 X167.951 Y114.233 E16.92863
G1 X167.87 Y115.265 E16.96306
G1 X167.755 Y116.344 E16.99916
G1 X167.447 Y118.751 E17.07987
G1 X167.281 Y119.744 E17.11335
G1 X167.038 Y121.081 E17.15855
G1 X166.833 Y122.107 E17.19335
G1 X166.571 Y123.256 E17.23254
G1 X166.096 Y125.158 E17.29775
G1 X165.716 Y126.481 E17.34353
G1 X165.316 Y127.781 E17.38877
G1 X164.966 Y128.845 E17.42602
G1 X164.591 Y129.886 E17.46283
G1 X163.898 Y131.708 E17.52766
G1 X163.743 Y132.094 E17.5415
G1 X163.322 Y133.077 E17.57706
G1 X162.793 Y134.266 E17.62035
G1 X162.455 Y134.997 E17.64713
G1 X161.82 Y136.274 E17.69457
G1 X160.904 Y138.015 E17.76
G1 X160.175 Y139.294 E17.80896
G1 X159.157 Y140.98 E17.87447
G1 X158.449 Y142.069 E17.91767
G1 X157.61 Y143.303 E17.9673
G1 X156.983 Y144.189 E18.0034
G1 X156.459 Y144.889 E18.03249
G1 X155.086 Y146.651 E18.10678
G1 X154.176 Y147.736 E18.15388
G1 X153.268 Y148.775 E18.19978
G1 X152.558 Y149.558 E18.23493
G1 X151.953 Y150.193 E18.2641
G1 X150.399 Y151.756 E18.33741
G1 X150.108 Y152.038 E18.35089
G1 X149.327 Y152.763 E18.38633
G1 X148.238 Y153.741 E18.43501
G1 X147.503 Y154.378 E18.46736
G1 X146.756 Y154.992 E18.49952
G1 X145.658 Y155.868 E18.54624
G1 X144.828 Y156.506 E18.58106
G1 X143.895 Y157.182 E18.61938
G1 X142.305 Y158.291 E18.68386
G1 X141.189 Y159.013 E18.72807
G1 X139.792 Y159.876 E18.78268
G1 X139.002 Y160.344 E18.81322
G1 X138.086 Y160.853 E18.84808
G1 X136.789 Y161.551 E18.89706
G1 X135.938 Y161.988 E18.92888
G1 X134.962 Y162.456 E18.96488
G1 X133.141 Y163.289 E19.03149
G1 X131.84 Y163.83 E19.07835
G1 X130.568 Y164.33 E19.12381
G1 X129.552 Y164.708 E19.15986
G1 X128.488 Y165.07 E19.19724
G1 X126.612 Y165.669 E19.26274
G1 X125.222 Y166.06 E19.31077
G1 X123.984 Y166.382 E19.35332
G1 X122.858 Y166.654 E19.39184
G1 X122.006 Y166.836 E19.42082
G1 X120.453 Y167.143 E19.47347
G1 X119.426 Y167.326 E19.50817
G1 X118.605 Y167.449 E19.53578
G1 X117.082 Y167.657 E19.58691
G1 X116.009 Y167.783 E19.62284
G1 X115.163 Y167.86 E19.65109
G1 X113.441 Y167.988 E19.70853
G1 X112.56 Y168.037 E19.73787
G1 X111.534 Y168.068 E19.77201
G1 X110.146 Y168.089 E19.81818
G1 X109.077 Y168.086 E19.85374
G1 X108.061 Y168.056 E19.88755
G1 X106.702 Y167.994 E19.93279
G1 X105.592 Y167.923 E19.96979
G1 X104.58 Y167.833 E20.00358
G1 X103.061 Y167.673 E20.05438
G1 X102.131 Y167.557 E20.08555
G1 X101.158 Y167.41 E20.11828
G1 X99.782 Y167.181 E20.16468
G1 X98.739 Y166.989 E20.19995
G1 X97.644 Y166.757 E20.23718
G1 X95.728 Y166.309 E20.30263
G1 X94.276 Y165.915 E20.35267
G1 X92.359 Y165.346 E20.41917
G1 X91.055 Y164.909 E20.46492
G1 X89.729 Y164.434 E20.51176
G1 X88.724 Y164.052 E20.54752
G1 X87.762 Y163.659 E20.58209
G1 X86.56 Y163.145 E20.62557
G1 X85.507 Y162.672 E20.66396
G1 X84.59 Y162.23 E20.69782
G1 X83.354 Y161.613 E20.74377
G1 X82.456 Y161.143 E20.77748
G1 X81.477 Y160.598 E20.81474
G1 X80.356 Y159.951 E20.85779
G1 X79.416 Y159.386 E20.89427
G1 X78.478 Y158.785 E20.93132
G1 X76.849 Y157.699 E20.99644
G1 X76.506 Y157.46 E21.01034
G1 X75.621 Y156.814 E21.04679
G1 X74.078 Y155.648 E21.11111
G1 X73.751 Y155.39 E21.12497
G1 X72.918 Y154.705 E21.16084
G1 X71.788 Y153.746 E21.21013
G1 X71.077 Y153.118 E21.24168
G1 X70.333 Y152.428 E21.27543
G1 X69.345 Y151.484 E21.32088
G1 X68.793 Y150.943 E21.34659
G1 X67.826 Y149.935 E21.39305
G1 X66.468 Y148.458 E21.45978
G1 X65.666 Y147.526 E21.50068
G1 X64.697 Y146.349 E21.55138
